;FLAVOR:Marlin
;TIME:8547
;Filament used: 7.20616m
;Layer height: 0.2
;MINX:79.354
;MINY:81.835
;MINZ:0.24
;MAXX:155.665
;MAXY:153.164
;MAXZ:22.09
;Generated with Cura_SteamEngine 4.13.0
M140 S60
M105
M190 S60
M104 S200
M105
M109 S200
M82 ;absolute extrusion mode
; Ender 3 Custom Start G-code
G92 E0 ; Reset Extruder
G28 ; Home all axes
G1 Z2.0 F3000 ; Move Z Axis up little to prevent scratching of Heat Bed
G1 X0.1 Y20 Z0.3 F5000.0 ; Move to start position
G1 X0.1 Y200.0 Z0.3 F1500.0 E15 ; Draw the first line
G1 X0.4 Y200.0 Z0.3 F5000.0 ; Move to side a little
G1 X0.4 Y20 Z0.3 F1500.0 E30 ; Draw the second line
G92 E0 ; Reset Extruder
G1 Z2.0 F3000 ; Move Z Axis up little to prevent scratching of Heat Bed
G1 X5 Y20 Z0.3 F5000.0 ; Move over to prevent blob squish
G92 E0
G92 E0
G1 F2700 E-5
;LAYER_COUNT:105
;LAYER:-6
M107
G0 F9000 X84.802 Y87.056 Z0.24
;TYPE:SUPPORT-INTERFACE
G1 F2700 E0
G1 F1125 X84.927 Y86.936 E0.01383
G1 X85.598 Y86.333 E0.08584
G1 X85.714 Y86.237 E0.09786
G1 X86.426 Y85.687 E0.16968
G1 X86.585 Y85.574 E0.18525
G1 X87.323 Y85.084 E0.25596
G1 X87.449 Y85.008 E0.26771
G1 X88.243 Y84.562 E0.34041
G1 X88.393 Y84.484 E0.3539
G1 X89.208 Y84.101 E0.42578
G1 X89.351 Y84.041 E0.43816
G1 X90.21 Y83.712 E0.51159
G1 X90.36 Y83.66 E0.52426
G1 X91.21 Y83.405 E0.5951
G1 X91.383 Y83.358 E0.60941
G1 X92.278 Y83.158 E0.68261
G1 X92.408 Y83.135 E0.69315
G1 X93.313 Y83.001 E0.76618
G1 X93.482 Y82.983 E0.77975
G1 X94.371 Y82.917 E0.85091
G1 X94.555 Y82.908 E0.86561
G1 X95.06 Y82.9 E0.90593
G1 X140.003 Y82.901 E4.49347
G1 X141.004 Y82.937 E4.57343
G1 X141.127 Y82.946 E4.58327
G1 X142.044 Y83.048 E4.65692
G1 X142.219 Y83.073 E4.67104
G1 X143.108 Y83.237 E4.7432
G1 X143.231 Y83.265 E4.75327
G1 X144.125 Y83.499 E4.82703
G1 X144.288 Y83.548 E4.84062
G1 X145.13 Y83.834 E4.9116
G1 X145.296 Y83.898 E4.9258
G1 X146.099 Y84.239 E4.99544
G1 X146.288 Y84.327 E5.01209
G1 X147.082 Y84.735 E5.08334
G1 X147.199 Y84.802 E5.09411
G1 X147.978 Y85.276 E5.1669
G1 X148.129 Y85.376 E5.18135
G1 X148.843 Y85.887 E5.25144
G1 X148.991 Y86 E5.2663
G1 X149.682 Y86.576 E5.33811
G1 X149.795 Y86.677 E5.35021
G1 X150.444 Y87.302 E5.42213
G1 X150.564 Y87.427 E5.43597
G1 X151.167 Y88.098 E5.50798
G1 X151.263 Y88.214 E5.52
G1 X151.822 Y88.938 E5.59301
G1 X151.916 Y89.069 E5.60588
G1 X152.416 Y89.823 E5.6781
G1 X152.492 Y89.949 E5.68985
G1 X152.938 Y90.743 E5.76254
G1 X153.016 Y90.893 E5.77604
G1 X153.399 Y91.708 E5.84792
G1 X153.459 Y91.851 E5.8603
G1 X153.788 Y92.71 E5.93373
G1 X153.84 Y92.86 E5.9464
G1 X154.095 Y93.71 E6.01724
G1 X154.142 Y93.883 E6.03155
G1 X154.34 Y94.769 E6.10402
G1 X154.365 Y94.908 E6.11529
G1 X154.498 Y95.807 E6.18783
G1 X154.516 Y95.969 E6.20084
G1 X154.583 Y96.871 E6.27304
G1 X154.592 Y97.055 E6.28775
G1 X154.6 Y97.556 E6.32775
G1 X154.6 Y137.486 E9.51513
G1 X154.564 Y138.492 E9.59549
G1 X154.554 Y138.627 E9.60629
G1 X154.452 Y139.544 E9.67994
G1 X154.427 Y139.719 E9.69405
G1 X154.265 Y140.597 E9.76532
G1 X154.235 Y140.731 E9.77628
G1 X154.004 Y141.616 E9.84929
G1 X153.952 Y141.788 E9.86364
G1 X153.676 Y142.6 E9.9321
G1 X153.596 Y142.809 E9.94996
G1 X153.261 Y143.599 E10.01846
G1 X153.18 Y143.774 E10.03385
G1 X152.765 Y144.582 E10.10636
G1 X152.698 Y144.699 E10.11712
G1 X152.224 Y145.478 E10.18991
G1 X152.124 Y145.629 E10.20437
G1 X151.613 Y146.343 E10.27446
G1 X151.5 Y146.491 E10.28932
G1 X150.924 Y147.182 E10.36113
G1 X150.823 Y147.295 E10.37323
G1 X150.198 Y147.944 E10.44515
G1 X150.073 Y148.064 E10.45898
G1 X149.403 Y148.666 E10.53088
G1 X149.286 Y148.763 E10.54301
G1 X148.574 Y149.313 E10.61483
G1 X148.415 Y149.426 E10.6304
G1 X147.677 Y149.916 E10.70111
G1 X147.551 Y149.992 E10.71286
G1 X146.757 Y150.438 E10.78555
G1 X146.606 Y150.516 E10.79912
G1 X145.792 Y150.899 E10.87093
G1 X145.649 Y150.959 E10.88331
G1 X144.79 Y151.288 E10.95674
G1 X144.64 Y151.34 E10.96941
G1 X143.79 Y151.595 E11.04025
G1 X143.617 Y151.642 E11.05456
G1 X142.722 Y151.842 E11.12776
G1 X142.592 Y151.865 E11.1383
G1 X141.687 Y151.999 E11.21133
G1 X141.519 Y152.017 E11.22482
G1 X140.629 Y152.083 E11.29606
G1 X140.445 Y152.092 E11.31076
G1 X139.94 Y152.1 E11.35108
G1 X94.997 Y152.099 E14.93862
G1 X93.996 Y152.063 E15.01858
G1 X93.873 Y152.054 E15.02842
G1 X92.956 Y151.952 E15.10207
G1 X92.781 Y151.927 E15.11618
G1 X91.892 Y151.763 E15.18834
G1 X91.769 Y151.735 E15.19841
G1 X90.875 Y151.501 E15.27218
G1 X90.712 Y151.452 E15.28577
G1 X89.87 Y151.166 E15.35675
G1 X89.704 Y151.102 E15.37095
G1 X88.901 Y150.761 E15.44059
G1 X88.712 Y150.673 E15.45723
G1 X87.918 Y150.265 E15.52849
G1 X87.801 Y150.198 E15.53925
G1 X87.022 Y149.724 E15.61204
G1 X86.871 Y149.624 E15.6265
G1 X86.157 Y149.113 E15.69659
G1 X86.009 Y149 E15.71145
G1 X85.318 Y148.424 E15.78326
G1 X85.205 Y148.323 E15.79536
G1 X84.556 Y147.698 E15.86728
G1 X84.436 Y147.573 E15.88111
G1 X83.833 Y146.902 E15.95313
G1 X83.736 Y146.784 E15.96532
G1 X83.178 Y146.062 E16.03816
G1 X83.074 Y145.915 E16.05253
G1 X82.581 Y145.172 E16.12371
G1 X82.508 Y145.051 E16.13499
G1 X82.056 Y144.246 E16.20869
G1 X81.984 Y144.107 E16.22118
G1 X81.587 Y143.261 E16.29578
G1 X81.541 Y143.149 E16.30544
G1 X81.212 Y142.29 E16.37887
G1 X81.155 Y142.125 E16.39281
G1 X80.905 Y141.29 E16.46238
G1 X80.858 Y141.117 E16.47669
G1 X80.657 Y140.216 E16.55038
G1 X80.635 Y140.092 E16.56044
G1 X80.5 Y139.178 E16.63419
G1 X80.483 Y139.018 E16.64703
G1 X80.417 Y138.126 E16.71843
G1 X80.408 Y137.945 E16.73289
G1 X80.4 Y137.444 E16.77289
G1 X80.4 Y97.514 E19.96028
G1 X80.436 Y96.508 E20.04063
G1 X80.446 Y96.373 E20.05144
G1 X80.548 Y95.456 E20.12509
G1 X80.573 Y95.281 E20.1392
G1 X80.735 Y94.403 E20.21047
G1 X80.765 Y94.269 E20.22143
G1 X80.996 Y93.384 E20.29444
G1 X81.048 Y93.212 E20.30878
G1 X81.334 Y92.37 E20.37977
G1 X81.398 Y92.204 E20.39397
G1 X81.739 Y91.401 E20.46361
G1 X81.82 Y91.226 E20.479
G1 X82.235 Y90.418 E20.55151
G1 X82.302 Y90.301 E20.56227
G1 X82.776 Y89.522 E20.63506
G1 X82.876 Y89.371 E20.64952
G1 X83.387 Y88.657 E20.7196
G1 X83.5 Y88.509 E20.73447
G1 X84.076 Y87.818 E20.80628
G1 X84.177 Y87.705 E20.81838
G1 X84.802 Y87.056 E20.8903
G1 X84.8 Y87.058
G1 X84.8 Y147.932 E25.74952
G0 F9000 X86.4 Y149.286
G1 F1125 X86.4 Y85.707 E30.82468
G0 F9000 X88 Y84.698
G1 F1125 X88 Y150.307 E36.06187
G0 F9000 X89.6 Y151.057
G1 F1125 X89.6 Y83.945 E41.41904
G0 F9000 X91.2 Y83.408
G1 F1125 X91.2 Y151.586 E46.8613
G0 F9000 X92.8 Y151.929
G1 F1125 X92.8 Y83.076 E52.35745
G0 F9000 X94.4 Y82.915
G1 F1125 X94.4 Y152.077 E57.87826
G0 F9000 X96 Y152.099
G1 F1125 X96 Y82.901 E63.40194
G0 F9000 X97.6 Y82.901
G1 F1125 X97.6 Y152.099 E68.92562
G0 F9000 X99.2 Y152.099
G1 F1125 X99.2 Y82.901 E74.44931
G0 F9000 X100.8 Y82.901
G1 F1125 X100.8 Y152.099 E79.97299
G0 F9000 X102.4 Y152.099
G1 F1125 X102.4 Y82.901 E85.49667
G0 F9000 X104 Y82.901
G1 F1125 X104 Y152.099 E91.02036
G0 F9000 X105.6 Y152.099
G1 F1125 X105.6 Y82.901 E96.54404
G0 F9000 X107.2 Y82.901
G1 F1125 X107.2 Y152.099 E102.06772
G0 F9000 X108.8 Y152.099
G1 F1125 X108.8 Y82.901 E107.59141
G0 F9000 X110.4 Y82.901
G1 F1125 X110.4 Y152.099 E113.11509
G0 F9000 X112 Y152.099
G1 F1125 X112 Y82.901 E118.63878
G0 F9000 X113.6 Y82.901
G1 F1125 X113.6 Y152.099 E124.16246
G0 F9000 X115.2 Y152.099
G1 F1125 X115.2 Y82.901 E129.68614
G0 F9000 X116.8 Y82.901
G1 F1125 X116.8 Y152.099 E135.20983
G0 F9000 X118.4 Y152.099
G1 F1125 X118.4 Y82.901 E140.73351
G0 F9000 X120 Y82.901
G1 F1125 X120 Y152.099 E146.25719
G0 F9000 X121.6 Y152.099
G1 F1125 X121.6 Y82.901 E151.78088
G0 F9000 X123.2 Y82.901
G1 F1125 X123.2 Y152.099 E157.30456
G0 F9000 X124.8 Y152.099
G1 F1125 X124.8 Y82.901 E162.82824
G0 F9000 X126.4 Y82.901
G1 F1125 X126.4 Y152.099 E168.35193
G0 F9000 X128 Y152.099
G1 F1125 X128 Y82.901 E173.87561
G0 F9000 X129.6 Y82.901
G1 F1125 X129.6 Y152.099 E179.39929
G0 F9000 X131.2 Y152.099
G1 F1125 X131.2 Y82.901 E184.92298
G0 F9000 X132.8 Y82.901
G1 F1125 X132.8 Y152.099 E190.44666
G0 F9000 X134.4 Y152.099
G1 F1125 X134.4 Y82.901 E195.97035
G0 F9000 X136 Y82.901
G1 F1125 X136 Y152.099 E201.49403
G0 F9000 X137.6 Y152.099
G1 F1125 X137.6 Y82.901 E207.01771
G0 F9000 X139.2 Y82.901
G1 F1125 X139.2 Y152.099 E212.5414
G0 F9000 X140.8 Y152.071
G1 F1125 X140.8 Y82.93 E218.06053
G0 F9000 X142.4 Y83.107
G1 F1125 X142.4 Y151.894 E223.55141
G0 F9000 X144 Y151.532
G1 F1125 X144 Y83.467 E228.98465
G0 F9000 X145.6 Y84.028
G1 F1125 X145.6 Y150.978 E234.32889
G0 F9000 X147.2 Y150.19
G1 F1125 X147.2 Y84.803 E239.54836
G0 F9000 X148.8 Y85.857
G1 F1125 X148.8 Y149.139 E244.5998
G0 F9000 X150.4 Y147.735
G1 F1125 X150.4 Y87.26 E249.42718
G0 F9000 X152 Y89.196
G1 F1125 X152 Y145.803 E253.94579
G0 F9000 X153.6 Y142.799
G1 F1125 X153.6 Y92.22 E257.98323
G1 F2700 E252.98323
G0 F9000 X154.594 Y91.838
G0 X153.878 Y90.243
G0 X152.796 Y88.472
G0 X151.968 Y87.397
G0 X150.514 Y85.892
G0 X149.481 Y85.034
G0 X147.743 Y83.887
G0 X146.538 Y83.269
G0 X144.62 Y82.536
G0 X143.316 Y82.194
G0 X141.231 Y81.887
G0 X139.987 Y81.836
G0 X94.31 Y81.854
G0 X92.242 Y82.083
G0 X90.927 Y82.379
G0 X88.961 Y83.05
G0 X87.743 Y83.622
G0 X85.977 Y84.701
G0 X84.897 Y85.532
G0 X83.679 Y86.709
G0 X82.534 Y88.019
G0 X83.2 Y88.918
G1 F2700 E257.98323
G1 F1125 X83.2 Y146.09 E262.54695
G0 F9000 X81.6 Y143.288
G1 F1125 X81.6 Y91.728 E266.66269
G1 F2700 E261.66269
G0 F300 X81.6 Y91.728 Z0.54
G0 F9000 X80.413 Y91.8
G0 X79.973 Y93.09
G0 X79.521 Y95.117
G0 X79.374 Y96.443
G0 X79.354 Y138.187
G0 X79.583 Y140.258
G0 X79.879 Y141.573
G0 X80.55 Y143.538
G0 X80.711 Y143.883
G0 X81.58 Y145.572
G0 X82.508 Y145.05
;TIME_ELAPSED:190.277097
;LAYER:-5
;TYPE:SUPPORT
G1 F2700 E266.66269
G1 F1125 X82.58 Y145.171 E266.67674
G1 X83.073 Y145.914 E266.76571
G1 X83.178 Y146.061 E266.78373
G1 X83.736 Y146.783 E266.87478
G1 X83.833 Y146.901 E266.89002
G1 X84.436 Y147.572 E266.98004
G1 X84.555 Y147.697 E266.99726
G1 X85.204 Y148.322 E267.08716
G1 X85.318 Y148.423 E267.10236
G1 X86.008 Y148.999 E267.19205
G1 X86.157 Y149.112 E267.21071
G1 X86.87 Y149.623 E267.29823
G1 X87.021 Y149.723 E267.3163
G1 X87.8 Y150.197 E267.40729
G1 X87.918 Y150.263 E267.42078
G1 X88.165 Y150.391 E267.44854
G1 X82.102 Y144.328 E268.3041
G1 X82.056 Y144.244 E268.31365
G1 X81.984 Y144.106 E268.32918
G1 X81.586 Y143.26 E268.42247
G1 X81.54 Y143.148 E268.43455
G1 X81.211 Y142.288 E268.52643
G1 X81.154 Y142.124 E268.54375
G1 X81.086 Y141.897 E268.5674
G1 X90.602 Y151.413 E269.91021
G1 X90.711 Y151.45 E269.92169
G1 X90.874 Y151.5 E269.93871
G1 X91.769 Y151.734 E270.03101
G1 X91.892 Y151.762 E270.0436
G1 X92.471 Y151.868 E270.10233
G1 X80.624 Y140.021 E271.77407
G1 X80.499 Y139.176 E271.8593
G1 X80.482 Y139.017 E271.87526
G1 X80.438 Y138.421 E271.93489
G1 X94.081 Y152.064 E273.86006
G1 X94.996 Y152.098 E273.95143
G1 X95.53 Y152.098 E274.00471
G1 X80.399 Y136.967 E276.13986
G1 X80.399 Y135.553 E276.28095
G1 X96.944 Y152.098 E278.61562
G1 X98.358 Y152.098 E278.75671
G1 X80.399 Y134.139 E281.29092
G1 X80.399 Y132.725 E281.43201
G1 X99.772 Y152.098 E284.16575
G1 X101.186 Y152.098 E284.30684
G1 X80.399 Y131.311 E287.24011
G1 X80.399 Y129.896 E287.3813
G1 X102.601 Y152.098 E290.51424
G1 X104.015 Y152.098 E290.65533
G1 X80.399 Y128.482 E293.98781
G1 X80.399 Y127.068 E294.12889
G1 X105.429 Y152.098 E297.6609
G1 X106.843 Y152.098 E297.80199
G1 X80.399 Y125.654 E301.53352
G1 X80.399 Y124.24 E301.67461
G1 X108.258 Y152.098 E305.60575
G1 X109.672 Y152.098 E305.74684
G1 X80.399 Y122.825 E309.87757
G1 X80.399 Y121.411 E310.01866
G1 X111.086 Y152.098 E314.34893
G1 X112.5 Y152.098 E314.49002
G1 X80.399 Y119.997 E319.01982
G1 X80.399 Y118.583 E319.16091
G1 X113.914 Y152.098 E323.89023
G1 X115.329 Y152.098 E324.03142
G1 X80.399 Y117.169 E328.96035
G1 X80.399 Y115.754 E329.10154
G1 X116.743 Y152.098 E334.23007
G1 X118.157 Y152.098 E334.37116
G1 X80.399 Y114.34 E339.69923
G1 X80.399 Y112.926 E339.84031
G1 X119.571 Y152.098 E345.36791
G1 X120.985 Y152.098 E345.509
G1 X80.399 Y111.512 E351.23612
G1 X80.399 Y110.097 E351.37731
G1 X122.4 Y152.098 E357.3041
G1 X123.814 Y152.098 E357.44519
G1 X80.399 Y108.683 E363.57152
G1 X80.399 Y107.269 E363.71261
G1 X125.228 Y152.098 E370.03846
G1 X126.642 Y152.098 E370.17955
G1 X80.399 Y105.855 E376.70494
G1 X80.399 Y104.441 E376.84603
G1 X128.057 Y152.098 E383.57102
G1 X129.471 Y152.098 E383.71211
G1 X80.399 Y103.026 E390.6367
G1 X80.399 Y101.612 E390.77779
G1 X130.885 Y152.098 E397.90191
G1 X132.299 Y152.098 E398.043
G1 X80.399 Y100.198 E405.36665
G1 X80.399 Y98.784 E405.50774
G1 X133.713 Y152.098 E413.03092
G1 X135.128 Y152.098 E413.17211
G1 X80.404 Y97.374 E420.89425
G1 X80.436 Y96.507 E420.98082
G1 X80.445 Y96.372 E420.99432
G1 X80.482 Y96.038 E421.02785
G1 X136.542 Y152.098 E428.93852
G1 X137.956 Y152.098 E429.07961
G1 X80.661 Y94.803 E437.16456
G1 X80.735 Y94.402 E437.20525
G1 X80.765 Y94.267 E437.21904
G1 X80.925 Y93.653 E437.28236
G1 X139.37 Y152.098 E445.52958
G1 X139.939 Y152.099 E445.58635
G1 X140.444 Y152.09 E445.63675
G1 X140.628 Y152.082 E445.65513
G1 X140.758 Y152.072 E445.66814
G1 X81.263 Y92.577 E454.06352
G1 X81.334 Y92.369 E454.08545
G1 X81.398 Y92.203 E454.1032
G1 X81.667 Y91.566 E454.1722
G1 X142.045 Y151.945 E462.69226
G1 X142.591 Y151.864 E462.74733
G1 X142.722 Y151.841 E462.76061
G1 X143.24 Y151.725 E462.81357
G1 X82.131 Y90.617 E471.43664
G1 X82.235 Y90.417 E471.45913
G1 X82.301 Y90.3 E471.47254
G1 X82.652 Y89.723 E471.53993
G1 X144.353 Y151.424 E480.2466
G1 X144.64 Y151.339 E480.27647
G1 X144.79 Y151.286 E480.29235
G1 X145.397 Y151.054 E480.35718
G1 X83.225 Y88.881 E489.1304
G1 X83.386 Y88.656 E489.158
G1 X83.5 Y88.507 E489.17672
G1 X83.848 Y88.09 E489.23092
G1 X146.378 Y150.621 E498.05465
G1 X146.605 Y150.514 E498.07969
G1 X146.757 Y150.436 E498.09673
G1 X147.302 Y150.13 E498.1591
G1 X84.519 Y87.347 E507.01846
G1 X84.801 Y87.054 E507.05903
G1 X84.927 Y86.935 E507.07633
G1 X85.24 Y86.654 E507.1183
G1 X148.172 Y149.586 E515.99868
G1 X148.415 Y149.425 E516.02777
G1 X148.573 Y149.311 E516.04721
G1 X148.99 Y148.99 E516.09972
G1 X86.008 Y86.008 E524.98716
G1 X86.425 Y85.687 E525.03967
G1 X86.583 Y85.574 E525.05905
G1 X86.827 Y85.412 E525.08827
G1 X149.758 Y148.344 E533.96859
G1 X150.072 Y148.063 E534.01063
G1 X150.197 Y147.944 E534.02785
G1 X150.48 Y147.651 E534.0685
G1 X87.696 Y84.868 E542.92793
G1 X88.241 Y84.562 E542.9903
G1 X88.392 Y84.483 E543.0073
G1 X88.619 Y84.376 E543.03234
G1 X151.151 Y146.908 E551.85628
G1 X151.499 Y146.491 E551.91047
G1 X151.612 Y146.342 E551.92913
G1 X151.774 Y146.117 E551.9568
G1 X89.601 Y83.944 E560.73008
G1 X90.209 Y83.712 E560.79501
G1 X90.359 Y83.659 E560.81089
G1 X90.645 Y83.574 E560.84066
G1 X152.346 Y145.275 E569.54734
G1 X152.697 Y144.698 E569.61472
G1 X152.764 Y144.582 E569.62809
G1 X152.868 Y144.382 E569.65058
G1 X91.759 Y83.273 E578.27372
G1 X92.276 Y83.157 E578.32659
G1 X92.407 Y83.134 E578.33986
G1 X92.953 Y83.053 E578.39494
G1 X153.331 Y143.431 E586.91493
G1 X153.594 Y142.808 E586.9824
G1 X153.674 Y142.6 E587.00464
G1 X153.735 Y142.421 E587.02351
G1 X94.24 Y82.926 E595.4189
G1 X94.37 Y82.916 E595.43191
G1 X94.554 Y82.908 E595.45028
G1 X95.059 Y82.899 E595.50068
G1 X95.628 Y82.9 E595.55746
G1 X154.073 Y141.345 E603.80468
G1 X154.234 Y140.731 E603.86801
G1 X154.263 Y140.596 E603.88179
G1 X154.338 Y140.195 E603.9225
G1 X97.042 Y82.9 E612.00751
G1 X98.456 Y82.9 E612.1486
G1 X154.516 Y138.96 E620.05927
G1 X154.553 Y138.626 E620.0928
G1 X154.562 Y138.491 E620.1063
G1 X154.594 Y137.624 E620.19287
G1 X99.871 Y82.9 E627.91495
G1 X101.285 Y82.9 E628.05604
G1 X154.599 Y136.214 E635.57922
G1 X154.599 Y134.8 E635.72031
G1 X102.699 Y82.9 E643.04396
G1 X104.113 Y82.9 E643.18505
G1 X154.599 Y133.386 E650.30917
G1 X154.599 Y131.972 E650.45026
G1 X105.527 Y82.9 E657.37485
G1 X106.942 Y82.9 E657.51604
G1 X154.599 Y130.558 E664.24102
G1 X154.599 Y129.143 E664.38221
G1 X108.356 Y82.9 E670.9076
G1 X109.77 Y82.9 E671.04869
G1 X154.599 Y127.729 E677.37455
G1 X154.599 Y126.315 E677.51564
G1 X111.184 Y82.9 E683.64196
G1 X112.598 Y82.9 E683.78305
G1 X154.599 Y124.901 E689.70984
G1 X154.599 Y123.487 E689.85093
G1 X114.013 Y82.9 E695.57813
G1 X115.427 Y82.9 E695.71922
G1 X154.599 Y122.072 E701.24681
G1 X154.599 Y120.658 E701.3879
G1 X116.841 Y82.9 E706.71596
