;FLAVOR:Marlin
;TIME:17498
;Filament used: 15.6896m
;Layer height: 0.2
;MINX:53.835
;MINY:63.005
;MINZ:0.24
;MAXX:189.119
;MAXY:164.13
;MAXZ:24.09
;Generated with Cura_SteamEngine 4.13.0
M140 S60
M105
M190 S60
M104 S200
M105
M109 S200
M82 ;absolute extrusion mode
; Ender 3 Custom Start G-code
G92 E0 ; Reset Extruder
G28 ; Home all axes
G1 Z2.0 F3000 ; Move Z Axis up little to prevent scratching of Heat Bed
G1 X0.1 Y20 Z0.3 F5000.0 ; Move to start position
G1 X0.1 Y200.0 Z0.3 F1500.0 E15 ; Draw the first line
G1 X0.4 Y200.0 Z0.3 F5000.0 ; Move to side a little
G1 X0.4 Y20 Z0.3 F1500.0 E30 ; Draw the second line
G92 E0 ; Reset Extruder
G1 Z2.0 F3000 ; Move Z Axis up little to prevent scratching of Heat Bed
G1 X5 Y20 Z0.3 F5000.0 ; Move over to prevent blob squish
G92 E0
G92 E0
G1 F2700 E-5
;LAYER_COUNT:115
;LAYER:-6
M107
G0 F9000 X60.098 Y67.503 Z0.24
;TYPE:SUPPORT-INTERFACE
G1 F2700 E0
G1 F1125 X60.214 Y67.407 E0.01202
G1 X60.926 Y66.857 E0.08384
G1 X61.085 Y66.744 E0.09941
G1 X61.823 Y66.254 E0.17012
G1 X61.949 Y66.178 E0.18187
G1 X62.743 Y65.732 E0.25456
G1 X62.893 Y65.654 E0.26806
G1 X63.708 Y65.271 E0.33994
G1 X63.851 Y65.211 E0.35232
G1 X64.71 Y64.882 E0.42574
G1 X64.86 Y64.83 E0.43842
G1 X65.71 Y64.575 E0.50926
G1 X65.883 Y64.528 E0.52357
G1 X66.778 Y64.328 E0.59677
G1 X66.908 Y64.305 E0.60731
G1 X67.813 Y64.171 E0.68034
G1 X67.982 Y64.153 E0.6939
G1 X68.871 Y64.087 E0.76506
G1 X69.055 Y64.078 E0.77977
G1 X69.56 Y64.07 E0.82008
G1 X87.503 Y64.071 E2.25237
G1 X88.504 Y64.107 E2.33233
G1 X88.627 Y64.116 E2.34217
G1 X89.544 Y64.218 E2.41582
G1 X89.719 Y64.243 E2.42993
G1 X90.608 Y64.407 E2.5021
G1 X90.731 Y64.435 E2.51217
G1 X91.625 Y64.669 E2.58593
G1 X91.788 Y64.718 E2.59952
G1 X92.63 Y65.004 E2.6705
G1 X92.796 Y65.068 E2.6847
G1 X93.599 Y65.409 E2.75434
G1 X93.788 Y65.497 E2.77099
G1 X94.582 Y65.905 E2.84224
G1 X94.699 Y65.972 E2.85301
G1 X95.478 Y66.446 E2.9258
G1 X95.629 Y66.546 E2.94025
G1 X96.343 Y67.057 E3.01034
G1 X96.491 Y67.17 E3.0252
G1 X97.182 Y67.746 E3.09701
G1 X97.295 Y67.847 E3.10911
G1 X97.944 Y68.472 E3.18103
G1 X98.064 Y68.597 E3.19487
G1 X98.667 Y69.268 E3.26688
G1 X98.763 Y69.384 E3.2789
G1 X99.322 Y70.108 E3.35191
G1 X99.416 Y70.239 E3.36478
G1 X99.916 Y70.993 E3.437
G1 X99.992 Y71.119 E3.44875
G1 X100.438 Y71.913 E3.52144
G1 X100.516 Y72.063 E3.53494
G1 X100.899 Y72.878 E3.60682
G1 X100.959 Y73.021 E3.6192
G1 X101.288 Y73.88 E3.69263
G1 X101.34 Y74.03 E3.7053
G1 X101.595 Y74.88 E3.77614
G1 X101.642 Y75.053 E3.79045
G1 X101.951 Y76.439 E3.9038
G1 X101.97 Y76.462 E3.90618
G1 X102.209 Y77.101 E3.96064
G1 X102.528 Y77.705 E4.01516
G1 X102.92 Y78.263 E4.0696
G1 X103.379 Y78.769 E4.12413
G1 X103.9 Y79.212 E4.17872
G1 X104.47 Y79.586 E4.23314
G1 X105.085 Y79.884 E4.28769
G1 X105.732 Y80.103 E4.34222
G1 X106.395 Y80.237 E4.39621
G1 X106.783 Y80.277 E4.42735
G1 X166.407 Y84.098 E9.19656
G1 X167.414 Y84.2 E9.27735
G1 X167.575 Y84.222 E9.29032
G1 X168.459 Y84.376 E9.36195
G1 X168.626 Y84.412 E9.37559
G1 X169.512 Y84.635 E9.44852
G1 X169.642 Y84.673 E9.45933
G1 X170.516 Y84.962 E9.53281
G1 X170.656 Y85.014 E9.54473
G1 X171.522 Y85.372 E9.61953
G1 X171.628 Y85.421 E9.62885
G1 X172.477 Y85.847 E9.70468
G1 X172.597 Y85.913 E9.71561
G1 X173.348 Y86.363 E9.7855
G1 X173.534 Y86.483 E9.80317
G1 X174.237 Y86.978 E9.8718
G1 X174.391 Y87.094 E9.88719
G1 X175.063 Y87.642 E9.95641
G1 X175.202 Y87.765 E9.97122
G1 X175.81 Y88.341 E10.03808
G1 X176.325 Y88.77 E10.09158
G1 X176.904 Y89.14 E10.14643
G1 X177.761 Y89.52 E10.22126
G1 X178.593 Y89.803 E10.29141
G1 X178.762 Y89.868 E10.30587
G1 X179.553 Y90.204 E10.37447
G1 X179.742 Y90.292 E10.39111
G1 X180.536 Y90.7 E10.46237
G1 X180.653 Y90.767 E10.47313
G1 X181.432 Y91.241 E10.54592
G1 X181.583 Y91.341 E10.56038
G1 X182.297 Y91.852 E10.63046
G1 X182.445 Y91.965 E10.64533
G1 X183.136 Y92.541 E10.71714
G1 X183.249 Y92.642 E10.72924
G1 X183.898 Y93.267 E10.80116
G1 X184.018 Y93.392 E10.81499
G1 X184.621 Y94.063 E10.887
G1 X184.717 Y94.179 E10.89902
G1 X185.267 Y94.891 E10.97084
G1 X185.38 Y95.05 E10.98641
G1 X185.87 Y95.788 E11.05712
G1 X185.946 Y95.914 E11.06887
G1 X186.392 Y96.708 E11.14156
G1 X186.47 Y96.858 E11.15506
G1 X186.853 Y97.673 E11.22694
G1 X186.913 Y97.816 E11.23932
G1 X187.242 Y98.675 E11.31275
G1 X187.294 Y98.825 E11.32542
G1 X187.549 Y99.675 E11.39626
G1 X187.596 Y99.848 E11.41057
G1 X187.794 Y100.734 E11.48304
G1 X187.819 Y100.873 E11.49431
G1 X187.952 Y101.772 E11.56685
G1 X187.97 Y101.934 E11.57986
G1 X188.037 Y102.836 E11.65206
G1 X188.046 Y103.02 E11.66677
G1 X188.054 Y103.521 E11.70677
G1 X188.054 Y148.451 E15.29327
G1 X188.018 Y149.457 E15.37363
G1 X188.008 Y149.592 E15.38443
G1 X187.906 Y150.509 E15.45808
G1 X187.883 Y150.673 E15.4713
G1 X187.719 Y151.562 E15.54347
G1 X187.689 Y151.696 E15.55443
G1 X187.458 Y152.581 E15.62744
G1 X187.406 Y152.753 E15.64178
G1 X187.13 Y153.565 E15.71024
G1 X187.05 Y153.774 E15.7281
G1 X186.715 Y154.564 E15.7966
G1 X186.634 Y154.739 E15.81199
G1 X186.219 Y155.547 E15.8845
G1 X186.152 Y155.664 E15.89526
G1 X185.678 Y156.443 E15.96805
G1 X185.578 Y156.594 E15.98251
G1 X185.067 Y157.308 E16.0526
G1 X184.954 Y157.456 E16.06746
G1 X184.378 Y158.147 E16.13927
G1 X184.277 Y158.26 E16.15137
G1 X183.652 Y158.909 E16.22329
G1 X183.527 Y159.029 E16.23712
G1 X182.857 Y159.631 E16.30902
G1 X182.74 Y159.728 E16.32116
G1 X182.028 Y160.278 E16.39297
G1 X181.869 Y160.391 E16.40854
G1 X181.131 Y160.881 E16.47926
G1 X181.005 Y160.957 E16.491
G1 X180.211 Y161.403 E16.5637
G1 X180.06 Y161.481 E16.57726
G1 X179.246 Y161.864 E16.64907
G1 X179.103 Y161.924 E16.66145
G1 X178.244 Y162.253 E16.73488
G1 X178.094 Y162.305 E16.74755
G1 X177.244 Y162.56 E16.81839
G1 X177.071 Y162.607 E16.8327
G1 X176.176 Y162.807 E16.90591
G1 X176.046 Y162.83 E16.91644
G1 X175.141 Y162.964 E16.98947
G1 X174.973 Y162.982 E17.00296
G1 X174.083 Y163.048 E17.0742
G1 X173.899 Y163.057 E17.0889
G1 X173.394 Y163.065 E17.12922
G1 X155.451 Y163.064 E18.56151
G1 X154.45 Y163.028 E18.64146
G1 X154.327 Y163.019 E18.65131
G1 X153.41 Y162.917 E18.72496
G1 X153.235 Y162.892 E18.73907
G1 X152.346 Y162.728 E18.81123
G1 X152.223 Y162.7 E18.8213
G1 X151.329 Y162.466 E18.89507
G1 X151.166 Y162.417 E18.90865
G1 X150.324 Y162.131 E18.97964
G1 X150.158 Y162.067 E18.99384
G1 X149.355 Y161.726 E19.06348
G1 X149.166 Y161.638 E19.08012
G1 X148.372 Y161.23 E19.15138
G1 X148.255 Y161.163 E19.16214
G1 X147.476 Y160.689 E19.23493
G1 X147.325 Y160.589 E19.24939
G1 X146.611 Y160.078 E19.31948
G1 X146.463 Y159.965 E19.33434
G1 X145.772 Y159.389 E19.40615
G1 X145.659 Y159.288 E19.41825
G1 X145.01 Y158.663 E19.49017
G1 X144.89 Y158.538 E19.504
G1 X144.287 Y157.867 E19.57601
G1 X144.19 Y157.749 E19.58821
G1 X143.632 Y157.027 E19.66105
G1 X143.528 Y156.88 E19.67542
G1 X143.035 Y156.137 E19.7466
G1 X142.962 Y156.016 E19.75788
G1 X142.51 Y155.211 E19.83157
G1 X142.438 Y155.072 E19.84407
G1 X142.041 Y154.226 E19.91867
G1 X141.995 Y154.114 E19.92833
G1 X141.666 Y153.255 E20.00176
G1 X141.609 Y153.09 E20.01569
G1 X141.359 Y152.255 E20.08527
G1 X141.312 Y152.082 E20.09958
G1 X141.003 Y150.696 E20.21293
G1 X140.984 Y150.673 E20.21531
G1 X140.745 Y150.034 E20.26977
G1 X140.426 Y149.43 E20.3243
G1 X140.034 Y148.872 E20.37873
G1 X139.575 Y148.366 E20.43327
G1 X139.054 Y147.923 E20.48786
G1 X138.484 Y147.549 E20.54228
G1 X137.869 Y147.251 E20.59683
G1 X137.222 Y147.032 E20.65135
G1 X136.559 Y146.898 E20.70535
G1 X136.171 Y146.858 E20.73648
G1 X76.547 Y143.037 E25.50569
G1 X75.54 Y142.935 E25.58648
G1 X75.377 Y142.913 E25.59961
G1 X74.495 Y142.759 E25.67108
G1 X74.328 Y142.723 E25.68472
G1 X73.442 Y142.5 E25.75765
G1 X73.312 Y142.462 E25.76846
G1 X72.438 Y142.173 E25.84194
G1 X72.298 Y142.121 E25.85387
G1 X71.432 Y141.763 E25.92867
G1 X71.326 Y141.714 E25.93799
G1 X70.477 Y141.288 E26.01381
G1 X70.357 Y141.222 E26.02474
G1 X69.606 Y140.772 E26.09463
G1 X69.42 Y140.652 E26.1123
G1 X68.717 Y140.157 E26.18093
G1 X68.563 Y140.041 E26.19632
G1 X67.888 Y139.49 E26.26588
G1 X67.752 Y139.37 E26.28035
G1 X67.144 Y138.794 E26.34721
G1 X66.629 Y138.365 E26.40071
G1 X66.05 Y137.995 E26.45556
G1 X65.193 Y137.615 E26.53039
G1 X64.361 Y137.332 E26.60055
G1 X64.192 Y137.267 E26.615
G1 X63.401 Y136.931 E26.6836
G1 X63.212 Y136.843 E26.70024
G1 X62.418 Y136.435 E26.7715
G1 X62.301 Y136.368 E26.78226
G1 X61.522 Y135.894 E26.85505
G1 X61.371 Y135.794 E26.86951
G1 X60.657 Y135.283 E26.9396
G1 X60.509 Y135.17 E26.95446
G1 X59.818 Y134.594 E27.02627
G1 X59.705 Y134.493 E27.03837
G1 X59.056 Y133.868 E27.11029
G1 X58.936 Y133.743 E27.12412
G1 X58.333 Y133.072 E27.19614
G1 X58.236 Y132.954 E27.20833
G1 X57.678 Y132.232 E27.28117
G1 X57.574 Y132.085 E27.29554
G1 X57.081 Y131.342 E27.36672
G1 X57.008 Y131.221 E27.378
G1 X56.556 Y130.416 E27.4517
G1 X56.484 Y130.277 E27.46419
G1 X56.101 Y129.461 E27.53615
G1 X56.036 Y129.307 E27.54949
G1 X55.712 Y128.46 E27.62188
G1 X55.655 Y128.295 E27.63581
G1 X55.405 Y127.46 E27.70539
G1 X55.358 Y127.287 E27.7197
G1 X55.157 Y126.386 E27.79339
G1 X55.135 Y126.262 E27.80344
G1 X55 Y125.348 E27.87719
G1 X54.983 Y125.188 E27.89004
G1 X54.917 Y124.296 E27.96143
G1 X54.908 Y124.115 E27.9759
G1 X54.9 Y123.614 E28.0159
G1 X54.9 Y78.684 E31.6024
G1 X54.936 Y77.68 E31.6826
G1 X54.947 Y77.54 E31.69381
G1 X55.048 Y76.626 E31.76721
G1 X55.073 Y76.451 E31.78132
G1 X55.235 Y75.573 E31.85259
G1 X55.265 Y75.439 E31.86355
G1 X55.496 Y74.554 E31.93657
G1 X55.548 Y74.382 E31.95091
G1 X55.834 Y73.54 E32.02189
G1 X55.898 Y73.374 E32.03609
G1 X56.239 Y72.571 E32.10573
G1 X56.32 Y72.396 E32.12113
G1 X56.735 Y71.588 E32.19363
G1 X56.802 Y71.471 E32.2044
G1 X57.276 Y70.692 E32.27719
G1 X57.376 Y70.541 E32.29164
G1 X57.887 Y69.827 E32.36173
G1 X58 Y69.679 E32.37659
G1 X58.576 Y68.988 E32.4484
G1 X58.677 Y68.875 E32.4605
G1 X59.302 Y68.226 E32.53242
G1 X59.427 Y68.106 E32.54626
G1 X60.098 Y67.503 E32.61827
G0 F9000 X60.8 Y66.954
G1 F1125 X60.8 Y135.385 E38.08073
G0 F9000 X62.4 Y136.424
G1 F1125 X62.4 Y65.924 E43.70834
G0 F9000 X64 Y65.153
G1 F1125 X64 Y137.185 E49.45825
G0 F9000 X65.6 Y137.795
G1 F1125 X65.6 Y64.608 E55.30035
G0 F9000 X67.2 Y64.261
G1 F1125 X67.2 Y138.847 E61.25413
G0 F9000 X68.8 Y140.215
G1 F1125 X68.8 Y64.092 E67.33059
G0 F9000 X70.4 Y64.071
G1 F1125 X70.4 Y141.245 E73.49096
G0 F9000 X72 Y141.997
G1 F1125 X72 Y64.071 E79.71135
G0 F9000 X73.6 Y64.071
G1 F1125 X73.6 Y142.539 E85.975
G0 F9000 X75.2 Y142.882
G1 F1125 X75.2 Y64.071 E92.26604
G0 F9000 X76.8 Y64.071
G1 F1125 X76.8 Y143.053 E98.57072
G0 F9000 X78.4 Y143.155
G1 F1125 X78.4 Y64.071 E104.88355
G0 F9000 X80 Y64.071
G1 F1125 X80 Y143.258 E111.2046
G0 F9000 X81.6 Y143.36
G1 F1125 X81.6 Y64.071 E117.53379
G0 F9000 X83.2 Y64.071
G1 F1125 X83.2 Y143.463 E123.8712
G0 F9000 X84.8 Y143.565
G1 F1125 X84.8 Y64.071 E130.21676
G0 F9000 X86.4 Y64.071
G1 F1125 X86.4 Y143.668 E136.57053
G0 F9000 X88 Y143.77
G1 F1125 X88 Y64.089 E142.93101
G0 F9000 X89.6 Y64.226
G1 F1125 X89.6 Y143.873 E149.28878
G0 F9000 X91.2 Y143.976
G1 F1125 X91.2 Y64.558 E155.62827
G0 F9000 X92.8 Y65.07
G1 F1125 X92.8 Y144.078 E161.93503
G0 F9000 X94.4 Y144.181
G1 F1125 X94.4 Y65.812 E168.19078
G0 F9000 X96 Y66.812
G1 F1125 X96 Y144.283 E174.37485
G0 F9000 X97.6 Y144.386
G1 F1125 X97.6 Y68.141 E180.46106
G0 F9000 X99.2 Y69.95
G1 F1125 X99.2 Y144.488 E186.411
G0 F9000 X100.8 Y144.591
G1 F1125 X100.8 Y72.668 E192.15221
G1 F2700 E187.15221
G0 F9000 X101.95 Y72.631
G0 X102.492 Y74.223
G0 X103.18 Y76.659
G0 X102.4 Y77.463
G1 F2700 E192.15221
G1 F1125 X102.4 Y144.693 E197.5188
G0 F9000 X104 Y144.796
G1 F1125 X104 Y79.278 E202.74873
G0 F9000 X105.6 Y80.059
G1 F1125 X105.6 Y144.898 E207.92446
G0 F9000 X107.2 Y145.001
G1 F1125 X107.2 Y80.304 E213.08885
G0 F9000 X108.8 Y80.407
G1 F1125 X108.8 Y145.103 E218.25317
G0 F9000 X110.4 Y145.206
G1 F1125 X110.4 Y80.509 E223.41756
G0 F9000 X112 Y80.612
G1 F1125 X112 Y145.309 E228.58196
G0 F9000 X113.6 Y145.411
G1 F1125 X113.6 Y80.714 E233.74635
G0 F9000 X115.2 Y80.817
G1 F1125 X115.2 Y145.514 E238.91074
G0 F9000 X116.8 Y145.616
G1 F1125 X116.8 Y80.919 E244.07514
G0 F9000 X118.4 Y81.022
G1 F1125 X118.4 Y145.719 E249.23953
G0 F9000 X120 Y145.821
G1 F1125 X120 Y81.125 E254.40385
G0 F9000 X121.6 Y81.227
G1 F1125 X121.6 Y145.924 E259.56824
G0 F9000 X123.2 Y146.026
G1 F1125 X123.2 Y81.33 E264.73256
G0 F9000 X124.8 Y81.432
G1 F1125 X124.8 Y146.129 E269.89695
G0 F9000 X126.4 Y146.231
G1 F1125 X126.4 Y81.535 E275.06126
G0 F9000 X128 Y81.637
G1 F1125 X128 Y146.334 E280.22566
G0 F9000 X129.6 Y146.436
G1 F1125 X129.6 Y81.74 E285.38997
G0 F9000 X131.2 Y81.842
G1 F1125 X131.2 Y146.539 E290.55437
G0 F9000 X132.8 Y146.641
G1 F1125 X132.8 Y81.945 E295.71868
G0 F9000 X134.4 Y82.047
G1 F1125 X134.4 Y146.744 E300.88308
G0 F9000 X136 Y146.847
G1 F1125 X136 Y82.15 E306.04747
G0 F9000 X137.6 Y82.252
G1 F1125 X137.6 Y147.159 E311.22863
G0 F9000 X139.2 Y148.047
G1 F1125 X139.2 Y82.355 E316.47245
G0 F9000 X140.8 Y82.457
G1 F1125 X140.8 Y150.181 E321.87847
G1 F2700 E316.87847
G0 F9000 X139.964 Y150.982
G0 X140.534 Y153.178
G0 X141.071 Y154.665
G0 X142.4 Y154.991
G1 F2700 E321.87847
G1 F1125 X142.4 Y82.56 E327.66023
G0 F9000 X144 Y82.663
G1 F1125 X144 Y157.503 E333.63428
G0 F9000 X145.6 Y159.231
G1 F1125 X145.6 Y82.765 E339.73813
G0 F9000 X147.2 Y82.868
G1 F1125 X147.2 Y160.499 E345.93497
G0 F9000 X148.8 Y161.449
G1 F1125 X148.8 Y82.97 E352.1995
G0 F9000 X150.4 Y83.073
G1 F1125 X150.4 Y162.156 E358.51225
G0 F9000 X152 Y162.641
G1 F1125 X152 Y83.175 E364.85557
G0 F9000 X153.6 Y83.278
G1 F1125 X153.6 Y162.938 E371.21437
G0 F9000 X155.2 Y163.054
G1 F1125 X155.2 Y83.38 E377.5743
G0 F9000 X156.8 Y83.483
G1 F1125 X156.8 Y163.064 E383.9268
G0 F9000 X158.4 Y163.064
G1 F1125 X158.4 Y83.585 E390.27115
G0 F9000 X160 Y83.688
G1 F1125 X160 Y163.064 E396.60729
G0 F9000 X161.6 Y163.064
G1 F1125 X161.6 Y83.79 E402.93528
G0 F9000 X163.2 Y83.893
G1 F1125 X163.2 Y163.064 E409.25505
G0 F9000 X164.8 Y163.064
G1 F1125 X164.8 Y83.996 E415.5666
G0 F9000 X166.4 Y84.098
G1 F1125 X166.4 Y163.064 E421.87001
G0 F9000 X168 Y163.064
G1 F1125 X168 Y84.297 E428.15753
G0 F9000 X169.6 Y84.661
G1 F1125 X169.6 Y163.064 E434.416
G0 F9000 X171.2 Y163.064
G1 F1125 X171.2 Y85.239 E440.62833
G0 F9000 X172.8 Y86.035
G1 F1125 X172.8 Y163.064 E446.77712
G0 F9000 X174.4 Y163.025
G1 F1125 X174.4 Y87.102 E452.83762
G0 F9000 X176 Y88.5
G1 F1125 X176 Y162.837 E458.77152
G0 F9000 X177.6 Y162.454
G1 F1125 X177.6 Y89.449 E464.59909
G0 F9000 X179.2 Y90.055
G1 F1125 X179.2 Y161.884 E470.33279
G0 F9000 X180.8 Y161.073
G1 F1125 X180.8 Y90.857 E475.93774
G0 F9000 X182.4 Y91.931
G1 F1125 X182.4 Y159.991 E481.37058
G0 F9000 X184 Y158.548
G1 F1125 X184 Y93.374 E486.57305
G0 F9000 X185.6 Y95.382
G1 F1125 X185.6 Y156.561 E491.45663
G0 F9000 X187.2 Y153.36
G1 F1125 X187.2 Y98.566 E495.83052
G1 F2700 E490.83052
G0 F9000 X188.194 Y98.184
G0 X187.42 Y96.379
G0 X186.773 Y95.225
G0 X185.553 Y93.521
G0 X184.657 Y92.52
G0 X183.102 Y91.127
G0 X181.997 Y90.339
G0 X172.965 Y84.901
G0 X171.051 Y84.025
G0 X169.784 Y83.606
G0 X90.816 Y63.364
G0 X88.731 Y63.057
G0 X87.487 Y63.006
G0 X68.81 Y63.024
G0 X66.742 Y63.253
G0 X65.427 Y63.549
G0 X63.461 Y64.22
G0 X62.243 Y64.792
G0 X60.477 Y65.871
G0 X60.172 Y66.106
G0 X58.698 Y67.33
G0 X59.2 Y68.331
G1 F2700 E495.83052
G1 F1125 X59.2 Y134.006 E501.07298
G0 F9000 X57.6 Y132.121
G1 F1125 X57.6 Y70.228 E506.01355
G0 F9000 X56 Y73.133
G1 F1125 X56 Y129.212 E510.49002
G0 F300 X56 Y129.212 Z0.54
G0 F9000 X56.483 Y130.275
;TIME_ELAPSED:358.681924
;LAYER:-5
;TYPE:SUPPORT
G1 F1125 X56.556 Y130.415 E510.50577
G1 X57.008 Y131.22 E510.59789
G1 X57.081 Y131.341 E510.61199
G1 X57.574 Y132.084 E510.70096
G1 X57.677 Y132.231 E510.71887
G1 X58.235 Y132.953 E510.80992
G1 X58.332 Y133.071 E510.82516
G1 X58.935 Y133.742 E510.91518
G1 X59.055 Y133.867 E510.93247
G1 X59.704 Y134.492 E511.02237
G1 X59.818 Y134.593 E511.03757
G1 X60.508 Y135.169 E511.12725
G1 X60.657 Y135.282 E511.14591
G1 X61.37 Y135.793 E511.23344
G1 X61.522 Y135.893 E511.2516
G1 X62.301 Y136.367 E511.34258
G1 X62.418 Y136.434 E511.35604
G1 X63.212 Y136.842 E511.44511
G1 X63.382 Y136.921 E511.46381
G1 X56.259 Y129.798 E512.46895
G1 X56.101 Y129.46 E512.50618
