;FLAVOR:Marlin
;TIME:7509
;Filament used: 6.44246m
;Layer height: 0.2
;MINX:78.835
;MINY:68.836
;MINZ:0.24
;MAXX:156.146
;MAXY:164.665
;MAXZ:11.09
;Generated with Cura_SteamEngine 4.13.0
M140 S60
M105
M190 S60
M104 S200
M105
M109 S200
M82 ;absolute extrusion mode
; Ender 3 Custom Start G-code
G92 E0 ; Reset Extruder
G28 ; Home all axes
G1 Z2.0 F3000 ; Move Z Axis up little to prevent scratching of Heat Bed
G1 X0.1 Y20 Z0.3 F5000.0 ; Move to start position
G1 X0.1 Y200.0 Z0.3 F1500.0 E15 ; Draw the first line
G1 X0.4 Y200.0 Z0.3 F5000.0 ; Move to side a little
G1 X0.4 Y20 Z0.3 F1500.0 E30 ; Draw the second line
G92 E0 ; Reset Extruder
G1 Z2.0 F3000 ; Move Z Axis up little to prevent scratching of Heat Bed
G1 X5 Y20 Z0.3 F5000.0 ; Move over to prevent blob squish
G92 E0
G92 E0
G1 F2700 E-5
;LAYER_COUNT:50
;LAYER:-6
M107
G0 F9000 X94.5 Y75.509 Z0.24
;TYPE:SUPPORT-INTERFACE
G1 F2700 E0
G1 F1125 X95.076 Y74.818 E0.07181
G1 X95.177 Y74.705 E0.08391
G1 X95.802 Y74.056 E0.15583
G1 X95.927 Y73.936 E0.16966
G1 X96.598 Y73.333 E0.24167
G1 X96.714 Y73.237 E0.25369
G1 X97.426 Y72.687 E0.32551
G1 X97.585 Y72.574 E0.34108
G1 X98.323 Y72.084 E0.41179
G1 X98.449 Y72.008 E0.42354
G1 X99.243 Y71.562 E0.49624
G1 X99.393 Y71.484 E0.50973
G1 X100.208 Y71.101 E0.58161
G1 X100.351 Y71.041 E0.59399
G1 X101.21 Y70.712 E0.66742
G1 X101.36 Y70.66 E0.68009
G1 X102.21 Y70.405 E0.75093
G1 X102.383 Y70.358 E0.76524
G1 X103.278 Y70.158 E0.83844
G1 X103.408 Y70.135 E0.84898
G1 X104.313 Y70.001 E0.92201
G1 X104.482 Y69.983 E0.93558
G1 X105.371 Y69.917 E1.00674
G1 X105.555 Y69.908 E1.02144
G1 X106.06 Y69.9 E1.06176
G1 X129.003 Y69.901 E2.89317
G1 X130.004 Y69.937 E2.97312
G1 X130.127 Y69.946 E2.98297
G1 X131.044 Y70.048 E3.05662
G1 X131.219 Y70.073 E3.07073
G1 X132.108 Y70.237 E3.14289
G1 X132.231 Y70.265 E3.15296
G1 X133.125 Y70.499 E3.22673
G1 X133.288 Y70.548 E3.24031
G1 X134.13 Y70.834 E3.3113
G1 X134.296 Y70.898 E3.3255
G1 X135.099 Y71.239 E3.39514
G1 X135.288 Y71.327 E3.41178
G1 X136.082 Y71.735 E3.48304
G1 X136.199 Y71.802 E3.4938
G1 X136.978 Y72.276 E3.56659
G1 X137.129 Y72.376 E3.58105
G1 X137.843 Y72.887 E3.65114
G1 X137.991 Y73 E3.666
G1 X138.682 Y73.576 E3.73781
G1 X138.795 Y73.677 E3.74991
G1 X139.444 Y74.302 E3.82183
G1 X139.564 Y74.427 E3.83566
G1 X140.167 Y75.098 E3.90767
G1 X140.263 Y75.214 E3.91969
G1 X140.822 Y75.938 E3.99271
G1 X140.916 Y76.069 E4.00558
G1 X141.416 Y76.823 E4.0778
G1 X141.492 Y76.949 E4.08954
G1 X141.938 Y77.743 E4.16224
G1 X142.016 Y77.893 E4.17573
G1 X142.399 Y78.708 E4.24762
G1 X142.459 Y78.851 E4.25999
G1 X142.788 Y79.71 E4.33342
G1 X142.84 Y79.86 E4.34609
G1 X143.095 Y80.71 E4.41693
G1 X143.142 Y80.883 E4.43124
G1 X143.34 Y81.769 E4.50371
G1 X143.365 Y81.908 E4.51498
G1 X143.498 Y82.807 E4.58753
G1 X143.516 Y82.969 E4.60054
G1 X143.583 Y83.871 E4.67274
G1 X143.592 Y84.055 E4.68744
G1 X143.6 Y84.556 E4.72744
G1 X143.6 Y87.913 E4.99541
G1 X143.642 Y88.581 E5.04884
G1 X143.771 Y89.252 E5.10338
G1 X143.984 Y89.901 E5.15791
G1 X144.276 Y90.518 E5.2124
G1 X144.644 Y91.093 E5.26689
G1 X145.082 Y91.617 E5.32141
G1 X145.582 Y92.081 E5.37586
G1 X146.137 Y92.48 E5.43042
G1 X146.703 Y92.787 E5.48182
G1 X146.769 Y92.818 E5.48764
G1 X147.582 Y93.235 E5.56057
G1 X147.699 Y93.302 E5.57134
G1 X148.478 Y93.776 E5.64413
G1 X148.629 Y93.876 E5.65858
G1 X149.343 Y94.387 E5.72867
G1 X149.491 Y94.5 E5.74353
G1 X150.182 Y95.076 E5.81534
G1 X150.295 Y95.177 E5.82744
G1 X150.944 Y95.802 E5.89936
G1 X151.064 Y95.927 E5.9132
G1 X151.667 Y96.598 E5.98521
G1 X151.763 Y96.714 E5.99723
G1 X152.322 Y97.438 E6.07024
G1 X152.416 Y97.569 E6.08311
G1 X152.916 Y98.323 E6.15533
G1 X152.992 Y98.449 E6.16708
G1 X153.438 Y99.243 E6.23977
G1 X153.516 Y99.393 E6.25327
G1 X153.899 Y100.208 E6.32515
G1 X153.959 Y100.351 E6.33753
G1 X154.288 Y101.21 E6.41096
G1 X154.34 Y101.36 E6.42363
G1 X154.595 Y102.21 E6.49447
G1 X154.642 Y102.383 E6.50878
G1 X154.84 Y103.269 E6.58125
G1 X154.865 Y103.408 E6.59252
G1 X154.998 Y104.307 E6.66506
G1 X155.016 Y104.469 E6.67807
G1 X155.083 Y105.371 E6.75027
G1 X155.092 Y105.555 E6.76498
G1 X155.1 Y106.056 E6.80498
G1 X155.1 Y128.986 E8.63535
G1 X155.064 Y129.992 E8.7157
G1 X155.054 Y130.127 E8.72651
G1 X154.952 Y131.044 E8.80016
G1 X154.927 Y131.219 E8.81427
G1 X154.765 Y132.097 E8.88554
G1 X154.735 Y132.231 E8.8965
G1 X154.504 Y133.116 E8.96951
G1 X154.452 Y133.288 E8.98385
G1 X154.176 Y134.1 E9.05231
G1 X154.096 Y134.309 E9.07018
G1 X153.761 Y135.099 E9.13867
G1 X153.68 Y135.274 E9.15407
G1 X153.265 Y136.082 E9.22658
G1 X153.198 Y136.199 E9.23734
G1 X152.724 Y136.978 E9.31013
G1 X152.624 Y137.129 E9.32458
G1 X152.113 Y137.843 E9.39467
G1 X152 Y137.991 E9.40954
G1 X151.424 Y138.682 E9.48134
G1 X151.323 Y138.795 E9.49344
G1 X150.698 Y139.444 E9.56537
G1 X150.573 Y139.564 E9.5792
G1 X149.903 Y140.166 E9.6511
G1 X149.786 Y140.263 E9.66323
G1 X149.074 Y140.813 E9.73505
G1 X148.915 Y140.926 E9.75062
G1 X148.177 Y141.416 E9.82133
G1 X148.051 Y141.492 E9.83308
G1 X147.246 Y141.944 E9.90677
G1 X147.107 Y142.016 E9.91927
G1 X146.694 Y142.21 E9.95569
G1 X146.106 Y142.533 E10.00924
G1 X145.554 Y142.934 E10.0637
G1 X145.057 Y143.402 E10.1182
G1 X144.623 Y143.929 E10.17269
G1 X144.259 Y144.507 E10.22722
G1 X143.971 Y145.126 E10.28172
G1 X143.762 Y145.776 E10.33622
G1 X143.638 Y146.446 E10.39061
G1 X143.6 Y147.081 E10.44139
G1 X143.6 Y148.986 E10.59345
G1 X143.564 Y149.992 E10.67381
G1 X143.554 Y150.127 E10.68461
G1 X143.452 Y151.044 E10.75827
G1 X143.427 Y151.219 E10.77238
G1 X143.265 Y152.097 E10.84364
G1 X143.235 Y152.231 E10.85461
G1 X143.004 Y153.116 E10.92762
G1 X142.952 Y153.288 E10.94196
G1 X142.676 Y154.1 E11.01042
G1 X142.596 Y154.309 E11.02828
G1 X142.261 Y155.099 E11.09678
G1 X142.18 Y155.274 E11.11217
G1 X141.765 Y156.082 E11.18468
G1 X141.698 Y156.199 E11.19544
G1 X141.224 Y156.978 E11.26823
G1 X141.124 Y157.129 E11.28269
G1 X140.613 Y157.843 E11.35278
G1 X140.5 Y157.991 E11.36764
G1 X139.924 Y158.682 E11.43945
G1 X139.823 Y158.795 E11.45155
G1 X139.198 Y159.444 E11.52347
G1 X139.073 Y159.564 E11.5373
G1 X138.403 Y160.166 E11.6092
G1 X138.286 Y160.263 E11.62134
G1 X137.574 Y160.813 E11.69315
G1 X137.415 Y160.926 E11.70872
G1 X136.677 Y161.416 E11.77944
G1 X136.551 Y161.492 E11.79118
G1 X135.757 Y161.938 E11.86388
G1 X135.606 Y162.016 E11.87744
G1 X134.792 Y162.399 E11.94925
G1 X134.649 Y162.459 E11.96163
G1 X133.79 Y162.788 E12.03506
G1 X133.64 Y162.84 E12.04773
G1 X132.79 Y163.095 E12.11857
G1 X132.617 Y163.142 E12.13288
G1 X131.722 Y163.342 E12.20609
G1 X131.592 Y163.365 E12.21662
G1 X130.687 Y163.499 E12.28965
G1 X130.519 Y163.517 E12.30314
G1 X129.629 Y163.583 E12.37438
G1 X129.445 Y163.592 E12.38908
G1 X128.94 Y163.6 E12.4294
G1 X105.997 Y163.599 E14.26081
G1 X104.996 Y163.563 E14.34076
G1 X104.873 Y163.554 E14.35061
G1 X103.956 Y163.452 E14.42426
G1 X103.781 Y163.427 E14.43837
G1 X102.892 Y163.263 E14.51053
G1 X102.769 Y163.235 E14.5206
G1 X101.875 Y163.001 E14.59437
G1 X101.712 Y162.952 E14.60796
G1 X100.87 Y162.666 E14.67894
G1 X100.704 Y162.602 E14.69314
G1 X99.901 Y162.261 E14.76278
G1 X99.712 Y162.173 E14.77942
G1 X98.918 Y161.765 E14.85068
G1 X98.801 Y161.698 E14.86144
G1 X98.022 Y161.224 E14.93423
G1 X97.871 Y161.124 E14.94869
G1 X97.157 Y160.613 E15.01878
G1 X97.009 Y160.5 E15.03364
G1 X96.318 Y159.924 E15.10545
G1 X96.205 Y159.823 E15.11755
G1 X95.556 Y159.198 E15.18947
G1 X95.436 Y159.073 E15.2033
G1 X94.833 Y158.402 E15.27531
G1 X94.736 Y158.284 E15.28751
G1 X94.178 Y157.562 E15.36035
G1 X94.074 Y157.415 E15.37472
G1 X93.581 Y156.672 E15.4459
G1 X93.508 Y156.551 E15.45718
G1 X93.056 Y155.746 E15.53087
G1 X92.984 Y155.607 E15.54337
G1 X92.587 Y154.761 E15.61797
G1 X92.541 Y154.649 E15.62763
G1 X92.212 Y153.79 E15.70106
G1 X92.155 Y153.625 E15.71499
G1 X91.905 Y152.79 E15.78457
G1 X91.858 Y152.617 E15.79888
G1 X91.657 Y151.716 E15.87257
G1 X91.635 Y151.592 E15.88262
G1 X91.5 Y150.678 E15.95637
G1 X91.483 Y150.518 E15.96922
G1 X91.417 Y149.626 E16.04062
G1 X91.408 Y149.445 E16.05508
G1 X91.4 Y148.944 E16.09508
G1 X91.4 Y147.087 E16.24331
G1 X91.358 Y146.419 E16.29674
G1 X91.229 Y145.748 E16.35128
G1 X91.016 Y145.099 E16.40581
G1 X90.724 Y144.482 E16.4603
G1 X90.356 Y143.907 E16.51479
G1 X89.918 Y143.383 E16.56931
G1 X89.418 Y142.919 E16.62376
G1 X88.863 Y142.52 E16.67832
G1 X88.297 Y142.213 E16.72972
G1 X88.231 Y142.182 E16.73554
G1 X87.418 Y141.765 E16.80848
G1 X87.301 Y141.698 E16.81924
G1 X86.522 Y141.224 E16.89203
G1 X86.371 Y141.124 E16.90648
G1 X85.657 Y140.613 E16.97657
G1 X85.509 Y140.5 E16.99144
G1 X84.818 Y139.924 E17.06324
G1 X84.705 Y139.823 E17.07534
G1 X84.056 Y139.198 E17.14727
G1 X83.936 Y139.073 E17.1611
G1 X83.333 Y138.402 E17.23311
G1 X83.236 Y138.284 E17.2453
G1 X82.678 Y137.562 E17.31814
G1 X82.574 Y137.415 E17.33252
G1 X82.081 Y136.672 E17.40369
G1 X82.008 Y136.551 E17.41497
G1 X81.556 Y135.746 E17.48867
G1 X81.484 Y135.607 E17.50117
G1 X81.087 Y134.761 E17.57576
G1 X81.041 Y134.649 E17.58543
G1 X80.712 Y133.79 E17.65885
G1 X80.655 Y133.625 E17.67279
G1 X80.405 Y132.79 E17.74237
G1 X80.358 Y132.617 E17.75668
G1 X80.157 Y131.716 E17.83037
G1 X80.135 Y131.592 E17.84042
G1 X80 Y130.678 E17.91417
G1 X79.983 Y130.518 E17.92701
G1 X79.917 Y129.626 E17.99841
G1 X79.908 Y129.445 E18.01288
G1 X79.9 Y128.944 E18.05287
G1 X79.9 Y106.014 E19.88325
G1 X79.936 Y105.008 E19.9636
G1 X79.946 Y104.873 E19.97441
G1 X80.048 Y103.956 E20.04806
G1 X80.073 Y103.781 E20.06217
G1 X80.235 Y102.903 E20.13344
G1 X80.265 Y102.769 E20.1444
G1 X80.496 Y101.884 E20.21741
G1 X80.548 Y101.712 E20.23175
G1 X80.834 Y100.87 E20.30274
G1 X80.898 Y100.704 E20.31694
G1 X81.239 Y99.901 E20.38658
G1 X81.32 Y99.726 E20.40197
G1 X81.735 Y98.918 E20.47448
G1 X81.802 Y98.801 E20.48524
G1 X82.276 Y98.022 E20.55803
G1 X82.376 Y97.871 E20.57249
G1 X82.887 Y97.157 E20.64257
G1 X83 Y97.009 E20.65744
G1 X83.576 Y96.318 E20.72925
G1 X83.677 Y96.205 E20.74135
G1 X84.302 Y95.556 E20.81327
G1 X84.427 Y95.436 E20.8271
G1 X85.098 Y94.833 E20.89911
G1 X85.214 Y94.737 E20.91113
G1 X85.926 Y94.187 E20.98295
G1 X86.085 Y94.074 E20.99852
G1 X86.823 Y93.584 E21.06923
G1 X86.949 Y93.508 E21.08098
G1 X87.754 Y93.056 E21.15467
G1 X87.893 Y92.984 E21.16717
G1 X88.306 Y92.79 E21.20359
G1 X88.894 Y92.467 E21.25715
G1 X89.446 Y92.066 E21.31161
G1 X89.943 Y91.598 E21.3661
G1 X90.377 Y91.071 E21.4206
G1 X90.741 Y90.493 E21.47512
G1 X91.029 Y89.874 E21.52962
G1 X91.238 Y89.224 E21.58412
G1 X91.362 Y88.554 E21.63851
G1 X91.4 Y87.919 E21.68929
G1 X91.4 Y84.514 E21.96109
G1 X91.436 Y83.508 E22.04145
G1 X91.446 Y83.373 E22.05225
G1 X91.548 Y82.456 E22.1259
G1 X91.573 Y82.281 E22.14002
G1 X91.735 Y81.403 E22.21128
G1 X91.765 Y81.269 E22.22225
G1 X91.996 Y80.384 E22.29526
G1 X92.048 Y80.212 E22.3096
G1 X92.334 Y79.37 E22.38058
G1 X92.398 Y79.204 E22.39479
G1 X92.739 Y78.401 E22.46442
G1 X92.82 Y78.226 E22.47982
G1 X93.235 Y77.418 E22.55233
G1 X93.302 Y77.301 E22.56309
G1 X93.776 Y76.522 E22.63588
G1 X93.876 Y76.371 E22.65034
G1 X94.387 Y75.657 E22.72042
G1 X94.5 Y75.509 E22.73529
G1 X94.4 Y75.639
G1 X94.4 Y157.849 E29.29764
G0 F9000 X96 Y159.625
G1 F1125 X96 Y73.87 E36.14298
G0 F9000 X97.6 Y72.564
G1 F1125 X97.6 Y160.93 E43.19673
G0 F9000 X99.2 Y161.909
G1 F1125 X99.2 Y71.586 E50.40671
G0 F9000 X100.8 Y70.869
G1 F1125 X100.8 Y162.639 E57.73219
G0 F9000 X102.4 Y163.138
G1 F1125 X102.4 Y70.354 E65.13861
G0 F9000 X104 Y70.047
G1 F1125 X104 Y163.456 E72.59492
G0 F9000 X105.6 Y163.584
G1 F1125 X105.6 Y69.907 E80.07262
G0 F9000 X107.2 Y69.901
G1 F1125 X107.2 Y163.599 E87.552
G0 F9000 X108.8 Y163.599
G1 F1125 X108.8 Y69.901 E95.03138
G0 F9000 X110.4 Y69.901
G1 F1125 X110.4 Y163.599 E102.51076
G0 F9000 X112 Y163.599
G1 F1125 X112 Y69.901 E109.99014
G0 F9000 X113.6 Y69.901
G1 F1125 X113.6 Y163.599 E117.46952
G0 F9000 X115.2 Y163.599
G1 F1125 X115.2 Y69.901 E124.9489
G0 F9000 X116.8 Y69.901
G1 F1125 X116.8 Y163.599 E132.42828
G0 F9000 X118.4 Y163.599
G1 F1125 X118.4 Y69.901 E139.90766
G0 F9000 X120 Y69.901
G1 F1125 X120 Y163.599 E147.38703
G0 F9000 X121.6 Y163.599
G1 F1125 X121.6 Y69.901 E154.86641
G0 F9000 X123.2 Y69.901
G1 F1125 X123.2 Y163.599 E162.34579
G0 F9000 X124.8 Y163.599
G1 F1125 X124.8 Y69.901 E169.82517
G0 F9000 X126.4 Y69.901
G1 F1125 X126.4 Y163.599 E177.30455
G0 F9000 X128 Y163.599
G1 F1125 X128 Y69.901 E184.78393
G0 F9000 X129.6 Y69.923
G1 F1125 X129.6 Y163.585 E192.26044
G0 F9000 X131.2 Y163.424
G1 F1125 X131.2 Y70.071 E199.71228
G0 F9000 X132.8 Y70.414
G1 F1125 X132.8 Y163.092 E207.11024
G0 F9000 X134.4 Y162.555
G1 F1125 X134.4 Y70.943 E214.4231
G0 F9000 X136 Y71.693
G1 F1125 X136 Y161.802 E221.61599
G0 F9000 X137.6 Y160.793
G1 F1125 X137.6 Y72.714 E228.64684
G0 F9000 X139.2 Y74.068
G1 F1125 X139.2 Y159.442 E235.46176
G0 F9000 X140.8 Y157.582
G1 F1125 X140.8 Y75.91 E241.98117
G0 F9000 X142.4 Y78.711
G1 F1125 X142.4 Y154.772 E248.05269
G1 F2700 E243.05269
G0 F9000 X143.587 Y154.7
G0 X144.027 Y153.41
G0 X144.479 Y151.383
G0 X144.561 Y150.632
G0 X144.798 Y146.032
G0 X144 Y145.064
G1 F2700 E248.05269
G1 F1125 X144 Y89.935 E252.45333
G0 F9000 X145.6 Y92.094
G1 F1125 X145.6 Y142.901 E256.50896
G0 F9000 X147.2 Y141.968
G1 F1125 X147.2 Y93.04 E260.41461
G0 F9000 X148.8 Y93.999
G1 F1125 X148.8 Y141.003 E264.16667
G0 F9000 X150.4 Y139.72
G1 F1125 X150.4 Y95.279 E267.71414
G0 F9000 X152 Y97.021
G1 F1125 X152 Y137.991 E270.98454
G0 F9000 X153.6 Y135.43
G1 F1125 X153.6 Y99.572 E273.84688
G1 F2700 E268.84688
G0 F9000 X154.466 Y98.914
G0 X142.319 Y76.26
G0 X141.099 Y74.556
G0 X140.203 Y73.555
G0 X138.648 Y72.162
G0 X137.543 Y71.374
G0 X135.749 Y70.368
G0 X134.485 Y69.831
G0 X132.488 Y69.232
G0 X131.172 Y68.991
G0 X128.987 Y68.836
G0 X105.31 Y68.854
G0 X103.242 Y69.083
G0 X101.927 Y69.379
G0 X99.961 Y70.05
G0 X98.743 Y70.622
G0 X96.977 Y71.701
G0 X95.897 Y72.532
G0 X94.392 Y73.986
G0 X93.534 Y75.019
G0 X92.387 Y76.757
G0 X91.769 Y77.962
G0 X91.036 Y79.88
G0 X90.694 Y81.184
G0 X90.418 Y83.06
G0 X90.202 Y88.968
G0 X91.2 Y89.342
G1 F2700 E273.84688
G1 F1125 X91.2 Y145.659 E278.34235
G0 F9000 X89.6 Y143.087
G1 F1125 X89.6 Y91.92 E282.42672
G0 F9000 X88 Y92.933
G1 F1125 X88 Y142.063 E286.34849
G0 F9000 X86.4 Y141.143
G1 F1125 X86.4 Y93.864 E290.12251
G0 F9000 X84.8 Y95.1
G1 F1125 X84.8 Y139.907 E293.69919
G0 F9000 X83.2 Y138.237
G1 F1125 X83.2 Y96.769 E297.00935
G0 F9000 X81.6 Y99.18
G1 F1125 X81.6 Y135.824 E299.93443
G1 F2700 E294.93443
G0 F9000 X80.534 Y136.086
G0 X79.713 Y134.159
G0 X79.327 Y132.878
G0 X78.947 Y130.833
G0 X80 Y130.678
G1 F2700 E299.93443
G1 F1125 X80 Y104.387 E302.03309
G1 F2700 E297.03309
G0 F9000 X78.991 Y103.828
G0 X79.232 Y102.512
G0 X79.831 Y100.515
G0 X80.265 Y99.492
G0 X91.769 Y77.962
G0 X92.8 Y78.269
G1 F2700 E302.03309
G1 F1125 X92.8 Y155.214 E308.17518
G1 F2700 E303.17518
G0 F300 X92.8 Y155.214 Z0.54
G0 F9000 X92.034 Y156.086
G0 X92.681 Y157.24
G0 X93.669 Y158.619
G0 X94.66 Y159.802
G0 X95.515 Y159.155
;TIME_ELAPSED:220.241894
;LAYER:-5
;TYPE:SUPPORT
G1 F2700 E308.17518
G1 F1125 X95.594 Y159.234 E308.18632
G1 X95.556 Y159.197 E308.19162
G1 X95.594 Y159.234
G1 X96.205 Y159.822 E308.27623
G1 X96.317 Y159.923 E308.29128
G1 X97.009 Y160.499 E308.38111
G1 X97.156 Y160.612 E308.39961
G1 X97.871 Y161.123 E308.4873
G1 X98.021 Y161.223 E308.50529
G1 X98.801 Y161.696 E308.59631
G1 X98.917 Y161.764 E308.60973
G1 X99.711 Y162.172 E308.6988
G1 X99.9 Y162.26 E308.7196
G1 X100.134 Y162.359 E308.74496
G1 X92.633 Y154.858 E309.80343
G1 X92.587 Y154.76 E309.81423
G1 X92.541 Y154.647 E309.82641
G1 X92.211 Y153.789 E309.91813
G1 X92.155 Y153.623 E309.93561
G1 X91.904 Y152.789 E310.02252
G1 X91.876 Y152.687 E310.03307
G1 X102.299 Y163.111 E311.50394
G1 X102.769 Y163.234 E311.55241
G1 X102.892 Y163.262 E311.565
G1 X103.78 Y163.426 E311.6551
G1 X103.956 Y163.451 E311.67284
G1 X104.067 Y163.463 E311.68398
G1 X91.537 Y150.934 E313.45203
G1 X91.499 Y150.677 E313.47795
G1 X91.482 Y150.517 E313.49401
G1 X91.417 Y149.625 E313.58325
G1 X91.407 Y149.444 E313.60133
G1 X91.406 Y149.389 E313.60682
G1 X105.6 Y163.583 E315.60975
G1 X105.997 Y163.598 E315.64939
G1 X107.029 Y163.598 E315.75236
G1 X91.399 Y147.968 E317.95793
G1 X91.399 Y147.085 E318.04603
