;FLAVOR:Marlin
;TIME:32602
;Filament used: 29.5045m
;Layer height: 0.2
;MINX:10.554
;MINY:26.854
;MINZ:0.24
;MAXX:224.465
;MAXY:208.165
;MAXZ:6.09
;Generated with Cura_SteamEngine 4.13.0
M140 S60
M105
M190 S60
M104 S200
M105
M109 S200
M82 ;absolute extrusion mode
; Ender 3 Custom Start G-code
G92 E0 ; Reset Extruder
G28 ; Home all axes
G1 Z2.0 F3000 ; Move Z Axis up little to prevent scratching of Heat Bed
G1 X0.1 Y20 Z0.3 F5000.0 ; Move to start position
G1 X0.1 Y200.0 Z0.3 F1500.0 E15 ; Draw the first line
G1 X0.4 Y200.0 Z0.3 F5000.0 ; Move to side a little
G1 X0.4 Y20 Z0.3 F1500.0 E30 ; Draw the second line
G92 E0 ; Reset Extruder
G1 Z2.0 F3000 ; Move Z Axis up little to prevent scratching of Heat Bed
G1 X5 Y20 Z0.3 F5000.0 ; Move over to prevent blob squish
G92 E0
G92 E0
G1 F2700 E-5
;LAYER_COUNT:25
;LAYER:-6
M107
G0 F9000 X21.56 Y62.91 Z0.24
;TYPE:SUPPORT-INTERFACE
G1 F2700 E0
G1 F1125 X22.41 Y62.655 E0.07084
G1 X22.583 Y62.608 E0.08515
G1 X23.478 Y62.408 E0.15835
G1 X23.608 Y62.385 E0.16889
G1 X24.513 Y62.251 E0.24192
G1 X24.682 Y62.233 E0.25549
G1 X25.571 Y62.167 E0.32665
G1 X25.755 Y62.158 E0.34135
G1 X26.26 Y62.15 E0.38167
G1 X56.763 Y62.15 E2.81655
G1 X57.431 Y62.108 E2.86998
G1 X58.102 Y61.979 E2.92452
G1 X58.751 Y61.766 E2.97904
G1 X59.368 Y61.474 E3.03353
G1 X59.943 Y61.106 E3.08803
G1 X60.467 Y60.668 E3.14254
G1 X60.931 Y60.168 E3.19699
G1 X61.33 Y59.612 E3.25162
G1 X61.654 Y59.012 E3.30605
G1 X61.9 Y58.376 E3.36049
G1 X62.066 Y57.707 E3.41551
G1 X62.15 Y56.768 E3.49076
G1 X62.15 Y42.514 E4.62858
G1 X62.186 Y41.508 E4.70893
G1 X62.196 Y41.373 E4.71974
G1 X62.298 Y40.456 E4.79339
G1 X62.323 Y40.281 E4.8075
G1 X62.485 Y39.403 E4.87877
G1 X62.515 Y39.269 E4.88973
G1 X62.746 Y38.384 E4.96274
G1 X62.798 Y38.212 E4.97709
G1 X63.084 Y37.37 E5.04807
G1 X63.148 Y37.204 E5.06227
G1 X63.489 Y36.401 E5.13191
G1 X63.57 Y36.226 E5.1473
G1 X63.985 Y35.418 E5.21981
G1 X64.052 Y35.301 E5.23057
G1 X64.526 Y34.522 E5.30336
G1 X64.626 Y34.371 E5.31782
G1 X65.137 Y33.657 E5.38791
G1 X65.25 Y33.509 E5.40277
G1 X65.826 Y32.818 E5.47458
G1 X65.927 Y32.705 E5.48668
G1 X66.552 Y32.056 E5.5586
G1 X66.677 Y31.936 E5.57243
G1 X67.348 Y31.333 E5.64445
G1 X67.464 Y31.237 E5.65646
G1 X68.176 Y30.687 E5.72828
G1 X68.335 Y30.574 E5.74385
G1 X69.073 Y30.084 E5.81457
G1 X69.199 Y30.008 E5.82631
G1 X69.993 Y29.562 E5.89901
G1 X70.143 Y29.484 E5.9125
G1 X70.958 Y29.101 E5.98438
G1 X71.101 Y29.041 E5.99676
G1 X71.96 Y28.712 E6.07019
G1 X72.11 Y28.66 E6.08286
G1 X72.96 Y28.405 E6.1537
G1 X73.133 Y28.358 E6.16801
G1 X74.028 Y28.158 E6.24122
G1 X74.158 Y28.135 E6.25175
G1 X75.063 Y28.001 E6.32478
G1 X75.232 Y27.983 E6.33835
G1 X76.121 Y27.917 E6.40951
G1 X76.305 Y27.908 E6.42421
G1 X76.81 Y27.9 E6.46453
G1 X158.253 Y27.901 E12.96566
G1 X159.254 Y27.937 E13.04562
G1 X159.377 Y27.946 E13.05546
G1 X160.294 Y28.048 E13.12911
G1 X160.469 Y28.073 E13.14322
G1 X161.358 Y28.237 E13.21539
G1 X161.481 Y28.265 E13.22546
G1 X162.375 Y28.499 E13.29922
G1 X162.538 Y28.548 E13.31281
G1 X163.38 Y28.834 E13.38379
G1 X163.546 Y28.898 E13.39799
G1 X164.349 Y29.239 E13.46763
G1 X164.538 Y29.327 E13.48427
G1 X165.332 Y29.735 E13.55553
G1 X165.449 Y29.802 E13.5663
G1 X166.228 Y30.276 E13.63909
G1 X166.379 Y30.376 E13.65354
G1 X167.093 Y30.887 E13.72363
G1 X167.241 Y31 E13.73849
G1 X167.932 Y31.576 E13.8103
G1 X168.045 Y31.677 E13.8224
G1 X168.694 Y32.302 E13.89432
G1 X168.814 Y32.427 E13.90816
G1 X169.417 Y33.098 E13.98017
G1 X169.513 Y33.214 E13.99219
G1 X170.072 Y33.938 E14.0652
G1 X170.166 Y34.069 E14.07807
G1 X170.666 Y34.823 E14.15029
G1 X170.742 Y34.949 E14.16204
G1 X171.188 Y35.743 E14.23473
G1 X171.266 Y35.893 E14.24823
G1 X171.649 Y36.708 E14.32011
G1 X171.709 Y36.851 E14.33249
G1 X172.038 Y37.71 E14.40592
G1 X172.09 Y37.86 E14.41859
G1 X172.345 Y38.71 E14.48943
G1 X172.392 Y38.883 E14.50374
G1 X172.59 Y39.769 E14.57621
G1 X172.615 Y39.908 E14.58748
G1 X172.748 Y40.807 E14.66002
G1 X172.766 Y40.969 E14.67303
G1 X172.833 Y41.871 E14.74523
G1 X172.842 Y42.055 E14.75994
G1 X172.85 Y42.556 E14.79994
G1 X172.85 Y56.763 E15.934
G1 X172.892 Y57.431 E15.98743
G1 X173.021 Y58.102 E16.04197
G1 X173.234 Y58.751 E16.09649
G1 X173.526 Y59.368 E16.15098
G1 X173.894 Y59.943 E16.20548
G1 X174.332 Y60.467 E16.25999
G1 X174.832 Y60.931 E16.31444
G1 X175.388 Y61.33 E16.36907
G1 X175.988 Y61.654 E16.4235
G1 X176.624 Y61.9 E16.47794
G1 X177.293 Y62.066 E16.53296
G1 X178.232 Y62.15 E16.60821
G1 X208.803 Y62.151 E19.04852
G1 X209.804 Y62.187 E19.12848
G1 X209.927 Y62.196 E19.13832
G1 X210.844 Y62.298 E19.21197
G1 X211.019 Y62.323 E19.22608
G1 X211.908 Y62.487 E19.29825
G1 X212.031 Y62.515 E19.30832
G1 X212.925 Y62.749 E19.38208
G1 X213.088 Y62.798 E19.39567
G1 X213.93 Y63.084 E19.46665
G1 X214.096 Y63.148 E19.48085
G1 X214.899 Y63.489 E19.55049
G1 X215.088 Y63.577 E19.56714
G1 X215.882 Y63.985 E19.63839
G1 X215.999 Y64.052 E19.64916
G1 X216.778 Y64.526 E19.72195
G1 X216.929 Y64.626 E19.7364
G1 X217.643 Y65.137 E19.80649
G1 X217.791 Y65.25 E19.82135
G1 X218.482 Y65.826 E19.89316
G1 X218.595 Y65.927 E19.90526
G1 X219.244 Y66.552 E19.97718
G1 X219.364 Y66.677 E19.99102
G1 X219.967 Y67.348 E20.06303
G1 X220.063 Y67.464 E20.07505
G1 X220.622 Y68.188 E20.14806
G1 X220.716 Y68.319 E20.16093
G1 X221.216 Y69.073 E20.23315
G1 X221.292 Y69.199 E20.2449
G1 X221.738 Y69.993 E20.31759
G1 X221.816 Y70.143 E20.33109
G1 X222.199 Y70.958 E20.40297
G1 X222.259 Y71.101 E20.41535
G1 X222.588 Y71.96 E20.48878
G1 X222.64 Y72.11 E20.50145
G1 X222.895 Y72.96 E20.57229
G1 X222.942 Y73.133 E20.5866
G1 X223.14 Y74.019 E20.65907
G1 X223.165 Y74.158 E20.67034
G1 X223.298 Y75.057 E20.74288
G1 X223.316 Y75.219 E20.75589
G1 X223.383 Y76.121 E20.82809
G1 X223.392 Y76.305 E20.8428
G1 X223.4 Y76.806 E20.8828
G1 X223.4 Y158.236 E27.38289
G1 X223.364 Y159.242 E27.46324
G1 X223.354 Y159.377 E27.47405
G1 X223.252 Y160.294 E27.5477
G1 X223.227 Y160.469 E27.56181
G1 X223.065 Y161.347 E27.63308
G1 X223.035 Y161.481 E27.64404
G1 X222.804 Y162.366 E27.71705
G1 X222.752 Y162.538 E27.7314
G1 X222.476 Y163.35 E27.79986
G1 X222.396 Y163.559 E27.81772
G1 X222.061 Y164.349 E27.88622
G1 X221.98 Y164.524 E27.90161
G1 X221.565 Y165.332 E27.97412
G1 X221.498 Y165.449 E27.98488
G1 X221.024 Y166.228 E28.05767
G1 X220.924 Y166.379 E28.07213
G1 X220.413 Y167.093 E28.14221
G1 X220.3 Y167.241 E28.15708
G1 X219.724 Y167.932 E28.22889
G1 X219.623 Y168.045 E28.24099
G1 X218.998 Y168.694 E28.31291
G1 X218.873 Y168.814 E28.32674
G1 X218.203 Y169.416 E28.39864
G1 X218.086 Y169.513 E28.41077
G1 X217.374 Y170.063 E28.48259
G1 X217.215 Y170.176 E28.49816
G1 X216.477 Y170.666 E28.56887
G1 X216.351 Y170.742 E28.58062
G1 X215.557 Y171.188 E28.65331
G1 X215.406 Y171.266 E28.66688
G1 X214.592 Y171.649 E28.73869
G1 X214.449 Y171.709 E28.75107
G1 X213.59 Y172.038 E28.8245
G1 X213.44 Y172.09 E28.83717
G1 X212.59 Y172.345 E28.90801
G1 X212.417 Y172.392 E28.92232
G1 X211.522 Y172.592 E28.99552
G1 X211.392 Y172.615 E29.00606
G1 X210.487 Y172.749 E29.07909
G1 X210.319 Y172.767 E29.09258
G1 X209.429 Y172.833 E29.16381
G1 X209.245 Y172.842 E29.17852
G1 X208.74 Y172.85 E29.21884
G1 X178.237 Y172.85 E31.65372
G1 X177.569 Y172.892 E31.70714
G1 X176.898 Y173.021 E31.76169
G1 X176.249 Y173.234 E31.81621
G1 X175.632 Y173.526 E31.8707
G1 X175.057 Y173.894 E31.9252
G1 X174.533 Y174.332 E31.97971
G1 X174.069 Y174.832 E32.03416
G1 X173.67 Y175.388 E32.08879
G1 X173.346 Y175.988 E32.14322
G1 X173.1 Y176.624 E32.19765
G1 X172.934 Y177.293 E32.25268
G1 X172.85 Y178.232 E32.32793
G1 X172.85 Y192.486 E33.46575
G1 X172.814 Y193.492 E33.5461
G1 X172.804 Y193.627 E33.55691
G1 X172.702 Y194.544 E33.63056
G1 X172.677 Y194.719 E33.64467
G1 X172.515 Y195.597 E33.71594
G1 X172.485 Y195.731 E33.7269
G1 X172.254 Y196.616 E33.79991
G1 X172.202 Y196.788 E33.81425
G1 X171.926 Y197.6 E33.88271
G1 X171.846 Y197.809 E33.90058
G1 X171.511 Y198.599 E33.96907
G1 X171.43 Y198.774 E33.98447
G1 X171.015 Y199.582 E34.05697
G1 X170.948 Y199.699 E34.06774
G1 X170.474 Y200.478 E34.14053
G1 X170.374 Y200.629 E34.15498
G1 X169.863 Y201.343 E34.22507
G1 X169.75 Y201.491 E34.23993
G1 X169.174 Y202.182 E34.31174
G1 X169.073 Y202.295 E34.32384
G1 X168.448 Y202.944 E34.39576
G1 X168.323 Y203.064 E34.4096
G1 X167.653 Y203.666 E34.4815
G1 X167.536 Y203.763 E34.49363
G1 X166.824 Y204.313 E34.56545
G1 X166.665 Y204.426 E34.58102
G1 X165.927 Y204.916 E34.65173
G1 X165.801 Y204.992 E34.66347
G1 X165.007 Y205.438 E34.73617
G1 X164.856 Y205.516 E34.74974
G1 X164.042 Y205.899 E34.82155
G1 X163.899 Y205.959 E34.83393
G1 X163.04 Y206.288 E34.90735
G1 X162.89 Y206.34 E34.92002
G1 X162.04 Y206.595 E34.99086
G1 X161.867 Y206.642 E35.00517
G1 X160.972 Y206.842 E35.07838
G1 X160.842 Y206.865 E35.08892
G1 X159.937 Y206.999 E35.16194
G1 X159.769 Y207.017 E35.17543
G1 X158.879 Y207.083 E35.24667
G1 X158.695 Y207.092 E35.26138
G1 X158.19 Y207.1 E35.30169
G1 X76.747 Y207.099 E41.80282
G1 X75.746 Y207.063 E41.88278
G1 X75.623 Y207.054 E41.89263
G1 X74.706 Y206.952 E41.96628
G1 X74.531 Y206.927 E41.98039
G1 X73.642 Y206.763 E42.05255
G1 X73.519 Y206.735 E42.06262
G1 X72.625 Y206.501 E42.13638
G1 X72.462 Y206.452 E42.14997
G1 X71.62 Y206.166 E42.22095
G1 X71.454 Y206.102 E42.23516
G1 X70.651 Y205.761 E42.3048
G1 X70.462 Y205.673 E42.32144
G1 X69.668 Y205.265 E42.3927
G1 X69.551 Y205.198 E42.40346
G1 X68.772 Y204.724 E42.47625
G1 X68.621 Y204.624 E42.4907
G1 X67.907 Y204.113 E42.56079
G1 X67.759 Y204 E42.57566
G1 X67.068 Y203.424 E42.64747
G1 X66.955 Y203.323 E42.65956
G1 X66.306 Y202.698 E42.73149
G1 X66.186 Y202.573 E42.74532
G1 X65.583 Y201.902 E42.81733
G1 X65.486 Y201.784 E42.82952
G1 X64.928 Y201.062 E42.90236
G1 X64.824 Y200.915 E42.91674
G1 X64.331 Y200.172 E42.98791
G1 X64.258 Y200.051 E42.99919
G1 X63.806 Y199.246 E43.07289
G1 X63.734 Y199.107 E43.08539
G1 X63.337 Y198.261 E43.15998
G1 X63.291 Y198.149 E43.16965
G1 X62.962 Y197.29 E43.24307
G1 X62.905 Y197.125 E43.25701
G1 X62.655 Y196.29 E43.32659
G1 X62.608 Y196.117 E43.3409
G1 X62.407 Y195.216 E43.41459
G1 X62.385 Y195.092 E43.42464
G1 X62.25 Y194.178 E43.49839
G1 X62.233 Y194.018 E43.51123
G1 X62.167 Y193.126 E43.58263
G1 X62.158 Y192.945 E43.5971
G1 X62.15 Y192.444 E43.63709
G1 X62.15 Y178.237 E44.77116
G1 X62.108 Y177.569 E44.82459
G1 X61.979 Y176.898 E44.87913
G1 X61.766 Y176.249 E44.93365
G1 X61.474 Y175.632 E44.98814
G1 X61.106 Y175.057 E45.04264
G1 X60.668 Y174.533 E45.09715
G1 X60.168 Y174.069 E45.1516
G1 X59.612 Y173.67 E45.20623
G1 X59.012 Y173.346 E45.26066
G1 X58.376 Y173.1 E45.3151
G1 X57.707 Y172.934 E45.37012
G1 X56.768 Y172.85 E45.44537
G1 X26.197 Y172.849 E47.88568
G1 X25.196 Y172.813 E47.96564
G1 X25.073 Y172.804 E47.97548
G1 X24.156 Y172.702 E48.04913
G1 X23.981 Y172.677 E48.06324
G1 X23.092 Y172.513 E48.13541
G1 X22.969 Y172.485 E48.14547
G1 X22.075 Y172.251 E48.21924
G1 X21.912 Y172.202 E48.23283
G1 X21.07 Y171.916 E48.30381
G1 X20.904 Y171.852 E48.31801
G1 X20.101 Y171.511 E48.38765
G1 X19.912 Y171.423 E48.40429
G1 X19.118 Y171.015 E48.47555
G1 X19.001 Y170.948 E48.48632
G1 X18.222 Y170.474 E48.55911
G1 X18.071 Y170.374 E48.57356
G1 X17.357 Y169.863 E48.64365
G1 X17.209 Y169.75 E48.65851
G1 X16.518 Y169.174 E48.73032
G1 X16.405 Y169.073 E48.74242
G1 X15.756 Y168.448 E48.81434
G1 X15.636 Y168.323 E48.82818
G1 X15.033 Y167.652 E48.90019
G1 X14.936 Y167.534 E48.91238
G1 X14.378 Y166.812 E48.98522
G1 X14.274 Y166.665 E48.99959
G1 X13.781 Y165.922 E49.07077
G1 X13.708 Y165.801 E49.08205
G1 X13.256 Y164.996 E49.15575
G1 X13.184 Y164.857 E49.16824
G1 X12.787 Y164.011 E49.24284
G1 X12.741 Y163.899 E49.25251
G1 X12.412 Y163.04 E49.32593
G1 X12.355 Y162.875 E49.33987
G1 X12.105 Y162.04 E49.40944
G1 X12.058 Y161.867 E49.42375
G1 X11.857 Y160.966 E49.49744
G1 X11.835 Y160.842 E49.5075
G1 X11.7 Y159.928 E49.58125
G1 X11.683 Y159.768 E49.59409
G1 X11.617 Y158.876 E49.66549
G1 X11.608 Y158.695 E49.67995
G1 X11.6 Y158.194 E49.71995
G1 X11.6 Y76.764 E56.22005
G1 X11.636 Y75.758 E56.3004
G1 X11.646 Y75.623 E56.31121
G1 X11.748 Y74.706 E56.38486
G1 X11.773 Y74.531 E56.39897
G1 X11.935 Y73.653 E56.47024
G1 X11.965 Y73.519 E56.4812
G1 X12.196 Y72.634 E56.55421
G1 X12.248 Y72.462 E56.56855
G1 X12.534 Y71.62 E56.63954
G1 X12.598 Y71.454 E56.65374
G1 X12.939 Y70.651 E56.72338
G1 X13.02 Y70.476 E56.73877
G1 X13.435 Y69.668 E56.81128
G1 X13.502 Y69.551 E56.82204
G1 X13.976 Y68.772 E56.89483
G1 X14.076 Y68.621 E56.90929
G1 X14.587 Y67.907 E56.97938
G1 X14.7 Y67.759 E56.99424
G1 X15.276 Y67.068 E57.06605
G1 X15.377 Y66.955 E57.07815
G1 X16.002 Y66.306 E57.15007
G1 X16.127 Y66.186 E57.1639
G1 X16.798 Y65.583 E57.23591
G1 X16.914 Y65.487 E57.24793
G1 X17.626 Y64.937 E57.31975
G1 X17.785 Y64.824 E57.33532
G1 X18.523 Y64.334 E57.40603
G1 X18.649 Y64.258 E57.41778
G1 X19.443 Y63.812 E57.49047
G1 X19.593 Y63.734 E57.50397
G1 X20.408 Y63.351 E57.57585
G1 X20.551 Y63.291 E57.58823
G1 X21.41 Y62.962 E57.66166
G1 X21.56 Y62.91 E57.67433
G0 F9000 X20.8 Y63.195
G1 F1125 X20.8 Y171.807 E66.34421
G0 F9000 X22.4 Y172.336
G1 F1125 X22.4 Y62.658 E75.09918
G0 F9000 X24 Y62.326
G1 F1125 X24 Y172.679 E83.90804
G0 F9000 X25.6 Y172.827
G1 F1125 X25.6 Y62.165 E92.74155
G0 F9000 X27.2 Y62.15
G1 F1125 X27.2 Y172.849 E101.57803
G0 F9000 X28.8 Y172.849
G1 F1125 X28.8 Y62.15 E110.4145
G0 F9000 X30.4 Y62.15
G1 F1125 X30.4 Y172.849 E119.25097
G0 F9000 X32 Y172.849
G1 F1125 X32 Y62.15 E128.08745
G0 F9000 X33.6 Y62.15
G1 F1125 X33.6 Y172.849 E136.92392
G0 F9000 X35.2 Y172.849
G1 F1125 X35.2 Y62.15 E145.76039
G0 F9000 X36.8 Y62.15
G1 F1125 X36.8 Y172.849 E154.59686
G0 F9000 X38.4 Y172.849
G1 F1125 X38.4 Y62.15 E163.43334
G0 F9000 X40 Y62.15
G1 F1125 X40 Y172.849 E172.26981
G0 F9000 X41.6 Y172.849
G1 F1125 X41.6 Y62.15 E181.10628
G0 F9000 X43.2 Y62.15
G1 F1125 X43.2 Y172.849 E189.94276
G0 F9000 X44.8 Y172.849
G1 F1125 X44.8 Y62.15 E198.77923
G0 F9000 X46.4 Y62.15
G1 F1125 X46.4 Y172.849 E207.6157
G0 F9000 X48 Y172.849
G1 F1125 X48 Y62.15 E216.45217
G0 F9000 X49.6 Y62.15
G1 F1125 X49.6 Y172.849 E225.28865
G0 F9000 X51.2 Y172.849
G1 F1125 X51.2 Y62.15 E234.12512
G0 F9000 X52.8 Y62.15
G1 F1125 X52.8 Y172.849 E242.96159
G0 F9000 X54.4 Y172.849
G1 F1125 X54.4 Y62.15 E251.79807
G0 F9000 X56 Y62.15
G1 F1125 X56 Y172.849 E260.63454
G0 F9000 X57.6 Y172.924
G1 F1125 X57.6 Y62.075 E269.48299
G0 F9000 X59.2 Y61.553
G1 F1125 X59.2 Y173.447 E278.41485
G0 F9000 X60.8 Y174.69
G1 F1125 X60.8 Y60.309 E287.54523
G1 F2700 E282.54523
G0 F9000 X60.106 Y59.493
G0 X61.137 Y41.269
G0 X61.271 Y40.117
G0 X62.4 Y39.863
G1 F2700 E287.54523
G1 F1125 X62.4 Y195.176 E299.94299
G1 F2700 E294.94299
G0 F9000 X61.365 Y195.434
G0 X61.894 Y197.458
G0 X62.161 Y198.161
G0 X62.872 Y199.757
G0 X64 Y199.591
G1 F2700 E299.94299
G1 F1125 X64 Y35.391 E313.05014
G0 F9000 X65.6 Y33.089
G1 F1125 X65.6 Y201.92 E326.52696
G0 F9000 X67.2 Y203.534
G1 F1125 X67.2 Y31.466 E340.26218
G0 F9000 X68.8 Y30.265
G1 F1125 X68.8 Y204.741 E354.1896
G0 F9000 X70.4 Y205.641
G1 F1125 X70.4 Y29.363 E368.26088
G0 F9000 X72 Y28.698
G1 F1125 X72 Y206.295 E382.43744
G0 F9000 X73.6 Y206.753
G1 F1125 X73.6 Y28.253 E396.68608
G0 F9000 X75.2 Y27.986
G1 F1125 X75.2 Y207.006 E410.97623
G0 F9000 X76.8 Y207.099
G1 F1125 X76.8 Y27.9 E425.28067
G0 F9000 X78.4 Y27.901
G1 F1125 X78.4 Y207.099 E439.58503
G0 F9000 X80 Y207.099
G1 F1125 X80 Y27.901 E453.88939
G0 F9000 X81.6 Y27.901
G1 F1125 X81.6 Y207.099 E468.19375
G0 F9000 X83.2 Y207.099
G1 F1125 X83.2 Y27.901 E482.49811
G0 F9000 X84.8 Y27.901
G1 F1125 X84.8 Y207.099 E496.80247
G0 F9000 X86.4 Y207.099
G1 F1125 X86.4 Y27.901 E511.10682
G0 F9000 X88 Y27.901
G1 F1125 X88 Y207.099 E525.41118
G0 F9000 X89.6 Y207.099
G1 F1125 X89.6 Y27.901 E539.71554
G0 F9000 X91.2 Y27.901
G1 F1125 X91.2 Y207.099 E554.0199
G0 F9000 X92.8 Y207.099
G1 F1125 X92.8 Y27.901 E568.32426
G0 F9000 X94.4 Y27.901
G1 F1125 X94.4 Y207.099 E582.62862
G0 F9000 X96 Y207.099
G1 F1125 X96 Y27.901 E596.93298
G0 F9000 X97.6 Y27.901
G1 F1125 X97.6 Y207.099 E611.23734
G0 F9000 X99.2 Y207.099
G1 F1125 X99.2 Y27.901 E625.5417
G0 F9000 X100.8 Y27.901
G1 F1125 X100.8 Y207.099 E639.84606
G0 F9000 X102.4 Y207.099
G1 F1125 X102.4 Y27.901 E654.15042
