;FLAVOR:Marlin
;TIME:20844
;Filament used: 17.7098m
;Layer height: 0.2
;MINX:10.603
;MINY:26.836
;MINZ:0.24
;MAXX:224.054
;MAXY:208.164
;MAXZ:5.09
;Generated with Cura_SteamEngine 4.13.0
M140 S60
M105
M190 S60
M104 S200
M105
M109 S200
M82 ;absolute extrusion mode
; Ender 3 Custom Start G-code
G92 E0 ; Reset Extruder
G28 ; Home all axes
G1 Z2.0 F3000 ; Move Z Axis up little to prevent scratching of Heat Bed
G1 X0.1 Y20 Z0.3 F5000.0 ; Move to start position
G1 X0.1 Y200.0 Z0.3 F1500.0 E15 ; Draw the first line
G1 X0.4 Y200.0 Z0.3 F5000.0 ; Move to side a little
G1 X0.4 Y20 Z0.3 F1500.0 E30 ; Draw the second line
G92 E0 ; Reset Extruder
G1 Z2.0 F3000 ; Move Z Axis up little to prevent scratching of Heat Bed
G1 X5 Y20 Z0.3 F5000.0 ; Move over to prevent blob squish
G92 E0
G92 E0
G1 F2700 E-5
;LAYER_COUNT:20
;LAYER:-6
M107
G0 F9000 X21.609 Y62.897 Z0.24
;TYPE:SUPPORT-INTERFACE
G1 F2700 E0
G1 F1125 X22.459 Y62.642 E0.07084
G1 X22.632 Y62.595 E0.08515
G1 X23.527 Y62.395 E0.15835
G1 X23.657 Y62.372 E0.16889
G1 X24.562 Y62.238 E0.24192
G1 X24.731 Y62.22 E0.25549
G1 X25.62 Y62.154 E0.32665
G1 X25.804 Y62.145 E0.34135
G1 X26.309 Y62.137 E0.38167
G1 X56.813 Y62.137 E2.81663
G1 X57.481 Y62.095 E2.87006
G1 X58.152 Y61.966 E2.9246
G1 X58.801 Y61.753 E2.97912
G1 X59.418 Y61.461 E3.03361
G1 X59.993 Y61.093 E3.08811
G1 X60.517 Y60.655 E3.14262
G1 X60.981 Y60.155 E3.19707
G1 X61.38 Y59.599 E3.2517
G1 X61.704 Y58.999 E3.30613
G1 X61.95 Y58.363 E3.36057
G1 X62.116 Y57.694 E3.41559
G1 X62.2 Y56.755 E3.49084
G1 X62.2 Y42.514 E4.62762
G1 X62.236 Y41.508 E4.70798
G1 X62.246 Y41.373 E4.71878
G1 X62.348 Y40.455 E4.79251
G1 X62.373 Y40.28 E4.80662
G1 X62.533 Y39.414 E4.87692
G1 X62.57 Y39.248 E4.8905
G1 X62.801 Y38.366 E4.96328
G1 X62.843 Y38.226 E4.97494
G1 X63.134 Y37.37 E5.04711
G1 X63.198 Y37.204 E5.06131
G1 X63.539 Y36.401 E5.13095
G1 X63.62 Y36.226 E5.14635
G1 X64.035 Y35.418 E5.21885
G1 X64.102 Y35.301 E5.22962
G1 X64.576 Y34.522 E5.30241
G1 X64.675 Y34.372 E5.31675
G1 X65.19 Y33.653 E5.38735
G1 X65.292 Y33.521 E5.40067
G1 X65.879 Y32.813 E5.47408
G1 X65.977 Y32.705 E5.48572
G1 X66.602 Y32.056 E5.55765
G1 X66.727 Y31.936 E5.57148
G1 X67.396 Y31.336 E5.64321
G1 X67.531 Y31.224 E5.65721
G1 X68.244 Y30.673 E5.72914
G1 X68.354 Y30.593 E5.74
G1 X69.113 Y30.092 E5.81259
G1 X69.274 Y29.993 E5.82768
G1 X70.028 Y29.57 E5.89669
G1 X70.224 Y29.469 E5.91429
G1 X71.007 Y29.102 E5.98332
G1 X71.158 Y29.037 E5.99644
G1 X72.015 Y28.709 E6.06969
G1 X72.151 Y28.663 E6.08115
G1 X73.025 Y28.399 E6.15403
G1 X73.162 Y28.363 E6.16534
G1 X74.076 Y28.159 E6.24009
G1 X74.22 Y28.133 E6.25178
G1 X75.112 Y28.001 E6.32375
G1 X75.282 Y27.983 E6.3374
G1 X76.171 Y27.917 E6.40856
G1 X76.355 Y27.908 E6.42326
G1 X76.86 Y27.9 E6.46358
G1 X158.302 Y27.901 E12.96463
G1 X159.303 Y27.937 E13.04459
G1 X159.426 Y27.946 E13.05443
G1 X160.343 Y28.048 E13.12808
G1 X160.518 Y28.073 E13.1422
G1 X161.407 Y28.237 E13.21436
G1 X161.53 Y28.265 E13.22443
G1 X162.424 Y28.499 E13.29819
G1 X162.587 Y28.548 E13.31178
G1 X163.429 Y28.834 E13.38276
G1 X163.595 Y28.898 E13.39696
G1 X164.398 Y29.239 E13.4666
G1 X164.587 Y29.327 E13.48325
G1 X165.381 Y29.735 E13.5545
G1 X165.498 Y29.802 E13.56527
G1 X166.277 Y30.276 E13.63806
G1 X166.428 Y30.376 E13.65251
G1 X167.142 Y30.887 E13.7226
G1 X167.29 Y31 E13.73746
G1 X167.981 Y31.576 E13.80927
G1 X168.094 Y31.677 E13.82137
G1 X168.743 Y32.302 E13.89329
G1 X168.863 Y32.427 E13.90713
G1 X169.466 Y33.098 E13.97914
G1 X169.562 Y33.214 E13.99116
G1 X170.121 Y33.938 E14.06417
G1 X170.215 Y34.069 E14.07704
G1 X170.715 Y34.823 E14.14926
G1 X170.791 Y34.949 E14.16101
G1 X171.237 Y35.743 E14.2337
G1 X171.315 Y35.893 E14.2472
G1 X171.698 Y36.708 E14.31908
G1 X171.758 Y36.851 E14.33146
G1 X172.087 Y37.71 E14.40489
G1 X172.139 Y37.86 E14.41756
G1 X172.394 Y38.71 E14.4884
G1 X172.441 Y38.883 E14.50271
G1 X172.639 Y39.769 E14.57518
G1 X172.664 Y39.908 E14.58645
G1 X172.797 Y40.807 E14.65899
G1 X172.815 Y40.969 E14.672
G1 X172.882 Y41.871 E14.7442
G1 X172.891 Y42.055 E14.75891
G1 X172.899 Y42.556 E14.79891
G1 X172.899 Y56.762 E15.93289
G1 X172.941 Y57.43 E15.98632
G1 X173.07 Y58.101 E16.04086
G1 X173.283 Y58.75 E16.09539
G1 X173.575 Y59.367 E16.14987
G1 X173.943 Y59.942 E16.20437
G1 X174.381 Y60.466 E16.25889
G1 X174.881 Y60.93 E16.31334
G1 X175.437 Y61.329 E16.36796
G1 X176.037 Y61.653 E16.42239
G1 X176.673 Y61.899 E16.47683
G1 X177.342 Y62.065 E16.53185
G1 X178.281 Y62.149 E16.6071
G1 X208.753 Y62.151 E19.03951
G1 X209.754 Y62.187 E19.11947
G1 X209.877 Y62.196 E19.12931
G1 X210.795 Y62.298 E19.20304
G1 X210.97 Y62.323 E19.21715
G1 X211.847 Y62.485 E19.28834
G1 X212.002 Y62.52 E19.30103
G1 X212.884 Y62.751 E19.37381
G1 X213.024 Y62.793 E19.38547
G1 X213.88 Y63.084 E19.45764
G1 X214.046 Y63.148 E19.47185
G1 X214.849 Y63.489 E19.54149
G1 X215.038 Y63.577 E19.55813
G1 X215.832 Y63.985 E19.62939
G1 X215.949 Y64.052 E19.64015
G1 X216.728 Y64.526 E19.71294
G1 X216.878 Y64.625 E19.72728
G1 X217.597 Y65.14 E19.79788
G1 X217.729 Y65.242 E19.8112
G1 X218.429 Y65.822 E19.88376
G1 X218.545 Y65.927 E19.89625
G1 X219.194 Y66.552 E19.96818
G1 X219.314 Y66.677 E19.98201
G1 X219.914 Y67.346 E20.05374
G1 X220.026 Y67.481 E20.06774
G1 X220.577 Y68.194 E20.13967
G1 X220.657 Y68.304 E20.15053
G1 X221.158 Y69.063 E20.22313
G1 X221.257 Y69.224 E20.23821
G1 X221.677 Y69.972 E20.30669
G1 X221.781 Y70.174 E20.32483
G1 X222.148 Y70.957 E20.39385
G1 X222.209 Y71.098 E20.40612
G1 X222.541 Y71.965 E20.48022
G1 X222.587 Y72.101 E20.49169
G1 X222.851 Y72.975 E20.56456
G1 X222.886 Y73.106 E20.57539
G1 X223.091 Y74.026 E20.65063
G1 X223.117 Y74.17 E20.66231
G1 X223.248 Y75.057 E20.73388
G1 X223.266 Y75.219 E20.74689
G1 X223.333 Y76.121 E20.81909
G1 X223.342 Y76.305 E20.8338
G1 X223.35 Y76.806 E20.87379
G1 X223.35 Y158.235 E27.37381
G1 X223.314 Y159.241 E27.45416
G1 X223.304 Y159.376 E27.46497
G1 X223.202 Y160.293 E27.53862
G1 X223.177 Y160.468 E27.55273
G1 X223.015 Y161.346 E27.624
G1 X222.985 Y161.48 E27.63496
G1 X222.754 Y162.365 E27.70797
G1 X222.702 Y162.537 E27.72232
G1 X222.416 Y163.379 E27.7933
G1 X222.352 Y163.545 E27.8075
G1 X222.011 Y164.348 E27.87714
G1 X221.93 Y164.523 E27.89253
G1 X221.515 Y165.331 E27.96504
G1 X221.448 Y165.448 E27.9758
G1 X220.974 Y166.227 E28.04859
G1 X220.874 Y166.378 E28.06305
G1 X220.363 Y167.092 E28.13314
G1 X220.25 Y167.24 E28.148
G1 X219.674 Y167.931 E28.21981
G1 X219.573 Y168.044 E28.23191
G1 X218.948 Y168.693 E28.30383
G1 X218.823 Y168.813 E28.31766
G1 X218.153 Y169.415 E28.38956
G1 X218.036 Y169.512 E28.40169
G1 X217.324 Y170.062 E28.47351
G1 X217.165 Y170.175 E28.48908
G1 X216.427 Y170.665 E28.5598
G1 X216.301 Y170.741 E28.57154
G1 X215.507 Y171.187 E28.64424
G1 X215.356 Y171.265 E28.6578
G1 X214.542 Y171.648 E28.72961
G1 X214.399 Y171.708 E28.74199
G1 X213.54 Y172.037 E28.81542
G1 X213.39 Y172.089 E28.82809
G1 X212.54 Y172.344 E28.89893
G1 X212.367 Y172.391 E28.91324
G1 X211.472 Y172.591 E28.98644
G1 X211.342 Y172.614 E28.99698
G1 X210.437 Y172.748 E29.07001
G1 X210.269 Y172.766 E29.0835
G1 X209.379 Y172.832 E29.15474
G1 X209.195 Y172.841 E29.16944
G1 X208.69 Y172.849 E29.20976
G1 X178.286 Y172.849 E31.63674
G1 X177.618 Y172.891 E31.69017
G1 X176.947 Y173.02 E31.74471
G1 X176.298 Y173.233 E31.79923
G1 X175.681 Y173.525 E31.85372
G1 X175.106 Y173.893 E31.90822
G1 X174.582 Y174.331 E31.96273
G1 X174.118 Y174.831 E32.01718
G1 X173.719 Y175.387 E32.07181
G1 X173.395 Y175.987 E32.12624
G1 X173.149 Y176.623 E32.18068
G1 X172.983 Y177.292 E32.2357
G1 X172.899 Y178.231 E32.31095
G1 X172.899 Y192.485 E33.44877
G1 X172.863 Y193.491 E33.52912
G1 X172.853 Y193.626 E33.53993
G1 X172.751 Y194.543 E33.61358
G1 X172.726 Y194.718 E33.62769
G1 X172.564 Y195.596 E33.69896
G1 X172.534 Y195.73 E33.70992
G1 X172.303 Y196.615 E33.78293
G1 X172.251 Y196.787 E33.79727
G1 X171.975 Y197.599 E33.86573
G1 X171.895 Y197.808 E33.8836
G1 X171.56 Y198.598 E33.95209
G1 X171.479 Y198.773 E33.96749
G1 X171.064 Y199.581 E34.04
G1 X170.997 Y199.698 E34.05076
G1 X170.523 Y200.477 E34.12355
G1 X170.423 Y200.628 E34.138
G1 X169.912 Y201.342 E34.20809
G1 X169.799 Y201.49 E34.22296
G1 X169.223 Y202.181 E34.29476
G1 X169.122 Y202.294 E34.30686
G1 X168.497 Y202.943 E34.37879
G1 X168.372 Y203.063 E34.39262
G1 X167.702 Y203.665 E34.46452
G1 X167.585 Y203.762 E34.47665
G1 X166.873 Y204.312 E34.54847
G1 X166.714 Y204.425 E34.56404
G1 X165.976 Y204.915 E34.63475
G1 X165.85 Y204.991 E34.6465
G1 X165.056 Y205.437 E34.71919
G1 X164.905 Y205.515 E34.73276
G1 X164.091 Y205.898 E34.80457
G1 X163.948 Y205.958 E34.81695
G1 X163.089 Y206.287 E34.89037
G1 X162.939 Y206.339 E34.90305
G1 X162.089 Y206.594 E34.97388
G1 X161.916 Y206.641 E34.98819
G1 X161.021 Y206.841 E35.0614
G1 X160.891 Y206.864 E35.07194
G1 X159.986 Y206.998 E35.14497
G1 X159.818 Y207.016 E35.15845
G1 X158.928 Y207.082 E35.22969
G1 X158.744 Y207.091 E35.2444
G1 X158.239 Y207.099 E35.28471
G1 X76.796 Y207.098 E41.78585
G1 X75.795 Y207.062 E41.8658
G1 X75.672 Y207.053 E41.87565
G1 X74.755 Y206.951 E41.9493
G1 X74.58 Y206.926 E41.96341
G1 X73.691 Y206.762 E42.03557
G1 X73.568 Y206.734 E42.04564
G1 X72.674 Y206.5 E42.11941
G1 X72.511 Y206.451 E42.13299
G1 X71.669 Y206.165 E42.20398
G1 X71.503 Y206.101 E42.21818
G1 X70.7 Y205.76 E42.28782
G1 X70.511 Y205.672 E42.30446
G1 X69.717 Y205.264 E42.37572
G1 X69.6 Y205.197 E42.38648
G1 X68.821 Y204.723 E42.45927
G1 X68.67 Y204.623 E42.47373
G1 X67.956 Y204.112 E42.54381
G1 X67.808 Y203.999 E42.55868
G1 X67.117 Y203.423 E42.63049
G1 X67.004 Y203.322 E42.64258
G1 X66.355 Y202.697 E42.71451
G1 X66.235 Y202.572 E42.72834
G1 X65.632 Y201.901 E42.80035
G1 X65.535 Y201.783 E42.81254
G1 X64.977 Y201.061 E42.88538
G1 X64.873 Y200.914 E42.89976
G1 X64.38 Y200.171 E42.97094
G1 X64.307 Y200.05 E42.98222
G1 X63.855 Y199.245 E43.05591
G1 X63.783 Y199.106 E43.06841
G1 X63.386 Y198.26 E43.143
G1 X63.34 Y198.148 E43.15267
G1 X63.011 Y197.289 E43.2261
G1 X62.954 Y197.124 E43.24003
G1 X62.704 Y196.289 E43.30961
G1 X62.657 Y196.116 E43.32392
G1 X62.456 Y195.215 E43.39761
G1 X62.434 Y195.091 E43.40766
G1 X62.299 Y194.177 E43.48141
G1 X62.282 Y194.017 E43.49425
G1 X62.216 Y193.125 E43.56565
G1 X62.207 Y192.944 E43.58012
G1 X62.199 Y192.443 E43.62012
G1 X62.199 Y178.224 E44.75514
G1 X62.157 Y177.556 E44.80857
G1 X62.028 Y176.885 E44.86311
G1 X61.815 Y176.236 E44.91763
G1 X61.523 Y175.619 E44.97212
G1 X61.155 Y175.044 E45.02662
G1 X60.717 Y174.52 E45.08113
G1 X60.217 Y174.056 E45.13558
G1 X59.661 Y173.657 E45.19021
G1 X59.061 Y173.333 E45.24464
G1 X58.425 Y173.087 E45.29908
G1 X57.756 Y172.921 E45.3541
G1 X56.817 Y172.837 E45.42935
G1 X26.246 Y172.835 E47.86966
G1 X25.245 Y172.799 E47.94962
G1 X25.122 Y172.79 E47.95946
G1 X24.204 Y172.688 E48.03319
G1 X24.029 Y172.663 E48.0473
G1 X23.149 Y172.5 E48.11874
G1 X22.997 Y172.466 E48.13118
G1 X22.115 Y172.235 E48.20396
G1 X21.975 Y172.193 E48.21562
G1 X21.119 Y171.902 E48.28779
G1 X20.953 Y171.838 E48.30199
G1 X20.15 Y171.497 E48.37163
G1 X19.961 Y171.409 E48.38828
G1 X19.167 Y171.001 E48.45953
G1 X19.05 Y170.934 E48.4703
G1 X18.271 Y170.46 E48.54309
G1 X18.12 Y170.36 E48.55754
G1 X17.4 Y169.844 E48.62825
G1 X17.27 Y169.744 E48.64134
G1 X16.57 Y169.164 E48.71391
G1 X16.454 Y169.059 E48.7264
G1 X15.794 Y168.423 E48.79956
G1 X15.685 Y168.309 E48.81215
G1 X15.085 Y167.64 E48.88389
G1 X14.973 Y167.505 E48.89789
G1 X14.422 Y166.792 E48.96982
G1 X14.342 Y166.68 E48.98081
G1 X13.834 Y165.912 E49.05431
G1 X13.742 Y165.762 E49.06836
G1 X13.315 Y165.001 E49.13801
G1 X13.218 Y164.812 E49.15497
G1 X12.848 Y164.022 E49.2246
G1 X12.784 Y163.873 E49.23755
G1 X12.458 Y163.021 E49.31037
G1 X12.408 Y162.873 E49.32284
G1 X12.148 Y162.011 E49.39471
G1 X12.109 Y161.864 E49.40685
G1 X11.908 Y160.96 E49.48077
G1 X11.882 Y160.816 E49.49245
G1 X11.749 Y159.914 E49.56523
G1 X11.732 Y159.754 E49.57808
G1 X11.666 Y158.862 E49.64947
G1 X11.657 Y158.681 E49.66394
G1 X11.649 Y158.18 E49.70394
G1 X11.649 Y76.751 E56.20395
G1 X11.685 Y75.745 E56.28431
G1 X11.695 Y75.61 E56.29511
G1 X11.797 Y74.693 E56.36876
G1 X11.822 Y74.518 E56.38287
G1 X11.984 Y73.64 E56.45414
G1 X12.014 Y73.506 E56.4651
G1 X12.245 Y72.621 E56.53811
G1 X12.297 Y72.449 E56.55246
G1 X12.583 Y71.607 E56.62344
G1 X12.647 Y71.441 E56.63764
G1 X12.988 Y70.638 E56.70728
G1 X13.069 Y70.463 E56.72268
G1 X13.484 Y69.655 E56.79518
G1 X13.551 Y69.538 E56.80595
G1 X14.025 Y68.759 E56.87874
G1 X14.125 Y68.608 E56.89319
G1 X14.636 Y67.894 E56.96328
G1 X14.749 Y67.746 E56.97814
G1 X15.325 Y67.055 E57.04995
G1 X15.426 Y66.942 E57.06205
G1 X16.051 Y66.293 E57.13397
G1 X16.176 Y66.173 E57.14781
G1 X16.847 Y65.57 E57.21982
G1 X16.963 Y65.474 E57.23184
G1 X17.675 Y64.924 E57.30365
G1 X17.834 Y64.811 E57.31922
G1 X18.572 Y64.321 E57.38994
G1 X18.698 Y64.245 E57.40168
G1 X19.492 Y63.799 E57.47438
G1 X19.642 Y63.721 E57.48787
G1 X20.457 Y63.338 E57.55976
G1 X20.6 Y63.278 E57.57214
G1 X21.459 Y62.949 E57.64556
G1 X21.609 Y62.897 E57.65823
G0 F9000 X22.4 Y62.659
G1 F1125 X22.4 Y172.309 E66.41097
G0 F9000 X24 Y172.657
G1 F1125 X24 Y62.321 E75.21847
G0 F9000 X25.6 Y62.155
G1 F1125 X25.6 Y172.811 E84.05151
G0 F9000 X27.2 Y172.835
G1 F1125 X27.2 Y62.137 E92.8879
G0 F9000 X28.8 Y62.137
G1 F1125 X28.8 Y172.835 E101.7243
G0 F9000 X30.4 Y172.835
G1 F1125 X30.4 Y62.137 E110.56069
G0 F9000 X32 Y62.137
G1 F1125 X32 Y172.835 E119.39708
G0 F9000 X33.6 Y172.835
G1 F1125 X33.6 Y62.137 E128.23347
G0 F9000 X35.2 Y62.137
G1 F1125 X35.2 Y172.835 E137.06987
G0 F9000 X36.8 Y172.835
G1 F1125 X36.8 Y62.137 E145.90626
G0 F9000 X38.4 Y62.137
G1 F1125 X38.4 Y172.835 E154.74265
G0 F9000 X40 Y172.835
G1 F1125 X40 Y62.137 E163.57905
G0 F9000 X41.6 Y62.137
G1 F1125 X41.6 Y172.836 E172.41552
G0 F9000 X43.2 Y172.836
G1 F1125 X43.2 Y62.137 E181.25199
G0 F9000 X44.8 Y62.137
G1 F1125 X44.8 Y172.836 E190.08846
G0 F9000 X46.4 Y172.836
G1 F1125 X46.4 Y62.137 E198.92494
G0 F9000 X48 Y62.137
G1 F1125 X48 Y172.836 E207.76141
G0 F9000 X49.6 Y172.836
G1 F1125 X49.6 Y62.137 E216.59788
G0 F9000 X51.2 Y62.137
G1 F1125 X51.2 Y172.836 E225.43436
G0 F9000 X52.8 Y172.836
G1 F1125 X52.8 Y62.137 E234.27083
G0 F9000 X54.4 Y62.137
G1 F1125 X54.4 Y172.836 E243.1073
G0 F9000 X56 Y172.836
G1 F1125 X56 Y62.137 E251.94377
G0 F9000 X57.6 Y62.072
G1 F1125 X57.6 Y172.907 E260.7911
G0 F9000 X59.2 Y173.408
G1 F1125 X59.2 Y61.564 E269.71898
G0 F9000 X60.8 Y60.35
G1 F1125 X60.8 Y174.619 E278.84042
G1 F2700 E273.84042
G0 F9000 X60.291 Y175.669
G0 X61.244 Y194.319
G0 X62.4 Y194.86
G1 F2700 E278.84042
G1 F1125 X62.4 Y40.133 E291.1914
G1 F2700 E286.1914
G0 F9000 X61.491 Y39.195
G0 X61.83 Y37.895
G0 X61.938 Y37.585
G0 X62.668 Y35.751
G0 X64 Y35.486
G1 F2700 E291.1914
G1 F1125 X64 Y199.503 E304.28395
G0 F9000 X65.6 Y201.862
G1 F1125 X65.6 Y33.149 E317.75135
G0 F9000 X67.2 Y31.511
G1 F1125 X67.2 Y203.492 E331.47961
G0 F9000 X68.8 Y204.709
G1 F1125 X68.8 Y30.298 E345.40185
G0 F9000 X70.4 Y29.386
G1 F1125 X70.4 Y205.614 E359.46914
G0 F9000 X72 Y206.277
G1 F1125 X72 Y28.714 E373.64298
G0 F9000 X73.6 Y28.265
G1 F1125 X73.6 Y206.741 E387.88971
G0 F9000 X75.2 Y207
G1 F1125 X75.2 Y27.991 E402.17898
G0 F9000 X76.8 Y27.9
G1 F1125 X76.8 Y207.098 E416.48334
G0 F9000 X78.4 Y207.098
G1 F1125 X78.4 Y27.901 E430.78762
G0 F9000 X80 Y27.901
G1 F1125 X80 Y207.098 E445.0919
G0 F9000 X81.6 Y207.098
G1 F1125 X81.6 Y27.901 E459.39618
G0 F9000 X83.2 Y27.901
G1 F1125 X83.2 Y207.098 E473.70046
G0 F9000 X84.8 Y207.098
G1 F1125 X84.8 Y27.901 E488.00474
G0 F9000 X86.4 Y27.901
G1 F1125 X86.4 Y207.098 E502.30902
G0 F9000 X88 Y207.098
G1 F1125 X88 Y27.901 E516.6133
G0 F9000 X89.6 Y27.901
G1 F1125 X89.6 Y207.098 E530.91757
G0 F9000 X91.2 Y207.098
G1 F1125 X91.2 Y27.901 E545.22185
G0 F9000 X92.8 Y27.901
G1 F1125 X92.8 Y207.098 E559.52613
G0 F9000 X94.4 Y207.098
G1 F1125 X94.4 Y27.901 E573.83041
G0 F9000 X96 Y27.901
G1 F1125 X96 Y207.098 E588.13469
G0 F9000 X97.6 Y207.098
G1 F1125 X97.6 Y27.901 E602.43897
G0 F9000 X99.2 Y27.901
G1 F1125 X99.2 Y207.098 E616.74325
G0 F9000 X100.8 Y207.098
G1 F1125 X100.8 Y27.901 E631.04753
G0 F9000 X102.4 Y27.901
G1 F1125 X102.4 Y207.098 E645.35181
G0 F9000 X104 Y207.098
G1 F1125 X104 Y27.901 E659.65609
G0 F9000 X105.6 Y27.901
