;FLAVOR:Marlin
;TIME:15306
;Filament used: 10.8204m
;Layer height: 0.2
;MINX:73.917
;MINY:68.252
;MINZ:0.24
;MAXX:161.181
;MAXY:160.586
;MAXZ:23.09
;Generated with Cura_SteamEngine 4.13.0
M140 S60
M105
M190 S60
M104 S200
M105
M109 S200
M82 ;absolute extrusion mode
; Ender 3 Custom Start G-code
G92 E0 ; Reset Extruder
G28 ; Home all axes
G1 Z2.0 F3000 ; Move Z Axis up little to prevent scratching of Heat Bed
G1 X0.1 Y20 Z0.3 F5000.0 ; Move to start position
G1 X0.1 Y200.0 Z0.3 F1500.0 E15 ; Draw the first line
G1 X0.4 Y200.0 Z0.3 F5000.0 ; Move to side a little
G1 X0.4 Y20 Z0.3 F1500.0 E30 ; Draw the second line
G92 E0 ; Reset Extruder
G1 Z2.0 F3000 ; Move Z Axis up little to prevent scratching of Heat Bed
G1 X5 Y20 Z0.3 F5000.0 ; Move over to prevent blob squish
G92 E0
G92 E0
G1 F2700 E-5
;LAYER_COUNT:110
;LAYER:-6
M107
G0 F9000 X93.342 Y74.506 Z0.24
;TYPE:SUPPORT-INTERFACE
G1 F2700 E0
G1 F1125 X93.486 Y74.338 E0.01766
G1 X94.079 Y73.696 E0.08743
G1 X94.197 Y73.577 E0.1008
G1 X94.855 Y72.96 E0.17281
G1 X94.981 Y72.85 E0.18616
G1 X95.659 Y72.303 E0.2557
G1 X95.832 Y72.173 E0.27297
G1 X96.55 Y71.674 E0.34277
G1 X96.671 Y71.596 E0.35426
G1 X97.468 Y71.126 E0.42812
G1 X97.601 Y71.053 E0.44023
G1 X98.407 Y70.653 E0.51205
G1 X98.583 Y70.573 E0.52749
G1 X99.401 Y70.239 E0.59802
G1 X99.547 Y70.186 E0.61041
G1 X100.404 Y69.907 E0.68236
G1 X100.58 Y69.857 E0.69696
G1 X101.441 Y69.645 E0.76774
G1 X101.614 Y69.609 E0.78185
G1 X102.499 Y69.458 E0.85352
G1 X102.657 Y69.437 E0.86624
G1 X103.565 Y69.35 E0.93905
G1 X103.705 Y69.341 E0.95025
G1 X104.574 Y69.317 E1.01964
G1 X130.503 Y69.318 E3.08941
G1 X131.504 Y69.354 E3.16936
G1 X131.627 Y69.363 E3.17921
G1 X132.544 Y69.465 E3.25286
G1 X132.719 Y69.49 E3.26697
G1 X133.608 Y69.654 E3.33913
G1 X133.731 Y69.682 E3.3492
G1 X134.625 Y69.916 E3.42297
G1 X134.788 Y69.965 E3.43655
G1 X135.63 Y70.251 E3.50754
G1 X135.796 Y70.315 E3.52174
G1 X136.599 Y70.656 E3.59138
G1 X136.788 Y70.744 E3.60802
G1 X137.582 Y71.152 E3.67928
G1 X137.699 Y71.219 E3.69004
G1 X138.478 Y71.693 E3.76283
G1 X138.629 Y71.793 E3.77729
G1 X139.343 Y72.304 E3.84738
G1 X139.491 Y72.417 E3.86224
G1 X140.182 Y72.993 E3.93405
G1 X140.295 Y73.094 E3.94615
G1 X140.944 Y73.719 E4.01807
G1 X141.064 Y73.844 E4.0319
G1 X141.667 Y74.515 E4.10391
G1 X141.763 Y74.631 E4.11593
G1 X142.313 Y75.343 E4.18775
G1 X142.426 Y75.502 E4.20332
G1 X142.916 Y76.24 E4.27403
G1 X142.992 Y76.366 E4.28578
G1 X143.438 Y77.16 E4.35847
G1 X143.516 Y77.31 E4.37197
G1 X143.899 Y78.125 E4.44385
G1 X143.959 Y78.268 E4.45623
G1 X144.288 Y79.127 E4.52966
G1 X144.34 Y79.277 E4.54233
G1 X144.595 Y80.127 E4.61317
G1 X144.642 Y80.3 E4.62748
G1 X144.839 Y81.186 E4.69993
G1 X144.864 Y81.321 E4.71089
G1 X144.998 Y82.224 E4.78376
G1 X145.016 Y82.386 E4.79677
G1 X145.084 Y83.288 E4.86898
G1 X145.09 Y83.444 E4.88144
G1 X145.09 Y84.346 E4.95344
G1 X145.085 Y84.51 E4.96654
G1 X145.019 Y85.42 E5.03937
G1 X145.003 Y85.571 E5.05149
G1 X144.877 Y86.427 E5.12056
G1 X144.822 Y87.095 E5.17406
G1 X144.853 Y87.778 E5.22864
G1 X144.968 Y88.451 E5.28314
G1 X145.168 Y89.103 E5.33757
G1 X145.449 Y89.726 E5.39213
G1 X145.805 Y90.309 E5.44666
G1 X146.231 Y90.838 E5.50087
G1 X146.554 Y91.162 E5.53739
G1 X155.297 Y99.232 E6.48715
G1 X156.036 Y99.964 E6.57018
G1 X156.145 Y100.081 E6.58295
G1 X156.754 Y100.779 E6.65689
G1 X156.831 Y100.874 E6.66665
G1 X157.396 Y101.629 E6.74193
G1 X157.474 Y101.74 E6.75276
G1 X157.964 Y102.507 E6.82541
G1 X158.043 Y102.64 E6.83776
G1 X158.477 Y103.442 E6.91055
G1 X158.555 Y103.6 E6.92461
G1 X158.92 Y104.404 E6.9951
G1 X158.982 Y104.557 E7.00828
G1 X159.295 Y105.413 E7.08103
G1 X159.342 Y105.556 E7.09304
G1 X159.593 Y106.438 E7.16625
G1 X159.632 Y106.603 E7.17978
G1 X159.81 Y107.454 E7.24918
G1 X159.842 Y107.643 E7.26448
G1 X159.959 Y108.531 E7.33598
G1 X159.976 Y108.704 E7.34985
G1 X160.027 Y109.568 E7.41894
G1 X160.031 Y109.775 E7.43547
G1 X160.019 Y110.653 E7.50556
G1 X160.01 Y110.831 E7.51979
G1 X159.932 Y111.727 E7.59158
G1 X159.915 Y111.868 E7.60292
G1 X159.766 Y112.784 E7.677
G1 X159.737 Y112.933 E7.68912
G1 X159.53 Y113.804 E7.76058
G1 X159.482 Y113.977 E7.77491
G1 X159.215 Y114.818 E7.84534
G1 X159.06 Y115.229 E7.88041
G1 X158.851 Y115.866 E7.93392
G1 X158.722 Y116.537 E7.98847
G1 X158.679 Y117.218 E8.04293
G1 X158.722 Y117.899 E8.0974
G1 X158.851 Y118.57 E8.15195
G1 X159.066 Y119.224 E8.2069
G1 X159.109 Y119.33 E8.21603
G1 X159.42 Y120.2 E8.28978
G1 X159.461 Y120.328 E8.30051
G1 X159.704 Y121.204 E8.37308
G1 X159.743 Y121.366 E8.38638
G1 X159.918 Y122.241 E8.45761
G1 X159.946 Y122.412 E8.47144
G1 X160.054 Y123.281 E8.54134
G1 X160.073 Y123.49 E8.55809
G1 X160.117 Y124.361 E8.62771
G1 X160.12 Y124.516 E8.64008
G1 X160.101 Y125.436 E8.71354
G1 X160.092 Y125.592 E8.72601
G1 X160.006 Y126.499 E8.79874
G1 X159.986 Y126.655 E8.81129
G1 X159.834 Y127.549 E8.88368
G1 X159.804 Y127.695 E8.89558
G1 X159.591 Y128.566 E8.96715
G1 X159.543 Y128.735 E8.98118
G1 X159.262 Y129.602 E9.05393
G1 X159.205 Y129.76 E9.06733
G1 X158.874 Y130.571 E9.13726
G1 X158.794 Y130.749 E9.15283
G1 X158.405 Y131.536 E9.22291
G1 X158.315 Y131.701 E9.23791
G1 X157.868 Y132.461 E9.3083
G1 X157.785 Y132.591 E9.32061
G1 X157.27 Y133.336 E9.3929
G1 X157.145 Y133.499 E9.4093
G1 X156.308 Y134.505 E9.51376
G1 X156.19 Y134.641 E9.52814
G1 X146.031 Y145.647 E10.72374
G1 X145.608 Y146.166 E10.77718
G1 X145.248 Y146.747 E10.83174
G1 X144.963 Y147.368 E10.88628
G1 X144.758 Y148.033 E10.94183
G1 X144.593 Y148.725 E10.99862
G1 X144.545 Y148.898 E11.01295
G1 X144.278 Y149.739 E11.08338
G1 X144.219 Y149.905 E11.09745
G1 X143.874 Y150.77 E11.17178
G1 X143.828 Y150.873 E11.18079
G1 X143.421 Y151.711 E11.25515
G1 X143.338 Y151.867 E11.26926
G1 X142.898 Y152.627 E11.33936
G1 X142.817 Y152.757 E11.35159
G1 X142.297 Y153.516 E11.42503
G1 X142.192 Y153.658 E11.43913
G1 X141.658 Y154.332 E11.50777
G1 X141.516 Y154.498 E11.5252
G1 X140.928 Y155.134 E11.59435
G1 X140.802 Y155.262 E11.60868
G1 X140.145 Y155.878 E11.68057
G1 X140.024 Y155.984 E11.69341
G1 X139.341 Y156.535 E11.76346
G1 X139.168 Y156.665 E11.78074
G1 X138.45 Y157.164 E11.85053
G1 X138.329 Y157.242 E11.86203
G1 X137.532 Y157.712 E11.93588
G1 X137.399 Y157.785 E11.94799
G1 X136.593 Y158.185 E12.01982
G1 X136.417 Y158.265 E12.03525
G1 X135.599 Y158.599 E12.10578
G1 X135.455 Y158.651 E12.118
G1 X134.596 Y158.931 E12.19012
G1 X134.421 Y158.981 E12.20465
G1 X133.559 Y159.193 E12.27551
G1 X133.386 Y159.229 E12.28962
G1 X132.501 Y159.38 E12.36128
G1 X132.343 Y159.401 E12.374
G1 X131.435 Y159.488 E12.44682
G1 X131.295 Y159.497 E12.45802
G1 X130.426 Y159.521 E12.52741
G1 X104.497 Y159.52 E14.59717
G1 X103.496 Y159.484 E14.67713
G1 X103.373 Y159.475 E14.68697
G1 X102.438 Y159.371 E14.76207
G1 X102.069 Y159.308 E14.79195
G1 X101.605 Y159.244 E14.82934
G1 X100.738 Y159.162 E14.89886
G1 X100.58 Y159.142 E14.91157
G1 X99.684 Y158.989 E14.98413
G1 X99.524 Y158.957 E14.99715
G1 X98.665 Y158.745 E15.06778
G1 X98.477 Y158.692 E15.08337
G1 X97.644 Y158.422 E15.15327
G1 X97.47 Y158.359 E15.16804
G1 X96.662 Y158.029 E15.23771
G1 X96.481 Y157.947 E15.25357
G1 X95.693 Y157.558 E15.32372
G1 X95.532 Y157.47 E15.33837
G1 X94.765 Y157.019 E15.40939
G1 X94.63 Y156.932 E15.42221
G1 X93.897 Y156.425 E15.49336
G1 X93.734 Y156.3 E15.50976
G1 X92.722 Y155.458 E15.61484
G1 X92.583 Y155.337 E15.62955
G1 X79.698 Y143.442 E17.02936
G1 X78.967 Y142.718 E17.11149
G1 X78.846 Y142.588 E17.12566
G1 X78.246 Y141.9 E17.19853
G1 X78.169 Y141.805 E17.20829
G1 X77.597 Y141.04 E17.28454
G1 X77.526 Y140.939 E17.2944
G1 X77.029 Y140.161 E17.36809
G1 X76.949 Y140.025 E17.38069
G1 X76.523 Y139.236 E17.45226
G1 X76.445 Y139.079 E17.46626
G1 X76.074 Y138.261 E17.53795
G1 X76.018 Y138.122 E17.54992
G1 X75.705 Y137.266 E17.62267
G1 X75.658 Y137.123 E17.63469
G1 X75.407 Y136.241 E17.70789
G1 X75.368 Y136.076 E17.72142
G1 X75.187 Y135.209 E17.79212
G1 X75.156 Y135.022 E17.80725
G1 X75.041 Y134.148 E17.87762
G1 X75.023 Y133.961 E17.89261
G1 X74.973 Y133.111 E17.96058
G1 X74.969 Y132.904 E17.97711
G1 X74.981 Y132.026 E18.0472
G1 X74.99 Y131.846 E18.06159
G1 X75.068 Y130.952 E18.13322
G1 X75.085 Y130.811 E18.14456
G1 X75.234 Y129.895 E18.21864
G1 X75.265 Y129.739 E18.23134
G1 X75.47 Y128.875 E18.30222
G1 X75.518 Y128.702 E18.31655
G1 X75.791 Y127.844 E18.38842
G1 X75.844 Y127.695 E18.40105
G1 X76.189 Y126.83 E18.47538
G1 X76.235 Y126.727 E18.48439
G1 X76.642 Y125.889 E18.55875
G1 X76.718 Y125.746 E18.57168
G1 X77.178 Y124.952 E18.64493
G1 X77.246 Y124.843 E18.65518
G1 X77.766 Y124.084 E18.72863
G1 X77.871 Y123.942 E18.74272
G1 X78.405 Y123.268 E18.81136
G1 X78.549 Y123.1 E18.82903
G1 X79.142 Y122.458 E18.89879
G1 X79.25 Y122.349 E18.91104
G1 X79.709 Y121.918 E18.9613
G1 X80.168 Y121.429 E19.01484
G1 X80.569 Y120.876 E19.06936
G1 X80.897 Y120.278 E19.12381
G1 X81.146 Y119.643 E19.17825
G1 X81.316 Y118.975 E19.23327
G1 X81.406 Y118.005 E19.31104
G1 X81.406 Y104.541 E20.38579
G1 X81.443 Y103.524 E20.46703
G1 X81.454 Y103.382 E20.4784
G1 X81.554 Y102.482 E20.55068
G1 X81.579 Y102.307 E20.56479
G1 X81.741 Y101.429 E20.63606
G1 X81.771 Y101.295 E20.64702
G1 X82.002 Y100.41 E20.72003
G1 X82.054 Y100.238 E20.73438
G1 X82.34 Y99.396 E20.80536
G1 X82.404 Y99.23 E20.81956
G1 X82.745 Y98.427 E20.8892
G1 X82.826 Y98.252 E20.90459
G1 X83.241 Y97.444 E20.9771
G1 X83.308 Y97.327 E20.98786
G1 X83.782 Y96.548 E21.06065
G1 X83.882 Y96.397 E21.07511
G1 X84.398 Y95.675 E21.14595
G1 X84.505 Y95.536 E21.15995
G1 X85.082 Y94.844 E21.23187
G1 X85.183 Y94.731 E21.24397
G1 X85.808 Y94.082 E21.31589
G1 X85.933 Y93.962 E21.32973
G1 X86.604 Y93.359 E21.40174
G1 X86.72 Y93.263 E21.41376
G1 X87.432 Y92.713 E21.48557
G1 X87.578 Y92.609 E21.49988
G1 X87.901 Y92.395 E21.53081
G1 X88.436 Y91.99 E21.58437
G1 X88.924 Y91.512 E21.6389
G1 X89.348 Y90.978 E21.69333
G1 X89.701 Y90.393 E21.74787
G1 X89.977 Y89.769 E21.80234
G1 X90.173 Y89.115 E21.85684
G1 X90.285 Y88.441 E21.91138
G1 X90.31 Y87.753 E21.96633
G1 X90.2 Y86.812 E22.04196
G1 X90.124 Y86.444 E22.07195
G1 X90.095 Y86.274 E22.08572
G1 X89.978 Y85.386 E22.15721
G1 X89.96 Y85.199 E22.17221
G1 X89.91 Y84.346 E22.24042
G1 X89.906 Y84.142 E22.25671
G1 X89.918 Y83.264 E22.3268
G1 X89.927 Y83.086 E22.34102
G1 X90.005 Y82.19 E22.41282
G1 X90.022 Y82.049 E22.42415
G1 X90.171 Y81.133 E22.49823
G1 X90.2 Y80.984 E22.51035
G1 X90.407 Y80.113 E22.58181
G1 X90.455 Y79.94 E22.59615
G1 X90.722 Y79.099 E22.66658
G1 X90.781 Y78.933 E22.68064
G1 X91.126 Y78.068 E22.75498
G1 X91.172 Y77.965 E22.76399
G1 X91.579 Y77.127 E22.83835
G1 X91.655 Y76.984 E22.85128
G1 X92.115 Y76.19 E22.92453
G1 X92.183 Y76.081 E22.93478
G1 X92.703 Y75.322 E23.00822
G1 X92.808 Y75.18 E23.02232
G1 X93.342 Y74.506 E23.09096
G0 F9000 X92.8 Y75.19
G1 F1125 X92.8 Y155.522 E29.50341
G0 F9000 X94.4 Y156.772
G1 F1125 X94.4 Y73.386 E36.15964
G0 F9000 X96 Y72.056
G1 F1125 X96 Y157.709 E42.99683
G0 F9000 X97.6 Y158.406
G1 F1125 X97.6 Y71.053 E49.96973
G0 F9000 X99.2 Y70.321
G1 F1125 X99.2 Y158.877 E57.03865
G0 F9000 X100.8 Y159.167
G1 F1125 X100.8 Y69.802 E64.17215
G0 F9000 X102.4 Y69.474
G1 F1125 X102.4 Y159.364 E71.34756
G0 F9000 X104 Y159.502
G1 F1125 X104 Y69.332 E78.54532
G0 F9000 X105.6 Y69.318
G1 F1125 X105.6 Y159.52 E85.74563
G0 F9000 X107.2 Y159.52
G1 F1125 X107.2 Y69.318 E92.94595
G0 F9000 X108.8 Y69.318
G1 F1125 X108.8 Y159.52 E100.14626
G0 F9000 X110.4 Y159.52
G1 F1125 X110.4 Y69.318 E107.34657
G0 F9000 X112 Y69.318
G1 F1125 X112 Y159.52 E114.54689
G0 F9000 X113.6 Y159.52
G1 F1125 X113.6 Y69.318 E121.7472
G0 F9000 X115.2 Y69.318
G1 F1125 X115.2 Y159.52 E128.94751
G0 F9000 X116.8 Y159.52
G1 F1125 X116.8 Y69.318 E136.14783
G0 F9000 X118.4 Y69.318
G1 F1125 X118.4 Y159.52 E143.34814
G0 F9000 X120 Y159.52
G1 F1125 X120 Y69.318 E150.54846
G0 F9000 X121.6 Y69.318
G1 F1125 X121.6 Y159.52 E157.74877
G0 F9000 X123.2 Y159.52
G1 F1125 X123.2 Y69.318 E164.94908
G0 F9000 X124.8 Y69.318
G1 F1125 X124.8 Y159.52 E172.1494
G0 F9000 X126.4 Y159.52
G1 F1125 X126.4 Y69.318 E179.34971
G0 F9000 X128 Y69.318
G1 F1125 X128 Y159.52 E186.55002
G0 F9000 X129.6 Y159.52
G1 F1125 X129.6 Y69.318 E193.75034
G0 F9000 X131.2 Y69.344
G1 F1125 X131.2 Y159.5 E200.94698
G0 F9000 X132.8 Y159.329
G1 F1125 X132.8 Y69.505 E208.11712
G0 F9000 X134.4 Y69.858
G1 F1125 X134.4 Y158.987 E215.23178
G0 F9000 X136 Y158.436
G1 F1125 X136 Y70.402 E222.25904
G0 F9000 X137.6 Y71.163
G1 F1125 X137.6 Y157.672 E229.16456
G0 F9000 X139.2 Y156.641
G1 F1125 X139.2 Y72.202 E235.90484
G0 F9000 X140.8 Y73.581
G1 F1125 X140.8 Y155.264 E242.42514
G0 F9000 X142.4 Y153.366
G1 F1125 X142.4 Y75.466 E248.64345
G0 F9000 X144 Y78.376
G1 F1125 X144 Y150.455 E254.39711
G1 F2700 E249.39711
G0 F9000 X145.213 Y150.288
G0 X146.188 Y147.25
G0 X145.6 Y146.179
G1 F2700 E254.39711
G1 F1125 X145.6 Y89.974 E258.88363
G0 F9000 X147.2 Y91.759
G1 F1125 X147.2 Y144.381 E263.08415
G0 F9000 X148.8 Y142.648
G1 F1125 X148.8 Y93.236 E267.02843
G0 F9000 X150.4 Y94.712
G1 F1125 X150.4 Y140.914 E270.71647
G0 F9000 X152 Y139.181
G1 F1125 X152 Y96.189 E274.14828
G0 F9000 X153.6 Y97.666
G1 F1125 X153.6 Y137.447 E277.32377
G0 F9000 X155.2 Y135.714
G1 F1125 X155.2 Y99.143 E280.24303
G0 F9000 X156.8 Y100.836
G1 F1125 X156.8 Y133.914 E282.88346
G0 F9000 X158.4 Y131.546
G1 F1125 X158.4 Y103.3 E285.13817
G1 F2700 E280.13817
G0 F9000 X159.515 Y103.139
G0 X160.299 Y105.058
G0 X160.673 Y106.376
G0 X160.866 Y107.526
G0 X161.037 Y108.629
G0 X160 Y109.111
G1 F2700 E285.13817
G1 F1125 X160 Y110.946 E285.28465
G1 F2700 E280.28465
G0 F9000 X160.99 Y111.844
G0 X160.999 Y122.253
G0 X160 Y122.847
G1 F2700 E285.28465
G1 F1125 X160 Y126.546 E285.57992
G1 F2700 E280.57992
G0 F9000 X161.04 Y126.803
G0 X160.618 Y128.846
G0 X160.2 Y130.138
G0 X159.352 Y132.023
G0 X158.667 Y133.187
G0 X142.474 Y155.015
G0 X141.551 Y156.018
G0 X139.989 Y157.379
G0 X138.881 Y158.153
G0 X137.044 Y159.15
G0 X135.806 Y159.656
G0 X133.787 Y160.234
G0 X132.471 Y160.458
G0 X130.437 Y160.586
G0 X103.443 Y160.547
G0 X100.428 Y160.195
G0 X98.387 Y159.772
G0 X97.095 Y159.355
G0 X95.21 Y158.507
G0 X94.046 Y157.822
G0 X93.077 Y157.137
G0 X92.738 Y156.854
G0 X90.478 Y154.843
G0 X91.2 Y154.06
G1 F2700 E285.57992
G1 F1125 X91.2 Y77.907 E291.65878
G1 F2700 E286.65878
G0 F9000 X90.142 Y77.662
G0 X89.437 Y79.629
G0 X89.122 Y80.952
G0 X88.892 Y82.799
G0 X88.756 Y89.898
G0 X89.6 Y90.56
G1 F2700 E291.65878
G1 F1125 X89.6 Y152.583 E296.60973
G0 F9000 X88 Y151.106
G1 F1125 X88 Y92.32 E301.30228
G0 F9000 X86.4 Y93.542
G1 F1125 X86.4 Y149.629 E305.77939
G0 F9000 X84.8 Y148.151
G1 F1125 X84.8 Y95.182 E310.0076
G0 F9000 X83.2 Y97.523
G1 F1125 X83.2 Y146.674 E313.93105
G0 F9000 X81.6 Y145.197
G1 F1125 X81.6 Y102.193 E317.36381
G1 F2700 E312.36381
G0 F9000 X80.497 Y102.354
G0 X80.465 Y102.665
G0 X79.348 Y120.748
G0 X80 Y121.607
G1 F2700 E317.36381
G1 F1125 X80 Y143.72 E319.12897
G0 F9000 X78.4 Y142.076
G1 F1125 X78.4 Y123.274 E320.62982
G0 F9000 X76.8 Y125.604
G1 F1125 X76.8 Y139.749 E321.75894
G1 F2700 E316.75894
G0 F9000 X75.574 Y139.719
G0 X75.022 Y138.498
G0 X74.914 Y138.195
G0 X74.327 Y136.303
G0 X75.2 Y135.271
G1 F2700 E321.75894
G1 F1125 X75.2 Y130.104 E322.17139
G1 F2700 E317.17139
G0 F300 X75.2 Y130.104 Z0.54
G0 F9000 X74.032 Y130.654
G0 X73.917 Y131.999
G0 X73.963 Y134.05
G0 X74.142 Y135.414
G0 X74.637 Y137.426
G0 X75.1 Y138.688
G0 X76.027 Y140.556
G0 X76.228 Y140.871
G0 X77.325 Y142.454
G0 X78.186 Y141.825
;TIME_ELAPSED:232.387052
;LAYER:-5
;TYPE:SUPPORT
G1 F2700 E322.17139
G1 F1125 X81.041 Y144.681 E322.57433
G1 X79.698 Y143.44 E322.75679
G1 X78.966 Y142.716 E322.85952
G1 X78.845 Y142.587 E322.87717
G1 X78.245 Y141.899 E322.96826
G1 F2700 E317.96826
G0 F9000 X77.443 Y142.599
G0 X78.681 Y143.911
G0 X80.319 Y145.464
G0 X81.041 Y144.681
G1 F2700 E322.96826
G1 F1125 X92.582 Y155.335 E324.53548
G1 X92.721 Y155.457 E324.55394
G1 X93.734 Y156.298 E324.68531
G1 X93.897 Y156.424 E324.70586
G1 X94.629 Y156.931 E324.79471
G1 X94.765 Y157.018 E324.81082
G1 X94.832 Y157.058 E324.81861
G1 X76.106 Y138.332 E327.46105
G1 X76.074 Y138.259 E327.469
G1 X76.017 Y138.121 E327.4839
G1 X75.704 Y137.265 E327.57484
G1 X75.657 Y137.122 E327.58986
G1 X75.406 Y136.24 E327.68136
