;FLAVOR:Marlin
;TIME:8155
;Filament used: 7.10833m
;Layer height: 0.2
;MINX:67.344
;MINY:77.835
;MINZ:0.24
;MAXX:169.164
;MAXY:157.146
;MAXZ:11.09
;Generated with Cura_SteamEngine 4.13.0
M140 S60
M105
M190 S60
M104 S200
M105
M109 S200
M82 ;absolute extrusion mode
; Ender 3 Custom Start G-code
G92 E0 ; Reset Extruder
G28 ; Home all axes
G1 Z2.0 F3000 ; Move Z Axis up little to prevent scratching of Heat Bed
G1 X0.1 Y20 Z0.3 F5000.0 ; Move to start position
G1 X0.1 Y200.0 Z0.3 F1500.0 E15 ; Draw the first line
G1 X0.4 Y200.0 Z0.3 F5000.0 ; Move to side a little
G1 X0.4 Y20 Z0.3 F1500.0 E30 ; Draw the second line
G92 E0 ; Reset Extruder
G1 Z2.0 F3000 ; Move Z Axis up little to prevent scratching of Heat Bed
G1 X5 Y20 Z0.3 F5000.0 ; Move over to prevent blob squish
G92 E0
G92 E0
G1 F2700 E-5
;LAYER_COUNT:50
;LAYER:-6
M107
G0 F9000 X73.715 Y94.736 Z0.24
;TYPE:SUPPORT-INTERFACE
G1 F2700 E0
G1 F1125 X74.426 Y94.187 E0.07171
G1 X74.585 Y94.074 E0.08728
G1 X75.323 Y93.584 E0.15799
G1 X75.449 Y93.508 E0.16973
G1 X76.243 Y93.062 E0.24243
G1 X76.393 Y92.984 E0.25593
G1 X77.208 Y92.601 E0.32781
G1 X77.351 Y92.541 E0.34019
G1 X78.21 Y92.212 E0.41361
G1 X78.36 Y92.16 E0.42629
G1 X79.21 Y91.905 E0.49712
G1 X79.383 Y91.858 E0.51143
G1 X80.278 Y91.658 E0.58464
G1 X80.408 Y91.635 E0.59518
G1 X81.313 Y91.501 E0.66821
G1 X81.482 Y91.483 E0.68177
G1 X82.371 Y91.417 E0.75293
G1 X82.555 Y91.408 E0.76764
G1 X83.06 Y91.4 E0.80795
G1 X87.48 Y91.4 E1.16078
G1 X88.148 Y91.358 E1.21421
G1 X88.819 Y91.229 E1.26875
G1 X89.468 Y91.016 E1.32327
G1 X90.085 Y90.724 E1.37776
G1 X90.66 Y90.356 E1.43226
G1 X91.184 Y89.918 E1.48677
G1 X91.648 Y89.418 E1.54122
G1 X92.049 Y88.86 E1.59607
G1 X92.431 Y88.126 E1.66212
G1 X92.742 Y87.392 E1.72576
G1 X92.82 Y87.226 E1.7404
G1 X93.235 Y86.418 E1.81291
G1 X93.302 Y86.301 E1.82367
G1 X93.776 Y85.522 E1.89646
G1 X93.876 Y85.371 E1.91091
G1 X94.387 Y84.657 E1.981
G1 X94.5 Y84.509 E1.99587
G1 X95.076 Y83.818 E2.06767
G1 X95.177 Y83.705 E2.07977
G1 X95.802 Y83.056 E2.1517
G1 X95.927 Y82.936 E2.16553
G1 X96.598 Y82.333 E2.23754
G1 X96.714 Y82.237 E2.24956
G1 X97.426 Y81.687 E2.32138
G1 X97.585 Y81.574 E2.33695
G1 X98.323 Y81.084 E2.40766
G1 X98.449 Y81.008 E2.41941
G1 X99.243 Y80.562 E2.4921
G1 X99.393 Y80.484 E2.5056
G1 X100.208 Y80.101 E2.57748
G1 X100.351 Y80.041 E2.58986
G1 X101.21 Y79.712 E2.66328
G1 X101.36 Y79.66 E2.67596
G1 X102.21 Y79.405 E2.7468
G1 X102.383 Y79.358 E2.76111
G1 X103.278 Y79.158 E2.83431
G1 X103.408 Y79.135 E2.84485
G1 X104.313 Y79.001 E2.91788
G1 X104.482 Y78.983 E2.93144
G1 X105.371 Y78.917 E3.0026
G1 X105.555 Y78.908 E3.01731
G1 X106.06 Y78.9 E3.05762
G1 X129.003 Y78.901 E4.88903
G1 X130.004 Y78.937 E4.96899
G1 X130.127 Y78.946 E4.97883
G1 X131.044 Y79.048 E5.05249
G1 X131.219 Y79.073 E5.0666
G1 X132.108 Y79.237 E5.13876
G1 X132.231 Y79.265 E5.14883
G1 X133.125 Y79.499 E5.22259
G1 X133.288 Y79.548 E5.23618
G1 X134.13 Y79.834 E5.30716
G1 X134.296 Y79.898 E5.32137
G1 X135.099 Y80.239 E5.391
G1 X135.288 Y80.327 E5.40765
G1 X136.082 Y80.735 E5.47891
G1 X136.199 Y80.802 E5.48967
G1 X136.978 Y81.276 E5.56246
G1 X137.129 Y81.376 E5.57691
G1 X137.843 Y81.887 E5.647
G1 X137.991 Y82 E5.66187
G1 X138.682 Y82.576 E5.73367
G1 X138.795 Y82.677 E5.74577
G1 X139.444 Y83.302 E5.8177
G1 X139.564 Y83.427 E5.83153
G1 X140.167 Y84.098 E5.90354
G1 X140.263 Y84.214 E5.91556
G1 X140.822 Y84.938 E5.98857
G1 X140.916 Y85.069 E6.00144
G1 X141.416 Y85.823 E6.07366
G1 X141.492 Y85.949 E6.08541
G1 X141.944 Y86.754 E6.1591
G1 X142.014 Y86.888 E6.17117
G1 X142.21 Y87.306 E6.20802
G1 X142.533 Y87.894 E6.26158
G1 X142.934 Y88.446 E6.31604
G1 X143.402 Y88.943 E6.37053
G1 X143.929 Y89.377 E6.42503
G1 X144.507 Y89.741 E6.47955
G1 X145.126 Y90.029 E6.53405
G1 X145.776 Y90.238 E6.58855
G1 X146.446 Y90.362 E6.64294
G1 X147.081 Y90.4 E6.69372
G1 X153.503 Y90.401 E7.20635
G1 X154.504 Y90.437 E7.28631
G1 X154.627 Y90.446 E7.29616
G1 X155.544 Y90.548 E7.36981
G1 X155.719 Y90.573 E7.38392
G1 X156.608 Y90.737 E7.45608
G1 X156.731 Y90.765 E7.46615
G1 X157.625 Y90.999 E7.53991
G1 X157.788 Y91.048 E7.5535
G1 X158.63 Y91.334 E7.62448
G1 X158.796 Y91.398 E7.63869
G1 X159.599 Y91.739 E7.70833
G1 X159.788 Y91.827 E7.72497
G1 X160.582 Y92.235 E7.79623
G1 X160.699 Y92.302 E7.80699
G1 X161.478 Y92.776 E7.87978
G1 X161.629 Y92.876 E7.89424
G1 X162.343 Y93.387 E7.96432
G1 X162.491 Y93.5 E7.97919
G1 X163.182 Y94.076 E8.051
G1 X163.295 Y94.177 E8.06309
G1 X163.944 Y94.802 E8.13502
G1 X164.064 Y94.927 E8.14885
G1 X164.667 Y95.598 E8.22086
G1 X164.763 Y95.714 E8.23288
G1 X165.313 Y96.426 E8.3047
G1 X165.426 Y96.585 E8.32027
G1 X165.916 Y97.323 E8.39098
G1 X165.992 Y97.449 E8.40273
G1 X166.438 Y98.243 E8.47542
G1 X166.516 Y98.393 E8.48892
G1 X166.899 Y99.208 E8.5608
G1 X166.959 Y99.351 E8.57318
G1 X167.288 Y100.21 E8.6466
G1 X167.34 Y100.36 E8.65928
G1 X167.595 Y101.21 E8.73012
G1 X167.642 Y101.383 E8.74443
G1 X167.84 Y102.269 E8.81689
G1 X167.865 Y102.408 E8.82817
G1 X167.998 Y103.307 E8.90071
G1 X168.016 Y103.469 E8.91372
G1 X168.083 Y104.371 E8.98592
G1 X168.092 Y104.555 E9.00063
G1 X168.1 Y105.056 E9.04062
G1 X168.1 Y129.985 E11.03057
G1 X168.064 Y130.989 E11.11076
G1 X168.054 Y131.127 E11.12181
G1 X167.952 Y132.044 E11.19546
G1 X167.927 Y132.219 E11.20957
G1 X167.765 Y133.097 E11.28084
G1 X167.735 Y133.231 E11.2918
G1 X167.504 Y134.116 E11.36481
G1 X167.452 Y134.288 E11.37915
G1 X167.166 Y135.13 E11.45014
G1 X167.102 Y135.296 E11.46434
G1 X166.761 Y136.099 E11.53398
G1 X166.68 Y136.274 E11.54937
G1 X166.265 Y137.082 E11.62188
G1 X166.198 Y137.199 E11.63264
G1 X165.724 Y137.978 E11.70543
G1 X165.624 Y138.129 E11.71989
G1 X165.113 Y138.843 E11.78997
G1 X165 Y138.991 E11.80484
G1 X164.424 Y139.682 E11.87665
G1 X164.323 Y139.795 E11.88874
G1 X163.698 Y140.444 E11.96067
G1 X163.573 Y140.564 E11.9745
G1 X162.903 Y141.166 E12.0464
G1 X162.786 Y141.263 E12.05853
G1 X162.074 Y141.813 E12.13035
G1 X161.915 Y141.926 E12.14592
G1 X161.177 Y142.416 E12.21663
G1 X161.051 Y142.492 E12.22838
G1 X160.257 Y142.938 E12.30107
G1 X160.106 Y143.016 E12.31464
G1 X159.292 Y143.399 E12.38645
G1 X159.149 Y143.459 E12.39883
G1 X158.29 Y143.788 E12.47225
G1 X158.14 Y143.84 E12.48493
G1 X157.29 Y144.095 E12.55577
G1 X157.117 Y144.142 E12.57008
G1 X156.222 Y144.342 E12.64328
G1 X156.092 Y144.365 E12.65382
G1 X155.187 Y144.499 E12.72685
G1 X155.019 Y144.517 E12.74033
G1 X154.129 Y144.583 E12.81157
G1 X153.945 Y144.592 E12.82628
G1 X153.44 Y144.6 E12.86659
G1 X147.087 Y144.6 E13.37372
G1 X146.419 Y144.642 E13.42715
G1 X145.748 Y144.771 E13.48169
G1 X145.099 Y144.984 E13.53621
G1 X144.482 Y145.276 E13.5907
G1 X143.907 Y145.644 E13.6452
G1 X143.383 Y146.082 E13.69971
G1 X142.919 Y146.582 E13.75416
G1 X142.52 Y147.137 E13.80873
G1 X142.213 Y147.703 E13.86013
G1 X142.182 Y147.769 E13.86595
G1 X141.765 Y148.582 E13.93888
G1 X141.698 Y148.699 E13.94964
G1 X141.224 Y149.478 E14.02243
G1 X141.129 Y149.622 E14.0362
G1 X140.613 Y150.343 E14.10698
G1 X140.5 Y150.491 E14.12184
G1 X139.924 Y151.182 E14.19365
G1 X139.823 Y151.295 E14.20575
G1 X139.198 Y151.944 E14.27767
G1 X139.073 Y152.064 E14.2915
G1 X138.403 Y152.666 E14.3634
G1 X138.286 Y152.763 E14.37554
G1 X137.574 Y153.313 E14.44735
G1 X137.415 Y153.426 E14.46292
G1 X136.677 Y153.916 E14.53364
G1 X136.551 Y153.992 E14.54538
G1 X135.757 Y154.438 E14.61808
G1 X135.606 Y154.516 E14.63164
G1 X134.792 Y154.899 E14.70345
G1 X134.649 Y154.959 E14.71583
G1 X133.79 Y155.288 E14.78926
G1 X133.64 Y155.34 E14.80193
G1 X132.79 Y155.595 E14.87277
G1 X132.617 Y155.642 E14.88708
G1 X131.722 Y155.842 E14.96029
G1 X131.592 Y155.865 E14.97082
G1 X130.687 Y155.999 E15.04385
G1 X130.519 Y156.017 E15.05734
G1 X129.629 Y156.083 E15.12858
G1 X129.445 Y156.092 E15.14328
G1 X128.94 Y156.1 E15.1836
G1 X105.997 Y156.099 E17.01501
G1 X104.996 Y156.063 E17.09497
G1 X104.873 Y156.054 E17.10481
G1 X103.956 Y155.952 E17.17846
G1 X103.781 Y155.927 E17.19257
G1 X102.892 Y155.763 E17.26473
G1 X102.769 Y155.735 E17.2748
G1 X101.875 Y155.501 E17.34857
G1 X101.712 Y155.452 E17.36216
G1 X100.87 Y155.166 E17.43314
G1 X100.704 Y155.102 E17.44734
G1 X99.901 Y154.761 E17.51698
G1 X99.712 Y154.673 E17.53362
G1 X98.918 Y154.265 E17.60488
G1 X98.801 Y154.198 E17.61564
G1 X98.022 Y153.724 E17.68843
G1 X97.871 Y153.624 E17.70289
G1 X97.157 Y153.113 E17.77298
G1 X97.009 Y153 E17.78784
G1 X96.318 Y152.424 E17.85965
G1 X96.205 Y152.323 E17.87175
G1 X95.556 Y151.698 E17.94367
G1 X95.436 Y151.573 E17.9575
G1 X94.833 Y150.902 E18.02951
G1 X94.736 Y150.784 E18.04171
G1 X94.178 Y150.062 E18.11455
G1 X94.074 Y149.915 E18.12892
G1 X93.581 Y149.172 E18.2001
G1 X93.508 Y149.051 E18.21138
G1 X93.056 Y148.246 E18.28507
G1 X92.984 Y148.107 E18.29757
G1 X92.594 Y147.277 E18.37077
G1 X92.503 Y147.054 E18.39
G1 X92.224 Y146.444 E18.44354
G1 X91.863 Y145.864 E18.49808
G1 X91.432 Y145.335 E18.55255
G1 X90.939 Y144.864 E18.60697
G1 X90.389 Y144.459 E18.66149
G1 X89.793 Y144.126 E18.71599
G1 X89.16 Y143.871 E18.77047
G1 X88.499 Y143.699 E18.82499
G1 X87.827 Y143.612 E18.87908
G1 X87.473 Y143.6 E18.90735
G1 X82.997 Y143.599 E19.26465
G1 X81.996 Y143.563 E19.3446
G1 X81.873 Y143.554 E19.35445
G1 X80.956 Y143.452 E19.4281
G1 X80.781 Y143.427 E19.44221
G1 X79.892 Y143.263 E19.51437
G1 X79.769 Y143.235 E19.52444
G1 X78.875 Y143.001 E19.59821
G1 X78.712 Y142.952 E19.61179
G1 X77.87 Y142.666 E19.68278
G1 X77.704 Y142.602 E19.69698
G1 X76.901 Y142.261 E19.76662
G1 X76.712 Y142.173 E19.78326
G1 X75.918 Y141.765 E19.85452
G1 X75.801 Y141.698 E19.86528
G1 X75.022 Y141.224 E19.93807
G1 X74.871 Y141.124 E19.95253
G1 X74.157 Y140.613 E20.02261
G1 X74.009 Y140.5 E20.03748
G1 X73.318 Y139.924 E20.10929
G1 X73.205 Y139.823 E20.12138
G1 X72.556 Y139.198 E20.19331
G1 X72.436 Y139.073 E20.20714
G1 X71.833 Y138.402 E20.27915
G1 X71.736 Y138.284 E20.29134
G1 X71.178 Y137.562 E20.36418
G1 X71.074 Y137.415 E20.37856
G1 X70.581 Y136.672 E20.44974
G1 X70.508 Y136.551 E20.46102
G1 X70.05 Y135.735 E20.53571
G1 X69.984 Y135.608 E20.54714
G1 X69.601 Y134.791 E20.61916
G1 X69.536 Y134.637 E20.63251
G1 X69.212 Y133.79 E20.70489
G1 X69.155 Y133.625 E20.71883
G1 X68.905 Y132.79 E20.78841
G1 X68.858 Y132.617 E20.80272
G1 X68.661 Y131.732 E20.87509
G1 X68.632 Y131.572 E20.88807
G1 X68.5 Y130.678 E20.96021
G1 X68.483 Y130.518 E20.97305
G1 X68.417 Y129.626 E21.04445
G1 X68.408 Y129.445 E21.05891
G1 X68.4 Y128.944 E21.09891
G1 X68.4 Y106.015 E22.9292
G1 X68.437 Y104.995 E23.01068
G1 X68.446 Y104.873 E23.02044
G1 X68.548 Y103.956 E23.09409
G1 X68.573 Y103.781 E23.1082
G1 X68.735 Y102.903 E23.17947
G1 X68.765 Y102.769 E23.19043
G1 X68.996 Y101.884 E23.26345
G1 X69.048 Y101.712 E23.27779
G1 X69.334 Y100.87 E23.34877
G1 X69.398 Y100.704 E23.36297
G1 X69.739 Y99.901 E23.43261
G1 X69.82 Y99.726 E23.44801
G1 X70.235 Y98.918 E23.52051
G1 X70.302 Y98.801 E23.53128
G1 X70.776 Y98.022 E23.60407
G1 X70.876 Y97.871 E23.61852
G1 X71.387 Y97.157 E23.68861
G1 X71.5 Y97.009 E23.70347
G1 X72.076 Y96.318 E23.77528
G1 X72.177 Y96.205 E23.78738
G1 X72.803 Y95.555 E23.85942
G1 X72.927 Y95.436 E23.87314
G1 X73.598 Y94.833 E23.94515
G1 X73.715 Y94.736 E23.95728
G1 X73.6 Y94.831
G1 X73.6 Y140.159 E27.57556
G0 F9000 X75.2 Y141.332
G1 F1125 X75.2 Y93.665 E31.38054
G0 F9000 X76.8 Y92.792
G1 F1125 X76.8 Y142.213 E35.32554
G0 F9000 X78.4 Y142.846
G1 F1125 X78.4 Y92.148 E39.37247
G0 F9000 X80 Y91.72
G1 F1125 X80 Y143.282 E43.48838
G0 F9000 X81.6 Y143.523
G1 F1125 X81.6 Y91.474 E47.64315
G0 F9000 X83.2 Y91.4
G1 F1125 X83.2 Y143.599 E51.8099
G0 F9000 X84.8 Y143.599
G1 F1125 X84.8 Y91.4 E55.97665
G0 F9000 X86.4 Y91.4
G1 F1125 X86.4 Y143.599 E60.1434
G0 F9000 X88 Y143.634
G1 F1125 X88 Y91.367 E64.31558
G0 F9000 X89.6 Y90.953
G1 F1125 X89.6 Y144.048 E68.55385
G0 F9000 X91.2 Y145.113
G1 F1125 X91.2 Y89.9 E72.96119
G0 F9000 X92.8 Y87.268
G1 F1125 X92.8 Y147.715 E77.78633
G0 F9000 X94.4 Y150.349
G1 F1125 X94.4 Y84.639 E83.03159
G0 F9000 X96 Y82.87
G1 F1125 X96 Y152.125 E88.55982
G0 F9000 X97.6 Y153.43
G1 F1125 X97.6 Y81.564 E94.29648
G0 F9000 X99.2 Y80.586
G1 F1125 X99.2 Y154.409 E100.18935
G0 F9000 X100.8 Y155.139
G1 F1125 X100.8 Y79.869 E106.19773
G0 F9000 X102.4 Y79.354
G1 F1125 X102.4 Y155.638 E112.28705
G0 F9000 X104 Y155.956
G1 F1125 X104 Y79.047 E118.42625
G0 F9000 X105.6 Y78.907
G1 F1125 X105.6 Y156.084 E124.58686
G0 F9000 X107.2 Y156.099
G1 F1125 X107.2 Y78.901 E130.74913
G0 F9000 X108.8 Y78.901
G1 F1125 X108.8 Y156.099 E136.91141
G0 F9000 X110.4 Y156.099
G1 F1125 X110.4 Y78.901 E143.07369
G0 F9000 X112 Y78.901
G1 F1125 X112 Y156.099 E149.23597
G0 F9000 X113.6 Y156.099
G1 F1125 X113.6 Y78.901 E155.39825
G0 F9000 X115.2 Y78.901
G1 F1125 X115.2 Y156.099 E161.56053
G0 F9000 X116.8 Y156.099
G1 F1125 X116.8 Y78.901 E167.7228
G0 F9000 X118.4 Y78.901
G1 F1125 X118.4 Y156.099 E173.88508
G0 F9000 X120 Y156.099
G1 F1125 X120 Y78.901 E180.04736
G0 F9000 X121.6 Y78.901
G1 F1125 X121.6 Y156.099 E186.20964
G0 F9000 X123.2 Y156.099
G1 F1125 X123.2 Y78.901 E192.37192
G0 F9000 X124.8 Y78.901
G1 F1125 X124.8 Y156.099 E198.53419
G0 F9000 X126.4 Y156.099
G1 F1125 X126.4 Y78.901 E204.69647
G0 F9000 X128 Y78.901
G1 F1125 X128 Y156.099 E210.85875
G0 F9000 X129.6 Y156.085
G1 F1125 X129.6 Y78.923 E217.01816
G0 F9000 X131.2 Y79.071
G1 F1125 X131.2 Y155.924 E223.15289
G0 F9000 X132.8 Y155.592
G1 F1125 X132.8 Y79.414 E229.23375
G0 F9000 X134.4 Y79.943
G1 F1125 X134.4 Y155.055 E235.22952
G0 F9000 X136 Y154.302
G1 F1125 X136 Y80.693 E241.10531
G0 F9000 X137.6 Y81.714
G1 F1125 X137.6 Y153.293 E246.81905
G0 F9000 X139.2 Y151.942
G1 F1125 X139.2 Y83.068 E252.31687
G0 F9000 X140.8 Y84.91
G1 F1125 X140.8 Y150.082 E257.51918
G0 F9000 X142.4 Y147.359
G1 F1125 X142.4 Y87.652 E262.28525
G0 F9000 X144 Y89.422
G1 F1125 X144 Y145.585 E266.76843
G0 F9000 X145.6 Y144.82
G1 F1125 X145.6 Y90.182 E271.12987
G0 F9000 X147.2 Y90.401
G1 F1125 X147.2 Y144.6 E275.45627
G0 F9000 X148.8 Y144.6
G1 F1125 X148.8 Y90.401 E279.78266
G0 F9000 X150.4 Y90.401
G1 F1125 X150.4 Y144.6 E284.10906
G0 F9000 X152 Y144.6
G1 F1125 X152 Y90.401 E288.43546
G0 F9000 X153.6 Y90.405
G1 F1125 X153.6 Y144.598 E292.76138
G0 F9000 X155.2 Y144.498
G1 F1125 X155.2 Y90.51 E297.07094
G0 F9000 X156.8 Y90.784
G1 F1125 X156.8 Y144.213 E301.33587
G0 F9000 X158.4 Y143.746
G1 F1125 X158.4 Y91.256 E305.52585
G0 F9000 X160 Y91.936
G1 F1125 X160 Y143.066 E309.60727
G0 F9000 X161.6 Y142.136
G1 F1125 X161.6 Y92.857 E313.54093
G0 F9000 X163.2 Y94.093
G1 F1125 X163.2 Y140.9 E317.27727
G0 F9000 X164.8 Y139.231
G1 F1125 X164.8 Y95.762 E320.74715
G0 F9000 X166.4 Y98.176
G1 F1125 X166.4 Y136.82 E323.83188
G1 F2700 E318.83188
G0 F9000 X167.632 Y136.749
G0 X168.169 Y135.485
G0 X168.654 Y133.868
G0 X169.009 Y132.172
G0 X168 Y131.613
G1 F2700 E323.83188
G1 F1125 X168 Y103.325 E326.08995
G1 F2700 E321.08995
G0 F9000 X169.053 Y103.17
G0 X168.673 Y101.122
G0 X168.287 Y99.841
G0 X167.466 Y97.914
G0 X166.819 Y96.76
G0 X165.599 Y95.056
G0 X164.703 Y94.055
G0 X163.148 Y92.662
G0 X162.043 Y91.874
G0 X160.249 Y90.868
G0 X134.7 Y78.913
G0 X133.41 Y78.473
G0 X131.383 Y78.021
G0 X130.057 Y77.874
G0 X105.31 Y77.854
G0 X103.242 Y78.083
G0 X101.927 Y78.379
G0 X99.961 Y79.05
G0 X98.743 Y79.622
G0 X74.76 Y92.681
G0 X73.057 Y93.9
G0 X72.774 Y94.153
G0 X71.392 Y95.486
G0 X72 Y96.409
G1 F2700 E326.08995
G1 F1125 X72 Y138.587 E329.45678
G0 F9000 X70.4 Y136.358
G1 F1125 X70.4 Y98.639 E332.46768
G0 F9000 X68.8 Y102.634
G1 F1125 X68.8 Y132.356 E334.84022
G1 F2700 E329.84022
G0 F300 X68.8 Y132.356 Z0.54
G0 F9000 X67.879 Y133.073
G0 X68.55 Y135.039
G0 X69.116 Y136.247
G0 X69.275 Y136.528
G0 X70.327 Y138.201
G0 X71.466 Y137.934
;TIME_ELAPSED:238.561370
;LAYER:-5
;TYPE:SUPPORT
G1 F2700 E334.84022
G1 F1125 X74.103 Y140.571 E335.21232
G1 X74.008 Y140.499 E335.22422
G1 X73.317 Y139.922 E335.31404
G1 X73.204 Y139.822 E335.3291
G1 X72.555 Y139.197 E335.419
G1 X72.436 Y139.072 E335.43622
G1 X71.832 Y138.401 E335.52631
G1 X71.735 Y138.283 E335.54155
G1 F2700 E330.54155
G0 F9000 X71.032 Y139.103
G0 X72.209 Y140.321
G0 X73.352 Y141.338
G0 X74.103 Y140.571
G1 F2700 E335.54155
G1 F1125 X74.157 Y140.612 E335.54831
G1 X74.871 Y141.122 E335.63586
G1 X75.022 Y141.223 E335.65399
