;FLAVOR:Marlin
;TIME:36565
;Filament used: 32.7005m
;Layer height: 0.2
;MINX:53.854
;MINY:33.217
;MINZ:0.24
;MAXX:190.556
;MAXY:203.733
;MAXZ:24.09
;Generated with Cura_SteamEngine 4.13.0
M140 S60
M105
M190 S60
M104 S200
M105
M109 S200
M82 ;absolute extrusion mode
; Ender 3 Custom Start G-code
G92 E0 ; Reset Extruder
G28 ; Home all axes
G1 Z2.0 F3000 ; Move Z Axis up little to prevent scratching of Heat Bed
G1 X0.1 Y20 Z0.3 F5000.0 ; Move to start position
G1 X0.1 Y200.0 Z0.3 F1500.0 E15 ; Draw the first line
G1 X0.4 Y200.0 Z0.3 F5000.0 ; Move to side a little
G1 X0.4 Y20 Z0.3 F1500.0 E30 ; Draw the second line
G92 E0 ; Reset Extruder
G1 Z2.0 F3000 ; Move Z Axis up little to prevent scratching of Heat Bed
G1 X5 Y20 Z0.3 F5000.0 ; Move over to prevent blob squish
G92 E0
G92 E0
G1 F2700 E-5
;LAYER_COUNT:115
;LAYER:-6
M107
G0 F9000 X57.412 Y40.734 Z0.24
;TYPE:SUPPORT-INTERFACE
G1 F2700 E0
G1 F1125 X57.923 Y40.02 E0.07009
G1 X58.036 Y39.872 E0.08495
G1 X58.612 Y39.181 E0.15676
G1 X58.713 Y39.068 E0.16886
G1 X59.338 Y38.419 E0.24078
G1 X59.463 Y38.299 E0.25461
G1 X60.134 Y37.696 E0.32663
G1 X60.25 Y37.6 E0.33864
G1 X60.962 Y37.05 E0.41046
G1 X61.121 Y36.937 E0.42603
G1 X61.859 Y36.447 E0.49675
G1 X61.985 Y36.371 E0.50849
G1 X62.779 Y35.925 E0.58119
G1 X62.929 Y35.847 E0.59468
G1 X63.744 Y35.464 E0.66656
G1 X63.887 Y35.404 E0.67894
G1 X64.746 Y35.075 E0.75237
G1 X64.896 Y35.023 E0.76504
G1 X65.746 Y34.768 E0.83588
G1 X65.919 Y34.721 E0.85019
G1 X66.814 Y34.521 E0.9234
G1 X66.944 Y34.498 E0.93393
G1 X67.849 Y34.364 E1.00696
G1 X68.018 Y34.346 E1.02053
G1 X68.907 Y34.28 E1.09169
G1 X69.091 Y34.271 E1.10639
G1 X69.596 Y34.263 E1.14671
G1 X87.539 Y34.264 E2.579
G1 X88.54 Y34.3 E2.65895
G1 X88.663 Y34.309 E2.6688
G1 X89.58 Y34.411 E2.74245
G1 X89.755 Y34.436 E2.75656
G1 X90.644 Y34.6 E2.82872
G1 X90.767 Y34.628 E2.83879
G1 X91.661 Y34.862 E2.91256
G1 X91.824 Y34.911 E2.92614
G1 X92.666 Y35.197 E2.99713
G1 X92.832 Y35.261 E3.01133
G1 X93.635 Y35.602 E3.08097
G1 X93.824 Y35.69 E3.09761
G1 X94.618 Y36.098 E3.16887
G1 X94.735 Y36.165 E3.17963
G1 X95.514 Y36.639 E3.25242
G1 X95.665 Y36.739 E3.26688
G1 X96.379 Y37.25 E3.33697
G1 X96.527 Y37.363 E3.35183
G1 X97.218 Y37.939 E3.42364
G1 X97.331 Y38.04 E3.43574
G1 X97.98 Y38.665 E3.50766
G1 X98.1 Y38.79 E3.52149
G1 X98.703 Y39.461 E3.5935
G1 X98.799 Y39.577 E3.60552
G1 X99.358 Y40.301 E3.67854
G1 X99.452 Y40.432 E3.69141
G1 X99.952 Y41.186 E3.76363
G1 X100.028 Y41.312 E3.77537
G1 X100.474 Y42.106 E3.84807
G1 X100.552 Y42.256 E3.86156
G1 X100.935 Y43.071 E3.93345
G1 X100.995 Y43.214 E3.94582
G1 X101.324 Y44.073 E4.01925
G1 X101.376 Y44.223 E4.03192
G1 X101.631 Y45.073 E4.10276
G1 X101.678 Y45.246 E4.11707
G1 X101.876 Y46.132 E4.18954
G1 X101.901 Y46.271 E4.20081
G1 X102.034 Y47.17 E4.27336
G1 X102.052 Y47.332 E4.28637
G1 X102.119 Y48.234 E4.35857
G1 X102.128 Y48.418 E4.37327
G1 X102.136 Y48.919 E4.41327
G1 X102.136 Y50.117 E4.5089
G1 X102.178 Y50.785 E4.56233
G1 X102.307 Y51.456 E4.61687
G1 X102.52 Y52.105 E4.6714
G1 X102.812 Y52.722 E4.72588
G1 X103.18 Y53.297 E4.78038
G1 X103.618 Y53.821 E4.83489
G1 X104.118 Y54.285 E4.88934
G1 X104.674 Y54.684 E4.94397
G1 X105.274 Y55.008 E4.9984
G1 X105.91 Y55.254 E5.05284
G1 X106.572 Y55.418 E5.10728
G1 X107.179 Y55.492 E5.15609
G1 X166.443 Y59.291 E9.89651
G1 X167.45 Y59.393 E9.9773
G1 X167.611 Y59.415 E9.99028
G1 X168.495 Y59.569 E10.0619
G1 X168.662 Y59.605 E10.07554
G1 X169.548 Y59.828 E10.14847
G1 X169.678 Y59.866 E10.15928
G1 X170.552 Y60.155 E10.23276
G1 X170.692 Y60.207 E10.24468
G1 X171.558 Y60.565 E10.31949
G1 X171.664 Y60.614 E10.32881
G1 X172.513 Y61.04 E10.40463
G1 X172.633 Y61.106 E10.41556
G1 X173.384 Y61.556 E10.48545
G1 X173.57 Y61.676 E10.50312
G1 X174.273 Y62.171 E10.57175
G1 X174.427 Y62.287 E10.58714
G1 X175.099 Y62.835 E10.65636
G1 X175.242 Y62.961 E10.67157
G1 X175.89 Y63.574 E10.74278
G1 X176.137 Y63.835 E10.77146
G1 X176.619 Y64.301 E10.82498
G1 X177.166 Y64.71 E10.8795
G1 X177.76 Y65.046 E10.93397
G1 X178.387 Y65.302 E10.98803
G1 X178.743 Y65.408 E11.01768
G1 X179.008 Y65.478 E11.03956
G1 X179.18 Y65.53 E11.05391
G1 X180.022 Y65.816 E11.12489
G1 X180.188 Y65.88 E11.13909
G1 X180.991 Y66.221 E11.20873
G1 X181.18 Y66.309 E11.22537
G1 X181.974 Y66.717 E11.29663
G1 X182.091 Y66.784 E11.30739
G1 X182.87 Y67.258 E11.38018
G1 X183.021 Y67.358 E11.39464
G1 X183.735 Y67.869 E11.46473
G1 X183.883 Y67.982 E11.47959
G1 X184.574 Y68.558 E11.5514
G1 X184.687 Y68.659 E11.5635
G1 X185.336 Y69.284 E11.63542
G1 X185.456 Y69.409 E11.64925
G1 X186.059 Y70.08 E11.72127
G1 X186.155 Y70.196 E11.73328
G1 X186.705 Y70.908 E11.8051
G1 X186.818 Y71.067 E11.82067
G1 X187.308 Y71.805 E11.89139
G1 X187.384 Y71.931 E11.90313
G1 X187.83 Y72.725 E11.97583
G1 X187.908 Y72.875 E11.98932
G1 X188.291 Y73.69 E12.0612
G1 X188.351 Y73.833 E12.07358
G1 X188.68 Y74.692 E12.14701
G1 X188.732 Y74.842 E12.15968
G1 X188.987 Y75.692 E12.23052
G1 X189.034 Y75.865 E12.24483
G1 X189.232 Y76.751 E12.3173
G1 X189.257 Y76.89 E12.32857
G1 X189.39 Y77.789 E12.40112
G1 X189.408 Y77.951 E12.41413
G1 X189.475 Y78.853 E12.48633
G1 X189.484 Y79.037 E12.50103
G1 X189.492 Y79.538 E12.54103
G1 X189.492 Y129.468 E16.52666
G1 X189.456 Y130.474 E16.60701
G1 X189.446 Y130.609 E16.61782
G1 X189.344 Y131.526 E16.69147
G1 X189.319 Y131.701 E16.70558
G1 X189.149 Y132.616 E16.77987
G1 X189.055 Y133.142 E16.82252
G1 X189.049 Y133.25 E16.83116
G1 X189.028 Y133.938 E16.8861
G1 X189.152 Y134.916 E16.96479
G1 X189.244 Y135.331 E16.99873
G1 X189.273 Y135.49 E17.01163
G1 X189.404 Y136.375 E17.08304
G1 X189.422 Y136.537 E17.09605
G1 X189.489 Y137.439 E17.16825
G1 X189.498 Y137.623 E17.18296
G1 X189.506 Y138.124 E17.22296
G1 X189.506 Y188.054 E21.20858
G1 X189.47 Y189.06 E21.28894
G1 X189.46 Y189.195 E21.29974
G1 X189.358 Y190.112 E21.37339
G1 X189.333 Y190.287 E21.38751
G1 X189.171 Y191.165 E21.45877
G1 X189.141 Y191.299 E21.46974
G1 X188.91 Y192.184 E21.54275
G1 X188.858 Y192.356 E21.55709
G1 X188.582 Y193.168 E21.62555
G1 X188.502 Y193.377 E21.64341
G1 X188.167 Y194.167 E21.71191
G1 X188.086 Y194.342 E21.7273
G1 X187.671 Y195.15 E21.79981
G1 X187.604 Y195.267 E21.81057
G1 X187.13 Y196.046 E21.88336
G1 X187.03 Y196.197 E21.89782
G1 X186.519 Y196.911 E21.96791
G1 X186.406 Y197.059 E21.98277
G1 X185.83 Y197.75 E22.05458
G1 X185.729 Y197.863 E22.06668
G1 X185.104 Y198.512 E22.1386
G1 X184.979 Y198.632 E22.15243
G1 X184.309 Y199.234 E22.22433
G1 X184.192 Y199.331 E22.23646
G1 X183.48 Y199.881 E22.30828
G1 X183.321 Y199.994 E22.32385
G1 X182.583 Y200.484 E22.39457
G1 X182.457 Y200.56 E22.40631
G1 X181.663 Y201.006 E22.47901
G1 X181.512 Y201.084 E22.49257
G1 X180.698 Y201.467 E22.56438
G1 X180.555 Y201.527 E22.57676
G1 X179.696 Y201.856 E22.65019
G1 X179.546 Y201.908 E22.66286
G1 X178.696 Y202.163 E22.7337
G1 X178.523 Y202.21 E22.74801
G1 X177.628 Y202.41 E22.82121
G1 X177.498 Y202.433 E22.83175
G1 X176.593 Y202.567 E22.90478
G1 X176.425 Y202.585 E22.91827
G1 X175.535 Y202.651 E22.98951
G1 X175.351 Y202.66 E23.00421
G1 X174.846 Y202.668 E23.04453
G1 X156.903 Y202.667 E24.47682
G1 X155.902 Y202.631 E24.55677
G1 X155.779 Y202.622 E24.56662
G1 X154.862 Y202.52 E24.64027
G1 X154.687 Y202.495 E24.65438
G1 X153.798 Y202.331 E24.72654
G1 X153.675 Y202.303 E24.73661
G1 X152.781 Y202.069 E24.81038
G1 X152.618 Y202.02 E24.82396
G1 X151.776 Y201.734 E24.89495
G1 X151.61 Y201.67 E24.90915
G1 X150.807 Y201.329 E24.97879
G1 X150.618 Y201.241 E24.99543
G1 X149.824 Y200.833 E25.06669
G1 X149.707 Y200.766 E25.07745
G1 X148.928 Y200.292 E25.15024
G1 X148.777 Y200.192 E25.1647
G1 X148.063 Y199.681 E25.23478
G1 X147.915 Y199.568 E25.24965
G1 X147.224 Y198.992 E25.32146
G1 X147.111 Y198.891 E25.33356
G1 X146.462 Y198.266 E25.40548
G1 X146.342 Y198.141 E25.41931
G1 X145.739 Y197.47 E25.49132
G1 X145.642 Y197.352 E25.50352
G1 X145.084 Y196.63 E25.57635
G1 X144.98 Y196.483 E25.59073
G1 X144.487 Y195.74 E25.66191
G1 X144.414 Y195.619 E25.67319
G1 X143.962 Y194.814 E25.74688
G1 X143.89 Y194.675 E25.75938
G1 X143.493 Y193.829 E25.83398
G1 X143.447 Y193.717 E25.84364
G1 X143.118 Y192.858 E25.91707
G1 X143.061 Y192.693 E25.931
G1 X142.811 Y191.858 E26.00058
G1 X142.764 Y191.685 E26.01489
G1 X142.563 Y190.784 E26.08858
G1 X142.541 Y190.66 E26.09863
G1 X142.406 Y189.746 E26.17238
G1 X142.389 Y189.586 E26.18523
G1 X142.323 Y188.694 E26.25662
G1 X142.314 Y188.513 E26.27109
G1 X142.306 Y188.012 E26.31109
G1 X142.306 Y186.814 E26.40672
G1 X142.264 Y186.146 E26.46014
G1 X142.135 Y185.475 E26.51469
G1 X141.922 Y184.826 E26.56921
G1 X141.63 Y184.209 E26.6237
G1 X141.262 Y183.634 E26.67819
G1 X140.824 Y183.11 E26.73271
G1 X140.324 Y182.646 E26.78716
G1 X139.768 Y182.247 E26.84179
G1 X139.168 Y181.923 E26.89622
G1 X138.532 Y181.677 E26.95065
G1 X137.87 Y181.513 E27.0051
G1 X137.263 Y181.439 E27.05391
G1 X77.999 Y177.64 E31.79433
G1 X76.992 Y177.538 E31.87512
G1 X76.829 Y177.516 E31.88825
G1 X75.947 Y177.362 E31.95972
G1 X75.78 Y177.326 E31.97336
G1 X74.894 Y177.103 E32.04629
G1 X74.764 Y177.065 E32.0571
G1 X73.89 Y176.776 E32.13058
G1 X73.75 Y176.724 E32.1425
G1 X72.884 Y176.366 E32.2173
G1 X72.778 Y176.317 E32.22662
G1 X71.929 Y175.891 E32.30245
G1 X71.809 Y175.825 E32.31338
G1 X71.058 Y175.375 E32.38327
G1 X70.872 Y175.255 E32.40094
G1 X70.158 Y174.753 E32.47061
G1 X70.022 Y174.65 E32.48423
G1 X69.602 Y174.306 E32.52756
G1 X69.058 Y173.915 E32.58104
G1 X68.457 Y173.591 E32.63554
G1 X67.82 Y173.345 E32.69005
G1 X67.186 Y173.187 E32.74221
G1 X66.394 Y173.041 E32.80649
G1 X66.269 Y173.013 E32.81672
G1 X65.375 Y172.779 E32.89048
G1 X65.212 Y172.73 E32.90407
G1 X64.37 Y172.444 E32.97505
G1 X64.204 Y172.38 E32.98926
G1 X63.401 Y172.039 E33.05889
G1 X63.212 Y171.951 E33.07554
G1 X62.418 Y171.543 E33.1468
G1 X62.301 Y171.476 E33.15756
G1 X61.522 Y171.002 E33.23035
G1 X61.371 Y170.902 E33.2448
G1 X60.657 Y170.391 E33.31489
G1 X60.509 Y170.278 E33.32976
G1 X59.818 Y169.702 E33.40156
G1 X59.705 Y169.601 E33.41366
G1 X59.056 Y168.976 E33.48559
G1 X58.936 Y168.851 E33.49942
G1 X58.333 Y168.18 E33.57143
G1 X58.236 Y168.062 E33.58362
G1 X57.678 Y167.34 E33.65646
G1 X57.574 Y167.193 E33.67084
G1 X57.081 Y166.45 E33.74201
G1 X57.008 Y166.329 E33.75329
G1 X56.556 Y165.524 E33.82699
G1 X56.484 Y165.385 E33.83949
G1 X56.101 Y164.569 E33.91144
G1 X56.036 Y164.415 E33.92478
G1 X55.712 Y163.568 E33.99717
G1 X55.655 Y163.403 E34.01111
G1 X55.405 Y162.568 E34.08068
G1 X55.358 Y162.395 E34.09499
G1 X55.157 Y161.494 E34.16868
G1 X55.135 Y161.37 E34.17874
G1 X55 Y160.456 E34.25249
G1 X54.983 Y160.296 E34.26533
G1 X54.917 Y159.404 E34.33673
G1 X54.908 Y159.223 E34.35119
G1 X54.9 Y158.722 E34.39119
G1 X54.9 Y108.792 E38.37682
G1 X54.936 Y107.786 E38.45718
G1 X54.946 Y107.651 E38.46798
G1 X55.048 Y106.734 E38.54163
G1 X55.073 Y106.559 E38.55574
G1 X55.236 Y105.68 E38.6271
G1 X55.267 Y105.537 E38.63878
G1 X55.376 Y105.12 E38.67319
G1 X55.504 Y104.463 E38.72662
G1 X55.55 Y103.781 E38.78118
G1 X55.509 Y103.096 E38.83596
G1 X55.501 Y102.957 E38.84708
G1 X55.193 Y101.579 E38.95979
G1 X55.171 Y101.455 E38.96984
G1 X55.036 Y100.541 E39.04359
G1 X55.019 Y100.381 E39.05643
G1 X54.953 Y99.489 E39.12783
G1 X54.944 Y99.308 E39.1423
G1 X54.936 Y98.807 E39.1823
G1 X54.936 Y48.877 E43.16792
G1 X54.972 Y47.871 E43.24828
G1 X54.982 Y47.736 E43.25909
G1 X55.084 Y46.819 E43.33274
G1 X55.109 Y46.644 E43.34685
G1 X55.271 Y45.766 E43.41812
G1 X55.301 Y45.632 E43.42908
G1 X55.532 Y44.747 E43.50209
G1 X55.584 Y44.575 E43.51643
G1 X55.87 Y43.733 E43.58741
G1 X55.934 Y43.567 E43.60162
G1 X56.275 Y42.764 E43.67126
G1 X56.356 Y42.589 E43.68665
G1 X56.771 Y41.781 E43.75916
G1 X56.838 Y41.664 E43.76992
G1 X57.312 Y40.885 E43.84271
G1 X57.412 Y40.734 E43.85717
G1 X57.6 Y40.471
G1 X57.6 Y167.229 E53.97554
G0 F9000 X59.2 Y169.114
G1 F1125 X59.2 Y38.562 E64.39676
G0 F9000 X60.8 Y37.175
G1 F1125 X60.8 Y170.493 E75.03878
G0 F9000 X62.4 Y171.532
G1 F1125 X62.4 Y36.137 E85.8466
G0 F9000 X64 Y35.36
G1 F1125 X64 Y172.293 E96.77718
G0 F9000 X65.6 Y172.837
G1 F1125 X65.6 Y34.811 E107.79501
G0 F9000 X67.2 Y34.46
G1 F1125 X67.2 Y173.19 E118.86904
G0 F9000 X68.8 Y173.775
G1 F1125 X68.8 Y34.287 E130.00358
G0 F9000 X70.4 Y34.264
G1 F1125 X70.4 Y174.923 E141.23159
G0 F9000 X72 Y175.926
G1 F1125 X72 Y34.264 E152.53966
G0 F9000 X73.6 Y34.264
G1 F1125 X73.6 Y176.661 E163.9064
G0 F9000 X75.2 Y177.18
G1 F1125 X75.2 Y34.264 E175.31458
G0 F9000 X76.8 Y34.264
G1 F1125 X76.8 Y177.51 E186.74909
G0 F9000 X78.4 Y177.665
G1 F1125 X78.4 Y34.264 E198.19598
G0 F9000 X80 Y34.264
G1 F1125 X80 Y177.768 E209.65109
G0 F9000 X81.6 Y177.87
G1 F1125 X81.6 Y34.264 E221.11434
G0 F9000 X83.2 Y34.264
G1 F1125 X83.2 Y177.973 E232.58582
G0 F9000 X84.8 Y178.075
G1 F1125 X84.8 Y34.264 E244.06543
G0 F9000 X86.4 Y34.264
G1 F1125 X86.4 Y178.178 E255.55327
G0 F9000 X88 Y178.281
G1 F1125 X88 Y34.281 E267.04797
G0 F9000 X89.6 Y34.414
G1 F1125 X89.6 Y178.383 E278.5402
G0 F9000 X91.2 Y178.486
G1 F1125 X91.2 Y34.742 E290.01447
G0 F9000 X92.8 Y35.249
G1 F1125 X92.8 Y178.588 E301.45641
G0 F9000 X94.4 Y178.691
G1 F1125 X94.4 Y35.986 E312.84774
G0 F9000 X96 Y36.979
G1 F1125 X96 Y178.793 E324.16794
G0 F9000 X97.6 Y178.896
G1 F1125 X97.6 Y38.3 E335.39092
G0 F9000 X99.2 Y40.097
G1 F1125 X99.2 Y178.999 E346.47868
G0 F9000 X100.8 Y179.101
G1 F1125 X100.8 Y42.784 E357.36009
G1 F2700 E352.36009
G0 F9000 X101.986 Y42.824
G0 X102.657 Y44.79
G0 X102.953 Y46.105
G0 X103.138 Y47.779
G0 X103.34 Y51.19
G0 X102.4 Y51.74
G1 F2700 E357.36009
G1 F1125 X102.4 Y179.204 E367.53482
G0 F9000 X104 Y179.306
G1 F1125 X104 Y54.176 E377.52324
G0 F9000 X105.6 Y55.135
G1 F1125 X105.6 Y179.409 E387.44333
G0 F9000 X107.2 Y179.511
G1 F1125 X107.2 Y55.494 E397.3429
G0 F9000 X108.8 Y55.596
G1 F1125 X108.8 Y179.614 E407.24255
G0 F9000 X110.4 Y179.717
G1 F1125 X110.4 Y55.699 E417.14221
G0 F9000 X112 Y55.802
G1 F1125 X112 Y179.819 E427.04178
G0 F9000 X113.6 Y179.922
G1 F1125 X113.6 Y55.904 E436.94143
G0 F9000 X115.2 Y56.007
G1 F1125 X115.2 Y180.024 E446.84101
G0 F9000 X116.8 Y180.127
G1 F1125 X116.8 Y56.109 E456.74066
G0 F9000 X118.4 Y56.212
G1 F1125 X118.4 Y180.229 E466.64023
G0 F9000 X120 Y180.332
G1 F1125 X120 Y56.314 E476.53989
G0 F9000 X121.6 Y56.417
G1 F1125 X121.6 Y180.434 E486.43946
G0 F9000 X123.2 Y180.537
G1 F1125 X123.2 Y56.519 E496.33911
G0 F9000 X124.8 Y56.622
G1 F1125 X124.8 Y180.64 E506.23877
G0 F9000 X126.4 Y180.742
G1 F1125 X126.4 Y56.725 E516.13834
G0 F9000 X128 Y56.827
G1 F1125 X128 Y180.845 E526.03799
G0 F9000 X129.6 Y180.947
G1 F1125 X129.6 Y56.93 E535.93756
G0 F9000 X131.2 Y57.032
G1 F1125 X131.2 Y181.05 E545.83722
G0 F9000 X132.8 Y181.152
G1 F1125 X132.8 Y57.135 E555.73679
G0 F9000 X134.4 Y57.237
G1 F1125 X134.4 Y181.255 E565.63644
G0 F9000 X136 Y181.358
G1 F1125 X136 Y57.34 E575.5361
G0 F9000 X137.6 Y57.443
G1 F1125 X137.6 Y181.48 E585.43727
G0 F9000 X139.2 Y181.94
G1 F1125 X139.2 Y57.545 E595.36701
G0 F9000 X140.8 Y57.648
G1 F1125 X140.8 Y183.087 E605.3801
G1 F2700 E600.3801
G0 F9000 X140.398 Y184.259
G0 X141.33 Y189.689
G0 X142.4 Y189.689
G1 F2700 E605.3801
G1 F1125 X142.4 Y57.75 E615.91204
G0 F9000 X144 Y57.853
G1 F1125 X144 Y194.881 E626.85021
G0 F9000 X145.6 Y197.297
G1 F1125 X145.6 Y57.955 E637.97309
G0 F9000 X147.2 Y58.058
G1 F1125 X147.2 Y198.97 E649.22129
G0 F9000 X148.8 Y200.207
G1 F1125 X148.8 Y58.161 E660.56002
G0 F9000 X150.4 Y58.263
G1 F1125 X150.4 Y201.128 E671.96412
G0 F9000 X152 Y201.81
G1 F1125 X152 Y58.366 E683.41444
G0 F9000 X153.6 Y58.468
G1 F1125 X153.6 Y202.283 E694.89438
G0 F9000 X155.2 Y202.557
G1 F1125 X155.2 Y58.571 E706.38796
G0 F9000 X156.8 Y58.673
G1 F1125 X156.8 Y202.663 E717.88186
G0 F9000 X158.4 Y202.667
G1 F1125 X158.4 Y58.776 E729.36787
G0 F9000 X160 Y58.878
G1 F1125 X160 Y202.667 E740.84573
G0 F9000 X161.6 Y202.667
G1 F1125 X161.6 Y58.981 E752.31536
G0 F9000 X163.2 Y59.084
G1 F1125 X163.2 Y202.667 E763.77678
G0 F9000 X164.8 Y202.667
G1 F1125 X164.8 Y59.186 E775.23005
G0 F9000 X166.4 Y59.289
G1 F1125 X166.4 Y202.667 E786.67511
G0 F9000 X168 Y202.667
G1 F1125 X168 Y59.483 E798.10467
G0 F9000 X169.6 Y59.844
G1 F1125 X169.6 Y202.667 E809.50542
G0 F9000 X171.2 Y202.667
G1 F1125 X171.2 Y60.418 E820.86035
