;FLAVOR:Marlin
;TIME:13581
;Filament used: 10.3025m
;Layer height: 0.2
;MINX:82.352
;MINY:82.345
;MINZ:0.24
;MAXX:152.648
;MAXY:152.648
;MAXZ:23.09
;Generated with Cura_SteamEngine 4.13.0
M140 S60
M105
M190 S60
M104 S200
M105
M109 S200
M82 ;absolute extrusion mode
; Ender 3 Custom Start G-code
G92 E0 ; Reset Extruder
G28 ; Home all axes
G1 Z2.0 F3000 ; Move Z Axis up little to prevent scratching of Heat Bed
G1 X0.1 Y20 Z0.3 F5000.0 ; Move to start position
G1 X0.1 Y200.0 Z0.3 F1500.0 E15 ; Draw the first line
G1 X0.4 Y200.0 Z0.3 F5000.0 ; Move to side a little
G1 X0.4 Y20 Z0.3 F1500.0 E30 ; Draw the second line
G92 E0 ; Reset Extruder
G1 Z2.0 F3000 ; Move Z Axis up little to prevent scratching of Heat Bed
G1 X5 Y20 Z0.3 F5000.0 ; Move over to prevent blob squish
G92 E0
G92 E0
G1 F2700 E-5
;LAYER_COUNT:110
;LAYER:-6
M107
G0 F9000 X93.17 Y93.613 Z0.24
;TYPE:SUPPORT-INTERFACE
G1 F2700 E0
G1 F675 X93.859 Y92.939 E0.07694
G1 X93.929 Y92.874 E0.08456
G1 X94.449 Y92.425 E0.1394
G1 X97.362 Y90.035 E0.44018
G1 X97.453 Y89.963 E0.44944
G1 X98.184 Y89.407 E0.52276
G1 X98.33 Y89.303 E0.53706
G1 X99.072 Y88.819 E0.60778
G1 X99.206 Y88.738 E0.62028
G1 X99.785 Y88.41 E0.6734
G1 X103.157 Y86.608 E0.97859
G1 X104.04 Y86.176 E1.05706
G1 X104.201 Y86.105 E1.07111
G1 X105.015 Y85.779 E1.1411
G1 X105.203 Y85.71 E1.15709
G1 X105.824 Y85.505 E1.20929
G1 X109.404 Y84.42 E1.50789
G1 X109.499 Y84.393 E1.51578
G1 X110.418 Y84.151 E1.59164
G1 X110.569 Y84.117 E1.60399
G1 X111.463 Y83.95 E1.67659
G1 X111.622 Y83.926 E1.68943
G1 X112.192 Y83.854 E1.73529
G1 X112.326 Y83.839 E1.74605
G1 X116.005 Y83.476 E2.04115
G1 X116.107 Y83.468 E2.04932
G1 X117.062 Y83.409 E2.1257
G1 X117.196 Y83.406 E2.13639
G1 X118.117 Y83.416 E2.20992
G1 X118.284 Y83.423 E2.22326
G1 X118.979 Y83.475 E2.27889
G1 X122.772 Y83.85 E2.58314
G1 X123.714 Y83.978 E2.65903
G1 X123.876 Y84.006 E2.67215
G1 X124.757 Y84.193 E2.74404
G1 X124.894 Y84.226 E2.75529
G1 X125.575 Y84.414 E2.81169
G1 X129.141 Y85.495 E3.10913
G1 X129.241 Y85.527 E3.11751
G1 X130.131 Y85.833 E3.19264
G1 X130.277 Y85.889 E3.20512
G1 X131.132 Y86.254 E3.27933
G1 X131.237 Y86.302 E3.28854
G1 X131.873 Y86.624 E3.34545
G1 X135.215 Y88.41 E3.64793
G1 X136.082 Y88.915 E3.72802
G1 X136.202 Y88.991 E3.73936
G1 X136.965 Y89.514 E3.8132
G1 X137.076 Y89.594 E3.82412
G1 X137.596 Y90 E3.87678
G1 X140.508 Y92.389 E4.17745
G1 X141.308 Y93.095 E4.26262
G1 X141.387 Y93.17 E4.27131
G1 X142.061 Y93.859 E4.34825
G1 X142.126 Y93.929 E4.35587
G1 X142.575 Y94.449 E4.41072
G1 X145.02 Y97.43 E4.71847
G1 X145.593 Y98.184 E4.79407
G1 X145.697 Y98.33 E4.80838
G1 X146.181 Y99.072 E4.87909
G1 X146.262 Y99.206 E4.89159
G1 X146.59 Y99.785 E4.94471
G1 X148.392 Y103.157 E5.2499
G1 X148.821 Y104.033 E5.32776
G1 X148.89 Y104.189 E5.34138
G1 X149.221 Y105.015 E5.41241
G1 X149.29 Y105.203 E5.4284
G1 X149.488 Y105.802 E5.47876
G1 X150.578 Y109.396 E5.77855
G1 X150.607 Y109.499 E5.78709
G1 X150.849 Y110.418 E5.86295
G1 X150.883 Y110.569 E5.87531
G1 X151.053 Y111.477 E5.94905
G1 X151.071 Y111.598 E5.95881
G1 X151.144 Y112.173 E6.00508
G1 X151.164 Y112.35 E6.0193
G1 X151.523 Y115.997 E6.31182
G1 X151.532 Y116.108 E6.32071
G1 X151.591 Y117.063 E6.39709
G1 X151.594 Y117.173 E6.40588
G1 X151.584 Y118.117 E6.48123
G1 X151.578 Y118.272 E6.49362
G1 X151.535 Y118.871 E6.54155
G1 X151.16 Y122.688 E6.84771
G1 X151.022 Y123.711 E6.93011
G1 X150.996 Y123.865 E6.94258
G1 X150.807 Y124.757 E7.01536
G1 X150.774 Y124.894 E7.02661
G1 X150.597 Y125.54 E7.08008
G1 X149.515 Y129.11 E7.37785
G1 X149.474 Y129.24 E7.38873
G1 X149.169 Y130.127 E7.4636
G1 X149.111 Y130.277 E7.47644
G1 X148.748 Y131.128 E7.55029
G1 X148.698 Y131.237 E7.55987
G1 X148.392 Y131.843 E7.61406
G1 X146.597 Y135.203 E7.91814
G1 X146.093 Y136.069 E7.99812
G1 X146.017 Y136.19 E8.00953
G1 X145.486 Y136.965 E8.08452
G1 X145.406 Y137.076 E8.09544
G1 X145 Y137.596 E8.14811
G1 X142.611 Y140.508 E8.44877
G1 X141.905 Y141.308 E8.53394
G1 X141.83 Y141.387 E8.54264
G1 X141.141 Y142.061 E8.61957
G1 X141.071 Y142.126 E8.6272
G1 X140.551 Y142.575 E8.68204
G1 X137.645 Y144.96 E8.98213
G1 X137.564 Y145.024 E8.99037
G1 X136.816 Y145.593 E9.06539
G1 X136.67 Y145.697 E9.0797
G1 X135.928 Y146.181 E9.15042
G1 X135.794 Y146.262 E9.16292
G1 X135.215 Y146.59 E9.21604
G1 X131.842 Y148.393 E9.52134
G1 X130.96 Y148.824 E9.5997
G1 X130.804 Y148.893 E9.61331
G1 X129.985 Y149.221 E9.68374
G1 X129.797 Y149.29 E9.69972
G1 X129.176 Y149.495 E9.75193
G1 X125.596 Y150.58 E10.05053
G1 X125.501 Y150.607 E10.05842
G1 X124.582 Y150.849 E10.13428
G1 X124.431 Y150.883 E10.14663
G1 X123.537 Y151.05 E10.21923
G1 X123.378 Y151.074 E10.23207
G1 X122.808 Y151.146 E10.27793
G1 X122.674 Y151.161 E10.28869
G1 X118.995 Y151.524 E10.58379
G1 X118.893 Y151.532 E10.59196
G1 X117.938 Y151.591 E10.66833
G1 X117.804 Y151.594 E10.67903
G1 X116.883 Y151.584 E10.75256
G1 X116.716 Y151.577 E10.7659
G1 X116.021 Y151.525 E10.82153
G1 X112.228 Y151.15 E11.12578
G1 X111.286 Y151.022 E11.20167
G1 X111.124 Y150.994 E11.21479
G1 X110.243 Y150.807 E11.28668
G1 X110.103 Y150.773 E11.29818
G1 X109.425 Y150.586 E11.35432
G1 X105.859 Y149.505 E11.65177
G1 X105.759 Y149.473 E11.66015
G1 X104.869 Y149.167 E11.73528
G1 X104.724 Y149.111 E11.74768
G1 X103.868 Y148.746 E11.82197
G1 X103.763 Y148.698 E11.83118
G1 X103.127 Y148.376 E11.88809
G1 X99.802 Y146.599 E12.18903
G1 X98.918 Y146.085 E12.27065
G1 X98.798 Y146.009 E12.28199
G1 X98.035 Y145.486 E12.35583
G1 X97.924 Y145.406 E12.36675
G1 X97.404 Y145 E12.41942
G1 X94.486 Y142.606 E12.7207
G1 X93.692 Y141.905 E12.80525
G1 X93.613 Y141.83 E12.81395
G1 X92.939 Y141.141 E12.89089
G1 X92.865 Y141.061 E12.89958
G1 X92.4 Y140.521 E12.95647
G1 X90.015 Y137.614 E13.25662
G1 X89.965 Y137.551 E13.26304
G1 X89.407 Y136.816 E13.33671
G1 X89.303 Y136.67 E13.35101
G1 X88.812 Y135.917 E13.42277
G1 X88.732 Y135.784 E13.43516
G1 X88.406 Y135.208 E13.48799
G1 X86.612 Y131.85 E13.7919
G1 X86.172 Y130.952 E13.87172
G1 X86.105 Y130.799 E13.88506
G1 X85.779 Y129.985 E13.95505
G1 X85.71 Y129.797 E13.97104
G1 X85.503 Y129.171 E14.02367
G1 X84.418 Y125.589 E14.32243
G1 X84.387 Y125.48 E14.33147
G1 X84.151 Y124.582 E14.40559
G1 X84.117 Y124.431 E14.41794
G1 X83.95 Y123.537 E14.49054
G1 X83.926 Y123.378 E14.50338
G1 X83.855 Y122.818 E14.54844
G1 X83.835 Y122.643 E14.5625
G1 X83.475 Y118.987 E14.85575
G1 X83.409 Y117.938 E14.93965
G1 X83.406 Y117.813 E14.94963
G1 X83.416 Y116.883 E15.02387
G1 X83.422 Y116.728 E15.03625
G1 X83.476 Y115.999 E15.0946
G1 X83.84 Y112.31 E15.3905
G1 X83.978 Y111.289 E15.47275
G1 X84.004 Y111.135 E15.48521
G1 X84.193 Y110.243 E15.558
G1 X84.226 Y110.106 E15.56925
G1 X84.403 Y109.46 E15.62271
G1 X85.485 Y105.89 E15.92049
G1 X85.526 Y105.76 E15.93137
G1 X85.831 Y104.873 E16.00624
G1 X85.889 Y104.723 E16.01908
G1 X86.254 Y103.868 E16.09329
G1 X86.302 Y103.763 E16.1025
G1 X86.608 Y103.157 E16.15669
G1 X88.41 Y99.785 E16.46189
G1 X88.907 Y98.931 E16.54076
G1 X88.983 Y98.81 E16.55217
G1 X89.514 Y98.035 E16.62716
G1 X89.594 Y97.924 E16.63808
G1 X90 Y97.404 E16.69074
G1 X92.443 Y94.427 E16.99815
G1 X93.095 Y93.692 E17.07658
G1 X93.17 Y93.613 E17.08527
G0 F9000 X92.8 Y94.024
G1 F675 X92.8 Y140.985 E20.8339
G0 F9000 X94.4 Y142.53
G1 F675 X94.4 Y92.467 E24.83015
G0 F9000 X96 Y91.152
G1 F675 X96 Y143.848 E29.03657
G0 F9000 X97.6 Y145.153
G1 F675 X97.6 Y89.851 E33.45102
G0 F9000 X99.2 Y88.741
G1 F675 X99.2 Y146.248 E38.04147
G0 F9000 X100.8 Y147.132
G1 F675 X100.8 Y87.867 E42.77226
G0 F9000 X102.4 Y87.012
G1 F675 X102.4 Y147.987 E47.63955
G0 F9000 X104 Y148.802
G1 F675 X104 Y86.195 E52.63711
G0 F9000 X105.6 Y85.578
G1 F675 X105.6 Y149.418 E57.7331
G0 F9000 X107.2 Y149.911
G1 F675 X107.2 Y85.087 E62.90763
G0 F9000 X108.8 Y84.603
G1 F675 X108.8 Y150.396 E68.15951
G0 F9000 X110.4 Y150.84
G1 F675 X110.4 Y84.155 E73.4826
G0 F9000 X112 Y83.878
G1 F675 X112 Y151.119 E78.85006
G0 F9000 X113.6 Y151.285
G1 F675 X113.6 Y83.713 E84.24395
G0 F9000 X115.2 Y83.555
G1 F675 X115.2 Y151.443 E89.66307
G0 F9000 X116.8 Y151.58
G1 F675 X116.8 Y83.425 E95.10349
G0 F9000 X118.4 Y83.432
G1 F675 X118.4 Y151.563 E100.542
G0 F9000 X120 Y151.425
G1 F675 X120 Y83.576 E105.958
G0 F9000 X121.6 Y83.735
G1 F675 X121.6 Y151.267 E111.3487
G0 F9000 X123.2 Y151.097
G1 F675 X123.2 Y83.909 E116.71194
G0 F9000 X124.8 Y84.204
G1 F675 X124.8 Y150.792 E122.02728
G0 F9000 X126.4 Y150.337
G1 F675 X126.4 Y84.665 E127.2695
G0 F9000 X128 Y85.15
G1 F675 X128 Y149.852 E132.4343
G0 F9000 X129.6 Y149.356
G1 F675 X129.6 Y85.651 E137.5195
G0 F9000 X131.2 Y86.286
G1 F675 X131.2 Y148.707 E142.50222
G0 F9000 X132.8 Y147.881
G1 F675 X132.8 Y87.12 E147.35242
G0 F9000 X134.4 Y87.975
G1 F675 X134.4 Y147.026 E152.06613
G0 F9000 X136 Y146.135
G1 F675 X136 Y88.868 E156.63743
G0 F9000 X137.6 Y90.004
G1 F675 X137.6 Y144.996 E161.02713
G0 F9000 X139.2 Y143.684
G1 F675 X139.2 Y91.316 E165.20737
G0 F9000 X140.8 Y92.647
G1 F675 X140.8 Y142.36 E169.17568
G0 F9000 X142.4 Y140.748
G1 F675 X142.4 Y94.247 E172.88759
G0 F9000 X144 Y96.187
G1 F675 X144 Y138.815 E176.29034
G0 F9000 X145.6 Y136.799
G1 F675 X145.6 Y98.194 E179.37196
G0 F9000 X147.2 Y100.927
G1 F675 X147.2 Y134.075 E182.01797
G0 F9000 X148.8 Y131.007
G1 F675 X148.8 Y103.991 E184.17451
G1 F2700 E179.17451
G0 F9000 X149.873 Y103.783
G0 X150.23 Y104.746
G0 X151.419 Y108.501
G0 X150.4 Y108.81
G1 F2700 E184.17451
G1 F675 X150.4 Y126.19 E185.56185
G1 F2700 E180.56185
G0 F9000 X151.419 Y126.498
G0 X150.095 Y130.684
G0 X149.334 Y132.339
G0 X146.999 Y136.627
G0 X145.828 Y138.265
G0 X142.583 Y142.14
G0 X141.228 Y143.396
G0 X137.276 Y146.573
G0 X135.725 Y147.526
G0 X131.407 Y149.79
G0 X129.491 Y150.512
G0 X124.841 Y151.881
G0 X123.529 Y152.128
G0 X118.97 Y152.594
G0 X116.849 Y152.648
G0 X111.12 Y152.073
G0 X109.12 Y151.606
G0 X104.502 Y150.166
G0 X102.629 Y149.317
G0 X98.219 Y146.902
G0 X96.735 Y145.828
G0 X92.86 Y142.583
G0 X92.135 Y141.799
G0 X90.378 Y139.733
G0 X91.2 Y139.058
G1 F2700 E185.56185
G1 F675 X91.2 Y95.941 E189.00364
G0 F9000 X89.6 Y97.916
G1 F675 X89.6 Y137.07 E192.12908
G0 F9000 X88 Y134.448
G1 F675 X88 Y100.552 E194.83481
G0 F9000 X86.4 Y103.568
G1 F675 X86.4 Y131.417 E197.05783
G1 F2700 E192.05783
G0 F9000 X85.21 Y131.407
G0 X84.625 Y129.853
G0 X83.781 Y127.159
G0 X84.8 Y126.85
G1 F2700 E197.05783
G1 F675 X84.8 Y108.15 E198.55055
G1 F2700 E193.55055
G0 F300 X84.8 Y108.15 Z0.54
G0 F9000 X83.78 Y107.842
G0 X83.156 Y110.003
G0 X82.783 Y112.19
G0 X82.352 Y116.849
G0 X82.405 Y118.952
G0 X82.899 Y123.707
G0 X83.397 Y125.892
G0 X84.782 Y130.361
G0 X85.657 Y132.324
G0 X87.915 Y136.488
G0 X88.945 Y137.942
G0 X91.578 Y141.196
G0 X92.4 Y140.52
;TIME_ELAPSED:233.887573
;LAYER:-5
;TYPE:SUPPORT
G1 F2700 E198.55055
G1 F675 X92.865 Y141.06 E198.62165
G1 X92.939 Y141.139 E198.63246
G1 X93.613 Y141.829 E198.7287
G1 X93.692 Y141.904 E198.73957
G1 X94.486 Y142.605 E198.84525
G1 X94.683 Y142.766 E198.87064
G1 X92.232 Y140.315 E199.2165
G1 X90.015 Y137.613 E199.56525
G1 X89.965 Y137.55 E199.57327
G1 X89.406 Y136.815 E199.66541
G1 X89.303 Y136.669 E199.68324
G1 X88.811 Y135.916 E199.77299
G1 X88.732 Y135.782 E199.78851
G1 X88.405 Y135.207 E199.85451
G1 X88.252 Y134.921 E199.88688
G1 X100.074 Y146.743 E201.55509
G1 X103.111 Y148.366 E201.89868
G1 X86.63 Y131.885 E204.22433
G1 X86.611 Y131.849 E204.22839
G1 X86.171 Y130.951 E204.32817
G1 X86.105 Y130.798 E204.3448
G1 X85.779 Y129.984 E204.43229
G1 X85.709 Y129.796 E204.45231
G1 X85.588 Y129.428 E204.49096
G1 X105.564 Y149.405 E207.30986
G1 X105.759 Y149.472 E207.33043
G1 X105.858 Y149.504 E207.34081
G1 X107.608 Y150.034 E207.52326
G1 X84.963 Y127.39 E210.71865
G1 X84.417 Y125.588 E210.90652
G1 X84.386 Y125.479 E210.91783
G1 X84.357 Y125.37 E210.92908
G1 X109.629 Y150.642 E214.49524
G1 X110.102 Y150.772 E214.54418
G1 X110.242 Y150.806 E214.55856
G1 X111.123 Y150.993 E214.64842
G1 X111.285 Y151.021 E214.66483
G1 X111.444 Y151.042 E214.68083
G1 X83.951 Y123.549 E218.56039
G1 X83.949 Y123.536 E218.5617
G1 X83.926 Y123.377 E218.57773
G1 X83.854 Y122.817 E218.63407
G1 X83.834 Y122.642 E218.65164
G1 X83.765 Y121.949 E218.72113
G1 X113.046 Y151.23 E222.853
G1 X114.615 Y151.385 E223.01032
G1 X83.611 Y120.381 E227.38532
G1 X83.475 Y118.986 E227.52517
G1 X83.464 Y118.82 E227.54177
G1 X116.18 Y151.535 E232.15828
G1 X116.715 Y151.576 E232.21182
G1 X116.882 Y151.583 E232.2285
G1 X117.65 Y151.591 E232.30513
G1 X83.41 Y117.351 E237.13677
G1 X83.415 Y116.881 E237.18367
G1 X83.422 Y116.727 E237.19905
G1 X83.475 Y116.002 E237.27158
G1 X118.995 Y151.522 E242.28384
G1 X120.283 Y151.395 E242.41298
G1 X83.601 Y114.714 E247.58913
G1 X83.729 Y113.427 E247.71819
G1 X121.57 Y151.268 E253.05796
G1 X122.673 Y151.16 E253.16854
G1 X122.808 Y151.144 E253.18211
G1 X122.854 Y151.138 E253.18674
G1 X83.861 Y112.145 E258.68907
G1 X83.978 Y111.288 E258.77538
G1 X84.004 Y111.134 E258.79096
G1 X84.049 Y110.919 E258.81288
G1 X124.078 Y150.948 E264.4614
G1 X124.43 Y150.882 E264.49714
G1 X124.582 Y150.848 E264.51268
G1 X125.222 Y150.678 E264.57875
G1 X84.316 Y109.772 E270.35103
G1 X84.403 Y109.458 E270.38354
G1 X84.638 Y108.68 E270.46463
G1 X126.318 Y150.359 E276.34606
G1 X127.403 Y150.031 E276.45916
G1 X84.967 Y107.594 E282.44741
G1 X85.296 Y106.509 E282.56054
G1 X128.489 Y149.702 E288.65554
G1 X129.176 Y149.494 E288.72716
G1 X129.566 Y149.364 E288.76818
G1 X85.636 Y105.435 E294.96711
G1 X85.831 Y104.872 E295.02656
G1 X85.889 Y104.722 E295.0426
G1 X86.023 Y104.407 E295.07676
G1 X130.592 Y148.976 E301.36593
G1 X130.804 Y148.891 E301.38872
G1 X130.96 Y148.823 E301.4057
G1 X131.559 Y148.529 E301.47228
G1 X86.466 Y103.436 E307.83539
G1 X86.608 Y103.156 E307.86671
G1 X86.953 Y102.509 E307.93988
G1 X132.489 Y148.046 E314.36557
G1 X133.411 Y147.553 E314.46989
G1 X87.445 Y101.587 E320.95619
G1 X87.937 Y100.665 E321.06047
G1 X134.332 Y147.06 E327.6073
G1 X135.215 Y146.589 E327.70716
G1 X135.253 Y146.566 E327.71159
G1 X88.431 Y99.745 E334.31861
G1 X88.906 Y98.93 E334.41274
G1 X88.954 Y98.853 E334.42179
G1 X136.141 Y146.04 E341.08039
G1 X136.669 Y145.696 E341.14326
G1 X136.815 Y145.592 E341.16115
G1 X136.98 Y145.466 E341.18187
G1 X89.528 Y98.013 E347.87793
G1 X89.593 Y97.923 E347.889
G1 X89.999 Y97.403 E347.95483
G1 X90.149 Y97.22 E347.97844
G1 X137.777 Y144.848 E354.69927
G1 X138.554 Y144.211 E354.79952
G1 X90.786 Y96.443 E361.5401
G1 X91.424 Y95.667 E361.64034
G1 X139.331 Y143.574 E368.40053
G1 X140.108 Y142.936 E368.50085
G1 X92.061 Y94.89 E375.28073
G1 X92.443 Y94.426 E375.3407
G1 X92.71 Y94.124 E375.38092
G1 X140.877 Y142.291 E382.17781
G1 X141.071 Y142.124 E382.20335
G1 X141.141 Y142.06 E382.21281
G1 X141.605 Y141.605 E382.27766
G1 X93.393 Y93.393 E389.08089
G1 X93.858 Y92.939 E389.14574
G1 X93.927 Y92.874 E389.15519
G1 X94.121 Y92.707 E389.18074
G1 X142.288 Y140.874 E395.97762
G1 X142.61 Y140.507 E396.02634
G1 X142.938 Y140.109 E396.0778
G1 X94.89 Y92.062 E402.85782
G1 X95.667 Y91.424 E402.95813
G1 X143.575 Y139.332 E409.71847
G1 X144.212 Y138.555 E409.81872
G1 X96.444 Y90.787 E416.5593
G1 X97.221 Y90.15 E416.65956
G1 X144.85 Y137.779 E423.38052
G1 X144.999 Y137.595 E423.40415
G1 X145.405 Y137.075 E423.46998
G1 X145.47 Y136.985 E423.48105
G1 X98.018 Y89.533 E430.17704
G1 X98.183 Y89.406 E430.19782
G1 X98.329 Y89.302 E430.21571
G1 X98.858 Y88.958 E430.27867
G1 X146.045 Y136.145 E436.93726
G1 X146.092 Y136.068 E436.94626
G1 X146.566 Y135.253 E437.04034
G1 X99.745 Y88.432 E443.64729
G1 X99.784 Y88.409 E443.65181
G1 X100.666 Y87.938 E443.75157
G1 X147.061 Y134.333 E450.29841
G1 X147.554 Y133.411 E450.40273
G1 X101.588 Y87.446 E456.88896
G1 X102.51 Y86.954 E456.99324
G1 X148.046 Y132.489 E463.41879
G1 X148.391 Y131.843 E463.49186
G1 X148.533 Y131.562 E463.52328
G1 X103.44 Y86.469 E469.88639
G1 X104.039 Y86.176 E469.95292
G1 X104.199 Y86.105 E469.97039
G1 X104.407 Y86.022 E469.99274
G1 X148.976 Y130.592 E476.28197
G1 X149.11 Y130.277 E476.31613
G1 X149.168 Y130.127 E476.33218
G1 X149.362 Y129.563 E476.39169
G1 X105.433 Y85.634 E482.59055
G1 X105.823 Y85.505 E482.63153
G1 X106.51 Y85.297 E482.70316
G1 X149.702 Y128.489 E488.79801
G1 X150.031 Y127.404 E488.91114
G1 X107.596 Y84.968 E494.89925
G1 X108.68 Y84.639 E495.01228
