;FLAVOR:Marlin
;TIME:11110
;Filament used: 6.68622m
;Layer height: 0.2
;MINX:61.085
;MINY:77.523
;MINZ:0.24
;MAXX:173.915
;MAXY:157.646
;MAXZ:6.09
;Generated with Cura_SteamEngine 4.13.0
M140 S60
M105
M190 S60
M104 S200
M105
M109 S200
M82 ;absolute extrusion mode
; Ender 3 Custom Start G-code
G92 E0 ; Reset Extruder
G28 ; Home all axes
G1 Z2.0 F3000 ; Move Z Axis up little to prevent scratching of Heat Bed
G1 X0.1 Y20 Z0.3 F5000.0 ; Move to start position
G1 X0.1 Y200.0 Z0.3 F1500.0 E15 ; Draw the first line
G1 X0.4 Y200.0 Z0.3 F5000.0 ; Move to side a little
G1 X0.4 Y20 Z0.3 F1500.0 E30 ; Draw the second line
G92 E0 ; Reset Extruder
G1 Z2.0 F3000 ; Move Z Axis up little to prevent scratching of Heat Bed
G1 X5 Y20 Z0.3 F5000.0 ; Move over to prevent blob squish
G92 E0
G92 E0
G1 F2700 E-5
;LAYER_COUNT:25
;LAYER:-6
M107
G0 F9000 X67.464 Y81.737 Z0.24
;TYPE:SUPPORT-INTERFACE
G1 F2700 E0
G1 F675 X68.176 Y81.187 E0.07182
G1 X68.335 Y81.074 E0.08739
G1 X69.073 Y80.584 E0.1581
G1 X69.199 Y80.508 E0.16985
G1 X69.993 Y80.062 E0.24254
G1 X70.143 Y79.984 E0.25604
G1 X70.958 Y79.601 E0.32792
G1 X71.101 Y79.541 E0.3403
G1 X71.96 Y79.212 E0.41373
G1 X72.11 Y79.16 E0.4264
G1 X72.96 Y78.905 E0.49724
G1 X73.133 Y78.858 E0.51155
G1 X74.028 Y78.658 E0.58475
G1 X74.158 Y78.635 E0.59529
G1 X75.063 Y78.501 E0.66832
G1 X75.232 Y78.483 E0.68188
G1 X76.121 Y78.417 E0.75304
G1 X76.305 Y78.408 E0.76775
G1 X76.81 Y78.4 E0.80807
G1 X158.253 Y78.401 E7.3092
G1 X159.254 Y78.437 E7.38915
G1 X159.377 Y78.446 E7.399
G1 X160.294 Y78.548 E7.47265
G1 X160.469 Y78.573 E7.48676
G1 X161.358 Y78.737 E7.55892
G1 X161.481 Y78.765 E7.56899
G1 X162.375 Y78.999 E7.64276
G1 X162.538 Y79.048 E7.65634
G1 X163.38 Y79.334 E7.72733
G1 X163.546 Y79.398 E7.74153
G1 X164.349 Y79.739 E7.81117
G1 X164.538 Y79.827 E7.82781
G1 X165.332 Y80.235 E7.89907
G1 X165.449 Y80.302 E7.90983
G1 X166.228 Y80.776 E7.98262
G1 X166.379 Y80.876 E7.99708
G1 X167.093 Y81.387 E8.06717
G1 X167.241 Y81.5 E8.08203
G1 X167.932 Y82.076 E8.15384
G1 X168.045 Y82.177 E8.16594
G1 X168.694 Y82.802 E8.23786
G1 X168.814 Y82.927 E8.25169
G1 X169.417 Y83.598 E8.3237
G1 X169.513 Y83.714 E8.33572
G1 X170.072 Y84.438 E8.40874
G1 X170.166 Y84.569 E8.42161
G1 X170.666 Y85.323 E8.49383
G1 X170.742 Y85.449 E8.50557
G1 X171.188 Y86.243 E8.57827
G1 X171.266 Y86.393 E8.59176
G1 X171.649 Y87.208 E8.66365
G1 X171.709 Y87.351 E8.67602
G1 X172.038 Y88.21 E8.74945
G1 X172.09 Y88.36 E8.76212
G1 X172.345 Y89.21 E8.83296
G1 X172.392 Y89.383 E8.84727
G1 X172.59 Y90.269 E8.91974
G1 X172.615 Y90.408 E8.93101
G1 X172.748 Y91.307 E9.00356
G1 X172.766 Y91.469 E9.01657
G1 X172.833 Y92.371 E9.08877
G1 X172.842 Y92.555 E9.10347
G1 X172.85 Y93.056 E9.14347
G1 X172.85 Y141.986 E13.04927
G1 X172.814 Y142.992 E13.12963
G1 X172.804 Y143.127 E13.14044
G1 X172.702 Y144.044 E13.21409
G1 X172.677 Y144.219 E13.2282
G1 X172.515 Y145.097 E13.29947
G1 X172.485 Y145.231 E13.31043
G1 X172.254 Y146.116 E13.38344
G1 X172.202 Y146.288 E13.39778
G1 X171.926 Y147.1 E13.46624
G1 X171.846 Y147.309 E13.4841
G1 X171.511 Y148.099 E13.5526
G1 X171.43 Y148.274 E13.56799
G1 X171.015 Y149.082 E13.6405
G1 X170.948 Y149.199 E13.65126
G1 X170.474 Y149.978 E13.72405
G1 X170.374 Y150.129 E13.73851
G1 X169.863 Y150.843 E13.8086
G1 X169.75 Y150.991 E13.82346
G1 X169.174 Y151.682 E13.89527
G1 X169.073 Y151.795 E13.90737
G1 X168.448 Y152.444 E13.97929
G1 X168.323 Y152.564 E13.99312
G1 X167.653 Y153.166 E14.06502
G1 X167.536 Y153.263 E14.07716
G1 X166.824 Y153.813 E14.14897
G1 X166.665 Y153.926 E14.16454
G1 X165.927 Y154.416 E14.23526
G1 X165.801 Y154.492 E14.247
G1 X165.007 Y154.938 E14.3197
G1 X164.856 Y155.016 E14.33326
G1 X164.042 Y155.399 E14.40507
G1 X163.899 Y155.459 E14.41745
G1 X163.04 Y155.788 E14.49088
G1 X162.89 Y155.84 E14.50355
G1 X162.04 Y156.095 E14.57439
G1 X161.867 Y156.142 E14.5887
G1 X160.972 Y156.342 E14.66191
G1 X160.842 Y156.365 E14.67244
G1 X159.937 Y156.499 E14.74547
G1 X159.769 Y156.517 E14.75896
G1 X158.879 Y156.583 E14.8302
G1 X158.695 Y156.592 E14.8449
G1 X158.19 Y156.6 E14.88522
G1 X76.747 Y156.599 E21.38635
G1 X75.746 Y156.563 E21.46631
G1 X75.623 Y156.554 E21.47615
G1 X74.706 Y156.452 E21.5498
G1 X74.531 Y156.427 E21.56391
G1 X73.642 Y156.263 E21.63608
G1 X73.519 Y156.235 E21.64615
G1 X72.625 Y156.001 E21.71991
G1 X72.462 Y155.952 E21.7335
G1 X71.62 Y155.666 E21.80448
G1 X71.454 Y155.602 E21.81868
G1 X70.651 Y155.261 E21.88832
G1 X70.462 Y155.173 E21.90496
G1 X69.668 Y154.765 E21.97622
G1 X69.551 Y154.698 E21.98699
G1 X68.772 Y154.224 E22.05978
G1 X68.621 Y154.124 E22.07423
G1 X67.907 Y153.613 E22.14432
G1 X67.759 Y153.5 E22.15918
G1 X67.068 Y152.924 E22.23099
G1 X66.955 Y152.823 E22.24309
G1 X66.306 Y152.198 E22.31501
G1 X66.186 Y152.073 E22.32885
G1 X65.583 Y151.402 E22.40086
G1 X65.486 Y151.284 E22.41305
G1 X64.928 Y150.562 E22.48589
G1 X64.824 Y150.415 E22.50026
G1 X64.331 Y149.672 E22.57144
G1 X64.258 Y149.551 E22.58272
G1 X63.806 Y148.746 E22.65642
G1 X63.734 Y148.607 E22.66891
G1 X63.337 Y147.761 E22.74351
G1 X63.291 Y147.649 E22.75318
G1 X62.962 Y146.79 E22.8266
G1 X62.905 Y146.625 E22.84054
G1 X62.655 Y145.79 E22.91011
G1 X62.608 Y145.617 E22.92442
G1 X62.407 Y144.716 E22.99811
G1 X62.385 Y144.592 E23.00817
G1 X62.25 Y143.678 E23.08192
G1 X62.233 Y143.518 E23.09476
G1 X62.167 Y142.626 E23.16616
G1 X62.158 Y142.445 E23.18063
G1 X62.15 Y141.944 E23.22062
G1 X62.15 Y93.014 E27.12643
G1 X62.186 Y92.008 E27.20678
G1 X62.196 Y91.873 E27.21759
G1 X62.298 Y90.956 E27.29124
G1 X62.323 Y90.781 E27.30535
G1 X62.485 Y89.903 E27.37662
G1 X62.515 Y89.769 E27.38758
G1 X62.746 Y88.884 E27.46059
G1 X62.798 Y88.712 E27.47493
G1 X63.084 Y87.87 E27.54592
G1 X63.148 Y87.704 E27.56012
G1 X63.489 Y86.901 E27.62976
G1 X63.57 Y86.726 E27.64515
G1 X63.985 Y85.918 E27.71766
G1 X64.052 Y85.801 E27.72842
G1 X64.526 Y85.022 E27.80121
G1 X64.626 Y84.871 E27.81567
G1 X65.137 Y84.157 E27.88575
G1 X65.25 Y84.009 E27.90062
G1 X65.826 Y83.318 E27.97243
G1 X65.927 Y83.205 E27.98453
G1 X66.552 Y82.556 E28.05645
G1 X66.677 Y82.436 E28.07028
G1 X67.348 Y81.833 E28.14229
G1 X67.464 Y81.737 E28.15431
G1 X67.2 Y81.966
G1 X67.2 Y153.034 E33.82727
G0 F9000 X68.8 Y154.241
G1 F675 X68.8 Y80.765 E39.69244
G0 F9000 X70.4 Y79.863
G1 F675 X70.4 Y155.141 E45.70145
G0 F9000 X72 Y155.795
G1 F675 X72 Y79.198 E51.81576
G0 F9000 X73.6 Y78.753
G1 F675 X73.6 Y156.253 E58.00214
G0 F9000 X75.2 Y156.506
G1 F675 X75.2 Y78.486 E64.23004
G0 F9000 X76.8 Y78.4
G1 F675 X76.8 Y156.599 E70.47222
G0 F9000 X78.4 Y156.599
G1 F675 X78.4 Y78.401 E76.71432
G0 F9000 X80 Y78.401
G1 F675 X80 Y156.599 E82.95642
G0 F9000 X81.6 Y156.599
G1 F675 X81.6 Y78.401 E89.19853
G0 F9000 X83.2 Y78.401
G1 F675 X83.2 Y156.599 E95.44063
G0 F9000 X84.8 Y156.599
G1 F675 X84.8 Y78.401 E101.68273
G0 F9000 X86.4 Y78.401
G1 F675 X86.4 Y156.599 E107.92483
G0 F9000 X88 Y156.599
G1 F675 X88 Y78.401 E114.16694
G0 F9000 X89.6 Y78.401
G1 F675 X89.6 Y156.599 E120.40904
G0 F9000 X91.2 Y156.599
G1 F675 X91.2 Y78.401 E126.65114
G0 F9000 X92.8 Y78.401
G1 F675 X92.8 Y156.599 E132.89324
G0 F9000 X94.4 Y156.599
G1 F675 X94.4 Y78.401 E139.13535
G0 F9000 X96 Y78.401
G1 F675 X96 Y156.599 E145.37745
G0 F9000 X97.6 Y156.599
G1 F675 X97.6 Y78.401 E151.61955
G0 F9000 X99.2 Y78.401
G1 F675 X99.2 Y156.599 E157.86165
G0 F9000 X100.8 Y156.599
G1 F675 X100.8 Y78.401 E164.10376
G0 F9000 X102.4 Y78.401
G1 F675 X102.4 Y156.599 E170.34586
G0 F9000 X104 Y156.599
G1 F675 X104 Y78.401 E176.58796
G0 F9000 X105.6 Y78.401
G1 F675 X105.6 Y156.599 E182.83006
G0 F9000 X107.2 Y156.599
G1 F675 X107.2 Y78.401 E189.07217
G0 F9000 X108.8 Y78.401
G1 F675 X108.8 Y156.599 E195.31427
G0 F9000 X110.4 Y156.599
G1 F675 X110.4 Y78.401 E201.55637
G0 F9000 X112 Y78.401
G1 F675 X112 Y156.599 E207.79847
G0 F9000 X113.6 Y156.599
G1 F675 X113.6 Y78.401 E214.04058
G0 F9000 X115.2 Y78.401
G1 F675 X115.2 Y156.599 E220.28268
G0 F9000 X116.8 Y156.599
G1 F675 X116.8 Y78.401 E226.52478
G0 F9000 X118.4 Y78.401
G1 F675 X118.4 Y156.599 E232.76688
G0 F9000 X120 Y156.599
G1 F675 X120 Y78.401 E239.00899
G0 F9000 X121.6 Y78.401
G1 F675 X121.6 Y156.599 E245.25109
G0 F9000 X123.2 Y156.599
G1 F675 X123.2 Y78.401 E251.49319
G0 F9000 X124.8 Y78.401
G1 F675 X124.8 Y156.599 E257.73529
G0 F9000 X126.4 Y156.599
G1 F675 X126.4 Y78.401 E263.9774
G0 F9000 X128 Y78.401
G1 F675 X128 Y156.599 E270.2195
G0 F9000 X129.6 Y156.599
G1 F675 X129.6 Y78.401 E276.4616
G0 F9000 X131.2 Y78.401
G1 F675 X131.2 Y156.599 E282.7037
G0 F9000 X132.8 Y156.599
G1 F675 X132.8 Y78.401 E288.94581
G0 F9000 X134.4 Y78.401
G1 F675 X134.4 Y156.599 E295.18791
G0 F9000 X136 Y156.599
G1 F675 X136 Y78.401 E301.43001
G0 F9000 X137.6 Y78.401
G1 F675 X137.6 Y156.599 E307.67211
G0 F9000 X139.2 Y156.599
G1 F675 X139.2 Y78.401 E313.91422
G0 F9000 X140.8 Y78.401
G1 F675 X140.8 Y156.599 E320.15632
G0 F9000 X142.4 Y156.599
G1 F675 X142.4 Y78.401 E326.39842
G0 F9000 X144 Y78.401
G1 F675 X144 Y156.599 E332.64052
G0 F9000 X145.6 Y156.599
G1 F675 X145.6 Y78.401 E338.88263
G0 F9000 X147.2 Y78.401
G1 F675 X147.2 Y156.599 E345.12473
G0 F9000 X148.8 Y156.599
G1 F675 X148.8 Y78.401 E351.36683
G0 F9000 X150.4 Y78.401
G1 F675 X150.4 Y156.599 E357.60893
G0 F9000 X152 Y156.599
G1 F675 X152 Y78.401 E363.85104
G0 F9000 X153.6 Y78.401
G1 F675 X153.6 Y156.599 E370.09314
G0 F9000 X155.2 Y156.599
G1 F675 X155.2 Y78.401 E376.33524
G0 F9000 X156.8 Y78.401
G1 F675 X156.8 Y156.599 E382.57734
G0 F9000 X158.4 Y156.597
G1 F675 X158.4 Y78.407 E388.81881
G0 F9000 X160 Y78.516
G1 F675 X160 Y156.49 E395.04303
G0 F9000 X161.6 Y156.202
G1 F675 X161.6 Y78.797 E401.22183
G0 F9000 X163.2 Y79.273
G1 F675 X163.2 Y155.727 E407.32472
G0 F9000 X164.8 Y155.043
G1 F675 X164.8 Y79.962 E413.31801
G0 F9000 X166.4 Y80.892
G1 F675 X166.4 Y154.102 E419.16195
G0 F9000 X168 Y152.855
G1 F675 X168 Y82.137 E424.80697
G0 F9000 X169.6 Y83.827
G1 F675 X169.6 Y151.171 E430.18266
G0 F9000 X171.2 Y148.722
G1 F675 X171.2 Y86.267 E435.16808
G1 F2700 E430.16808
G0 F9000 X172.216 Y85.914
G0 X173.037 Y87.841
G0 X173.423 Y89.122
G0 X173.491 Y89.439
G0 X173.826 Y91.379
G0 X172.8 Y91.927
G1 F2700 E435.16808
G1 F675 X172.8 Y143.163 E439.25796
G1 F2700 E434.25796
G0 F9000 X173.858 Y143.279
G0 X173.556 Y145.316
G0 X173.214 Y146.62
G0 X172.481 Y148.538
G0 X171.863 Y149.743
G0 X170.716 Y151.481
G0 X169.858 Y152.514
G0 X168.353 Y153.968
G0 X167.273 Y154.799
G0 X165.507 Y155.878
G0 X164.289 Y156.45
G0 X162.323 Y157.121
G0 X161.008 Y157.417
G0 X158.94 Y157.646
G0 X75.693 Y157.626
G0 X74.367 Y157.479
G0 X72.34 Y157.027
G0 X71.05 Y156.587
G0 X69.17 Y155.705
G0 X68.011 Y154.996
G0 X66.367 Y153.725
G0 X66.097 Y153.464
G0 X64.809 Y152.132
G0 X65.6 Y151.42
G1 F2700 E439.25796
G1 F675 X65.6 Y83.589 E444.67253
G0 F9000 X64 Y85.891
G1 F675 X64 Y149.091 E449.71742
G1 F2700 E444.71742
G0 F9000 X62.872 Y149.257
G0 X62.3 Y148.038
G0 X61.758 Y146.447
G0 X61.365 Y144.934
G0 X62.4 Y144.676
G1 F2700 E449.71742
G1 F675 X62.4 Y90.363 E454.05292
G1 F2700 E449.05292
G0 F300 X62.4 Y90.363 Z0.54
G0 F9000 X61.444 Y89.684
G0 X61.786 Y88.38
G0 X62.519 Y86.462
G0 X63.137 Y85.257
G0 X64.284 Y83.519
G0 X65.142 Y82.486
G0 X66.647 Y81.032
G0 X66.952 Y80.797
G0 X68.51 Y79.681
G0 X69.196 Y80.509
;TIME_ELAPSED:520.880150
;LAYER:-5
;TYPE:SUPPORT
G1 F2700 E454.05292
G1 F675 X145.285 Y156.599 E464.78997
G1 X143.871 Y156.599 E464.93106
G1 X68.341 Y81.069 E475.58916
G1 X68.335 Y81.073 E475.58988
G1 X68.175 Y81.186 E475.60943
G1 X67.537 Y81.68 E475.68994
G1 X142.457 Y156.599 E486.26189
G1 X141.043 Y156.599 E486.40298
G1 X66.783 Y82.339 E496.88187
G1 X66.676 Y82.435 E496.89621
G1 X66.552 Y82.555 E496.91343
G1 X66.077 Y83.047 E496.98167
G1 X139.628 Y156.599 E507.36058
G1 X138.214 Y156.599 E507.50167
G1 X65.419 Y83.804 E517.77383
G1 X65.25 Y84.008 E517.80026
G1 X65.136 Y84.156 E517.8189
G1 X64.811 Y84.61 E517.87461
G1 X136.8 Y156.599 E528.03304
G1 X135.386 Y156.599 E528.17413
G1 X64.254 Y85.467 E538.21162
G1 X64.052 Y85.8 E538.25048
G1 X63.985 Y85.917 E538.26394
G1 X63.749 Y86.376 E538.31543
G1 X133.971 Y156.599 E548.22459
G1 X132.557 Y156.599 E548.36568
G1 X63.3 Y87.342 E558.13859
G1 X63.148 Y87.703 E558.17767
G1 X63.083 Y87.869 E558.19546
G1 X62.913 Y88.369 E558.24815
G1 X131.143 Y156.599 E567.87614
G1 X129.728 Y156.598 E568.01733
G1 X62.593 Y89.463 E577.49081
G1 X62.515 Y89.768 E577.52222
G1 X62.484 Y89.902 E577.53594
G1 X62.349 Y90.634 E577.61021
G1 X128.314 Y156.598 E586.91852
G1 X126.9 Y156.598 E587.05961
G1 X62.194 Y91.892 E596.19032
G1 X62.185 Y92.007 E596.20183
G1 X62.149 Y93.013 E596.30228
G1 X62.149 Y93.262 E596.32712
G1 X125.485 Y156.598 E605.26451
G1 X124.071 Y156.598 E605.4056
G1 X62.149 Y94.676 E614.14347
G1 X62.149 Y96.09 E614.28456
G1 X122.657 Y156.598 E622.82289
G1 X121.243 Y156.598 E622.96398
G1 X62.149 Y97.505 E631.30271
G1 X62.149 Y98.919 E631.4438
G1 X119.829 Y156.598 E639.583
G1 X118.414 Y156.598 E639.72419
G1 X62.149 Y100.333 E647.66379
G1 X62.149 Y101.747 E647.80488
G1 X117 Y156.598 E655.54495
G1 X115.586 Y156.598 E655.68604
G1 X62.149 Y103.161 E663.22657
G1 X62.149 Y104.576 E663.36776
G1 X114.172 Y156.598 E670.7087
G1 X112.758 Y156.598 E670.84979
G1 X62.149 Y105.99 E677.9912
G1 X62.149 Y107.404 E678.13229
G1 X111.343 Y156.598 E685.07409
G1 X109.929 Y156.598 E685.21518
G1 X62.149 Y108.818 E691.95745
G1 X62.149 Y110.232 E692.09854
G1 X108.515 Y156.598 E698.64129
G1 X107.101 Y156.598 E698.78238
G1 X62.149 Y111.647 E705.12552
G1 X62.149 Y113.061 E705.26661
G1 X105.687 Y156.598 E711.41022
G1 X104.272 Y156.598 E711.55141
G1 X62.149 Y114.475 E717.49542
G1 X62.149 Y115.889 E717.63651
G1 X102.857 Y156.597 E723.38085
G1 X101.443 Y156.597 E723.52194
G1 X62.149 Y117.304 E729.06667
G1 X62.149 Y118.718 E729.20776
G1 X100.029 Y156.597 E734.55297
G1 X98.615 Y156.597 E734.69406
G1 X62.149 Y120.132 E739.83974
G1 X62.149 Y121.546 E739.98082
G1 X97.201 Y156.597 E744.92697
G1 X95.786 Y156.597 E745.06816
G1 X62.149 Y122.96 E749.8147
G1 X62.149 Y124.375 E749.95589
G1 X94.372 Y156.597 E754.50284
G1 X92.958 Y156.597 E754.64393
G1 X62.149 Y125.789 E758.99134
G1 X62.149 Y127.203 E759.13243
G1 X91.544 Y156.597 E763.28031
G1 X90.129 Y156.597 E763.4215
G1 X62.149 Y128.617 E767.36978
G1 X62.149 Y130.031 E767.51087
G1 X88.715 Y156.597 E771.25962
G1 X87.301 Y156.597 E771.40071
G1 X62.149 Y131.446 E774.94985
G1 X62.149 Y132.86 E775.09094
G1 X85.887 Y156.597 E778.44056
G1 X84.473 Y156.597 E778.58165
G1 X62.149 Y134.274 E781.73174
G1 X62.149 Y135.688 E781.87283
G1 X83.058 Y156.597 E784.82331
G1 X81.644 Y156.597 E784.9644
G1 X62.149 Y137.103 E787.71529
G1 X62.149 Y138.517 E787.85638
G1 X80.23 Y156.597 E790.40773
G1 X78.816 Y156.597 E790.54882
G1 X62.149 Y139.931 E792.90064
G1 X62.149 Y141.345 E793.04173
G1 X77.402 Y156.597 E795.19403
G1 X76.747 Y156.597 E795.25938
G1 X75.959 Y156.569 E795.33806
G1 X62.178 Y142.788 E797.28271
G1 X62.232 Y143.517 E797.35565
G1 X62.25 Y143.677 E797.37171
G1 X62.352 Y144.377 E797.44229
G1 X74.372 Y156.396 E799.13838
G1 X73.642 Y156.262 E799.21243
G1 X73.518 Y156.234 E799.22512
G1 X72.624 Y155.999 E799.31735
G1 X72.534 Y155.972 E799.32673
G1 X62.784 Y146.223 E800.70249
G1 X62.905 Y146.624 E800.74428
G1 X62.962 Y146.789 E800.7617
G1 X63.291 Y147.648 E800.85348
G1 X63.336 Y147.759 E800.86543
G1 X63.715 Y148.568 E800.95457
G1 X70.168 Y155.021 E801.86516
G1 X69.668 Y154.764 E801.92126
G1 X69.55 Y154.697 E801.9348
G1 X68.771 Y154.222 E802.02584
G1 X68.621 Y154.123 E802.04377
G1 X67.906 Y153.612 E802.13146
G1 X67.758 Y153.499 E802.15004
G1 X67.067 Y152.923 E802.2398
G1 X66.955 Y152.822 E802.25485
G1 X66.306 Y152.196 E802.34482
G1 X66.185 Y152.072 E802.36211
G1 X65.582 Y151.401 E802.45212
G1 X65.485 Y151.283 E802.46737
G1 X64.927 Y150.561 E802.55842
G1 X64.824 Y150.413 E802.57641
G1 X64.33 Y149.671 E802.66535
G1 X64.257 Y149.55 E802.67945
G1 X63.805 Y148.744 E802.77166
G1 X63.733 Y148.606 E802.78719
G1 F2700 E797.78719
G0 F9000 X62.771 Y149.059
G0 X61.963 Y147.159
G0 X61.577 Y145.878
G0 X61.195 Y143.82
G0 X61.085 Y141.947
G0 X61.124 Y91.943
G0 X61.271 Y90.617
G0 X61.723 Y88.59
G0 X62.163 Y87.3
G0 X63.045 Y85.42
G0 X63.754 Y84.261
G0 X65.025 Y82.617
G0 X65.948 Y81.66
G0 X67.244 Y80.581
G0 X68.51 Y79.681
G0 X69.198 Y80.506
