;FLAVOR:Marlin
;TIME:13785
;Filament used: 7.80672m
;Layer height: 0.2
;MINX:61.036
;MINY:57.937
;MINZ:0.24
;MAXX:173.865
;MAXY:191.914
;MAXZ:5.09
;Generated with Cura_SteamEngine 4.13.0
M140 S60
M105
M190 S60
M104 S200
M105
M109 S200
M82 ;absolute extrusion mode
; Ender 3 Custom Start G-code
G92 E0 ; Reset Extruder
G28 ; Home all axes
G1 Z2.0 F3000 ; Move Z Axis up little to prevent scratching of Heat Bed
G1 X0.1 Y20 Z0.3 F5000.0 ; Move to start position
G1 X0.1 Y200.0 Z0.3 F1500.0 E15 ; Draw the first line
G1 X0.4 Y200.0 Z0.3 F5000.0 ; Move to side a little
G1 X0.4 Y20 Z0.3 F1500.0 E30 ; Draw the second line
G92 E0 ; Reset Extruder
G1 Z2.0 F3000 ; Move Z Axis up little to prevent scratching of Heat Bed
G1 X5 Y20 Z0.3 F5000.0 ; Move over to prevent blob squish
G92 E0
G92 E0
G1 F2700 E-5
;LAYER_COUNT:20
;LAYER:-6
M107
G0 F9000 X65.928 Y63.788 Z0.24
;TYPE:SUPPORT-INTERFACE
G1 F2700 E0
G1 F675 X66.553 Y63.139 E0.07192
G1 X66.678 Y63.019 E0.08575
G1 X67.349 Y62.416 E0.15777
G1 X67.465 Y62.32 E0.16979
G1 X68.177 Y61.77 E0.2416
G1 X68.336 Y61.657 E0.25717
G1 X69.074 Y61.167 E0.32789
G1 X69.2 Y61.091 E0.33963
G1 X69.994 Y60.645 E0.41233
G1 X70.144 Y60.567 E0.42582
G1 X70.959 Y60.184 E0.49771
G1 X71.102 Y60.124 E0.51009
G1 X71.961 Y59.795 E0.58351
G1 X72.111 Y59.743 E0.59618
G1 X72.961 Y59.488 E0.66702
G1 X73.134 Y59.441 E0.68133
G1 X74.029 Y59.241 E0.75454
G1 X74.159 Y59.218 E0.76508
G1 X75.064 Y59.084 E0.8381
G1 X75.233 Y59.066 E0.85167
G1 X76.122 Y59 E0.92283
G1 X76.306 Y58.991 E0.93754
G1 X76.811 Y58.983 E0.97785
G1 X158.254 Y58.983 E7.47898
G1 X159.254 Y59.019 E7.55886
G1 X159.377 Y59.028 E7.5687
G1 X160.295 Y59.13 E7.64243
G1 X160.47 Y59.155 E7.65655
G1 X161.338 Y59.315 E7.727
G1 X161.502 Y59.352 E7.74042
G1 X162.363 Y59.576 E7.81144
G1 X162.541 Y59.63 E7.82629
G1 X163.399 Y59.923 E7.89866
G1 X163.53 Y59.972 E7.90982
G1 X164.377 Y60.332 E7.98329
G1 X164.519 Y60.399 E7.99582
G1 X165.333 Y60.817 E8.06886
G1 X165.45 Y60.884 E8.07963
G1 X166.229 Y61.358 E8.15242
G1 X166.38 Y61.458 E8.16687
G1 X167.094 Y61.969 E8.23696
G1 X167.242 Y62.082 E8.25182
G1 X167.931 Y62.656 E8.32341
G1 X168.048 Y62.762 E8.33601
G1 X168.704 Y63.394 E8.40872
G1 X168.817 Y63.511 E8.42171
G1 X169.411 Y64.172 E8.49265
G1 X169.511 Y64.292 E8.50512
G1 X170.064 Y65.008 E8.57733
G1 X170.177 Y65.167 E8.5929
G1 X170.667 Y65.905 E8.66362
G1 X170.743 Y66.031 E8.67536
G1 X171.195 Y66.836 E8.74906
G1 X171.26 Y66.961 E8.7603
G1 X171.651 Y67.791 E8.83354
G1 X171.713 Y67.938 E8.84628
G1 X172.037 Y68.786 E8.91874
G1 X172.09 Y68.939 E8.93166
G1 X172.346 Y69.792 E9.00276
G1 X172.393 Y69.965 E9.01707
G1 X172.588 Y70.84 E9.08863
G1 X172.618 Y71.003 E9.10186
G1 X172.746 Y71.866 E9.1715
G1 X172.769 Y72.074 E9.1882
G1 X172.834 Y72.951 E9.2584
G1 X172.843 Y73.136 E9.27318
G1 X172.851 Y73.638 E9.31326
G1 X172.85 Y122.568 E13.21907
G1 X172.814 Y123.573 E13.29934
G1 X172.803 Y123.716 E13.31079
G1 X172.714 Y124.531 E13.37623
G1 X172.683 Y125.196 E13.42937
G1 X172.712 Y125.671 E13.46736
G1 X172.718 Y125.724 E13.47162
G1 X172.784 Y126.618 E13.54318
G1 X172.793 Y126.803 E13.55796
G1 X172.801 Y127.305 E13.59804
G1 X172.8 Y176.235 E17.50384
G1 X172.764 Y177.241 E17.5842
G1 X172.754 Y177.376 E17.595
G1 X172.652 Y178.294 E17.66873
G1 X172.627 Y178.469 E17.68284
G1 X172.467 Y179.335 E17.75314
G1 X172.43 Y179.501 E17.76672
G1 X172.199 Y180.383 E17.8395
G1 X172.157 Y180.523 E17.85116
G1 X171.876 Y181.349 E17.92081
G1 X171.796 Y181.558 E17.93867
G1 X171.461 Y182.348 E18.00717
G1 X171.38 Y182.523 E18.02256
G1 X170.965 Y183.331 E18.09507
G1 X170.898 Y183.448 E18.10583
G1 X170.424 Y184.227 E18.17862
G1 X170.325 Y184.377 E18.19297
G1 X169.81 Y185.096 E18.26357
G1 X169.708 Y185.228 E18.27688
G1 X169.128 Y185.928 E18.34945
G1 X169.023 Y186.044 E18.36194
G1 X168.398 Y186.693 E18.43386
G1 X168.273 Y186.813 E18.44769
G1 X167.604 Y187.413 E18.51943
G1 X167.469 Y187.525 E18.53343
G1 X166.756 Y188.076 E18.60536
G1 X166.646 Y188.156 E18.61622
G1 X165.887 Y188.657 E18.68881
G1 X165.729 Y188.754 E18.70361
G1 X164.972 Y189.179 E18.77291
G1 X164.776 Y189.28 E18.79051
G1 X163.993 Y189.647 E18.85954
G1 X163.842 Y189.712 E18.87266
G1 X162.985 Y190.04 E18.94591
G1 X162.849 Y190.086 E18.95737
G1 X161.975 Y190.35 E19.03025
G1 X161.838 Y190.386 E19.04156
G1 X160.924 Y190.59 E19.11631
G1 X160.78 Y190.616 E19.12799
G1 X159.888 Y190.748 E19.19997
G1 X159.719 Y190.766 E19.21354
G1 X158.829 Y190.832 E19.28478
G1 X158.645 Y190.841 E19.29948
G1 X158.14 Y190.849 E19.3398
G1 X76.698 Y190.848 E25.84085
G1 X75.697 Y190.812 E25.92081
G1 X75.574 Y190.803 E25.93065
G1 X74.657 Y190.701 E26.0043
G1 X74.482 Y190.676 E26.01841
G1 X73.593 Y190.512 E26.09057
G1 X73.47 Y190.484 E26.10064
G1 X72.576 Y190.25 E26.17441
G1 X72.413 Y190.201 E26.188
G1 X71.571 Y189.915 E26.25898
G1 X71.405 Y189.851 E26.27318
G1 X70.602 Y189.51 E26.34282
G1 X70.413 Y189.422 E26.35946
G1 X69.619 Y189.014 E26.43072
G1 X69.502 Y188.947 E26.44148
G1 X68.723 Y188.473 E26.51427
G1 X68.572 Y188.373 E26.52873
G1 X67.858 Y187.862 E26.59882
G1 X67.71 Y187.749 E26.61368
G1 X67.019 Y187.173 E26.68549
G1 X66.906 Y187.072 E26.69759
G1 X66.257 Y186.447 E26.76951
G1 X66.137 Y186.322 E26.78334
G1 X65.534 Y185.651 E26.85536
G1 X65.437 Y185.533 E26.86755
G1 X64.879 Y184.811 E26.94039
G1 X64.775 Y184.664 E26.95476
G1 X64.282 Y183.921 E27.02594
G1 X64.209 Y183.8 E27.03722
G1 X63.757 Y182.995 E27.11092
G1 X63.685 Y182.856 E27.12341
G1 X63.288 Y182.01 E27.19801
G1 X63.242 Y181.898 E27.20767
G1 X62.913 Y181.039 E27.2811
G1 X62.856 Y180.874 E27.29503
G1 X62.606 Y180.039 E27.36461
G1 X62.559 Y179.866 E27.37892
G1 X62.358 Y178.965 E27.45261
G1 X62.336 Y178.841 E27.46266
G1 X62.201 Y177.927 E27.53641
G1 X62.184 Y177.767 E27.54926
G1 X62.118 Y176.875 E27.62066
G1 X62.109 Y176.694 E27.63512
G1 X62.101 Y176.193 E27.67512
G1 X62.101 Y127.264 E31.58084
G1 X62.137 Y126.258 E31.6612
G1 X62.147 Y126.123 E31.672
G1 X62.238 Y125.297 E31.73834
G1 X62.269 Y124.631 E31.79156
G1 X62.238 Y124.138 E31.83099
G1 X62.168 Y123.208 E31.90544
G1 X62.159 Y123.027 E31.9199
G1 X62.151 Y122.526 E31.9599
G1 X62.151 Y73.597 E35.86562
G1 X62.187 Y72.591 E35.94598
G1 X62.197 Y72.456 E35.95678
G1 X62.299 Y71.539 E36.03043
G1 X62.324 Y71.364 E36.04455
G1 X62.486 Y70.486 E36.11581
G1 X62.516 Y70.352 E36.12678
G1 X62.747 Y69.467 E36.19979
G1 X62.799 Y69.295 E36.21413
G1 X63.085 Y68.453 E36.28511
G1 X63.149 Y68.287 E36.29932
G1 X63.49 Y67.484 E36.36895
G1 X63.571 Y67.309 E36.38435
G1 X63.986 Y66.501 E36.45686
G1 X64.053 Y66.384 E36.46762
G1 X64.527 Y65.605 E36.54041
G1 X64.627 Y65.454 E36.55487
G1 X65.138 Y64.74 E36.62495
G1 X65.251 Y64.592 E36.63982
G1 X65.827 Y63.901 E36.71163
G1 X65.928 Y63.788 E36.72372
G0 F9000 X65.6 Y64.173
G1 F675 X65.6 Y185.724 E46.42645
G0 F9000 X67.2 Y187.323
G1 F675 X67.2 Y62.549 E56.38645
G0 F9000 X68.8 Y61.348
G1 F675 X68.8 Y188.519 E66.53779
G0 F9000 X70.4 Y189.415
G1 F675 X70.4 Y60.446 E76.83265
G0 F9000 X72 Y59.781
G1 F675 X72 Y190.06 E87.23209
G0 F9000 X73.6 Y190.513
G1 F675 X73.6 Y59.336 E97.7032
G0 F9000 X75.2 Y59.069
G1 F675 X75.2 Y190.761 E108.21543
G0 F9000 X76.8 Y190.848
G1 F675 X76.8 Y58.983 E118.74146
G0 F9000 X78.4 Y58.983
G1 F675 X78.4 Y190.848 E129.26749
G0 F9000 X80 Y190.848
G1 F675 X80 Y58.983 E139.79353
G0 F9000 X81.6 Y58.983
G1 F675 X81.6 Y190.848 E150.31956
G0 F9000 X83.2 Y190.848
G1 F675 X83.2 Y58.983 E160.8456
G0 F9000 X84.8 Y58.983
G1 F675 X84.8 Y190.848 E171.37163
G0 F9000 X86.4 Y190.848
G1 F675 X86.4 Y58.983 E181.89767
G0 F9000 X88 Y58.983
G1 F675 X88 Y190.848 E192.4237
G0 F9000 X89.6 Y190.848
G1 F675 X89.6 Y58.983 E202.94974
G0 F9000 X91.2 Y58.983
G1 F675 X91.2 Y190.848 E213.47577
G0 F9000 X92.8 Y190.848
G1 F675 X92.8 Y58.983 E224.00181
G0 F9000 X94.4 Y58.983
G1 F675 X94.4 Y190.848 E234.52784
G0 F9000 X96 Y190.848
G1 F675 X96 Y58.983 E245.05387
G0 F9000 X97.6 Y58.983
G1 F675 X97.6 Y190.848 E255.57991
G0 F9000 X99.2 Y190.848
G1 F675 X99.2 Y58.983 E266.10594
G0 F9000 X100.8 Y58.983
G1 F675 X100.8 Y190.848 E276.63198
G0 F9000 X102.4 Y190.848
G1 F675 X102.4 Y58.983 E287.15801
G0 F9000 X104 Y58.983
G1 F675 X104 Y190.848 E297.68405
G0 F9000 X105.6 Y190.848
G1 F675 X105.6 Y58.983 E308.21008
G0 F9000 X107.2 Y58.983
G1 F675 X107.2 Y190.848 E318.73612
G0 F9000 X108.8 Y190.848
G1 F675 X108.8 Y58.983 E329.26215
G0 F9000 X110.4 Y58.983
G1 F675 X110.4 Y190.848 E339.78818
G0 F9000 X112 Y190.848
G1 F675 X112 Y58.983 E350.31422
G0 F9000 X113.6 Y58.983
G1 F675 X113.6 Y190.848 E360.84025
G0 F9000 X115.2 Y190.848
G1 F675 X115.2 Y58.983 E371.36629
G0 F9000 X116.8 Y58.983
G1 F675 X116.8 Y190.848 E381.89232
G0 F9000 X118.4 Y190.848
G1 F675 X118.4 Y58.983 E392.41836
G0 F9000 X120 Y58.983
G1 F675 X120 Y190.848 E402.94439
G0 F9000 X121.6 Y190.848
G1 F675 X121.6 Y58.983 E413.47043
G0 F9000 X123.2 Y58.983
G1 F675 X123.2 Y190.848 E423.99646
G0 F9000 X124.8 Y190.848
G1 F675 X124.8 Y58.983 E434.5225
G0 F9000 X126.4 Y58.983
G1 F675 X126.4 Y190.848 E445.04853
G0 F9000 X128 Y190.848
G1 F675 X128 Y58.983 E455.57456
G0 F9000 X129.6 Y58.983
G1 F675 X129.6 Y190.848 E466.1006
G0 F9000 X131.2 Y190.848
G1 F675 X131.2 Y58.983 E476.62663
G0 F9000 X132.8 Y58.983
G1 F675 X132.8 Y190.848 E487.15267
G0 F9000 X134.4 Y190.848
G1 F675 X134.4 Y58.983 E497.6787
G0 F9000 X136 Y58.983
G1 F675 X136 Y190.848 E508.20474
G0 F9000 X137.6 Y190.848
G1 F675 X137.6 Y58.983 E518.73077
G0 F9000 X139.2 Y58.983
G1 F675 X139.2 Y190.848 E529.25681
G0 F9000 X140.8 Y190.848
G1 F675 X140.8 Y58.983 E539.78284
G0 F9000 X142.4 Y58.983
G1 F675 X142.4 Y190.848 E550.30887
G0 F9000 X144 Y190.848
G1 F675 X144 Y58.983 E560.83491
G0 F9000 X145.6 Y58.983
G1 F675 X145.6 Y190.848 E571.36094
G0 F9000 X147.2 Y190.848
G1 F675 X147.2 Y58.983 E581.88698
G0 F9000 X148.8 Y58.983
G1 F675 X148.8 Y190.848 E592.41301
G0 F9000 X150.4 Y190.848
G1 F675 X150.4 Y58.983 E602.93905
G0 F9000 X152 Y58.983
G1 F675 X152 Y190.848 E613.46508
G0 F9000 X153.6 Y190.848
G1 F675 X153.6 Y58.983 E623.99112
G0 F9000 X155.2 Y58.983
G1 F675 X155.2 Y190.848 E634.51715
G0 F9000 X156.8 Y190.848
G1 F675 X156.8 Y58.983 E645.04319
G0 F9000 X158.4 Y58.989
G1 F675 X158.4 Y190.845 E655.5685
G0 F9000 X160 Y190.732
G1 F675 X160 Y59.098 E666.0761
G0 F9000 X161.6 Y59.378
G1 F675 X161.6 Y190.44 E676.53803
G0 F9000 X163.2 Y189.958
G1 F675 X163.2 Y59.856 E686.92334
G0 F9000 X164.8 Y60.544
G1 F675 X164.8 Y189.268 E697.19864
G0 F9000 X166.4 Y188.319
G1 F675 X166.4 Y61.473 E707.32404
G0 F9000 X168 Y62.719
G1 F675 X168 Y187.058 E717.24932
G0 F9000 X169.6 Y185.359
G1 F675 X169.6 Y64.408 E726.90415
G0 F9000 X171.2 Y66.846
G1 F675 X171.2 Y182.874 E736.166
G1 F2700 E731.166
G0 F9000 X172.332 Y182.998
G0 X172.875 Y181.718
G0 X173.463 Y179.758
G0 X173.709 Y178.422
G0 X173.865 Y176.273
G0 X172.8 Y176.235
G1 F2700 E736.166
G1 F675 X172.8 Y127.243 E740.07676
G0 F9000 X172.8 Y123.744
G1 F675 X172.8 Y72.493 E744.16783
G1 F2700 E739.16783
G0 F9000 X173.861 Y72.414
G0 X173.632 Y70.634
G0 X173.106 Y68.621
G0 X172.627 Y67.365
G0 X171.666 Y65.5
G0 X170.924 Y64.381
G0 X169.592 Y62.781
G0 X168.622 Y61.846
G0 X166.99 Y60.586
G0 X165.831 Y59.877
G0 X163.926 Y58.984
G0 X162.659 Y58.553
G0 X160.634 Y58.103
G0 X159.307 Y57.956
G0 X76.061 Y57.937
G0 X73.993 Y58.166
G0 X72.678 Y58.462
G0 X70.712 Y59.133
G0 X69.494 Y59.705
G0 X67.728 Y60.784
G0 X66.648 Y61.615
G0 X65.143 Y63.069
G0 X64.285 Y64.102
G0 X63.138 Y65.84
G0 X64 Y66.476
G1 F2700 E744.16783
G1 F675 X64 Y183.427 E753.50337
G1 F2700 E748.50337
G0 F9000 X62.823 Y183.506
G0 X62.251 Y182.287
G0 X62.137 Y181.982
G0 X61.528 Y180.127
G0 X62.4 Y179.153
G1 F2700 E753.50337
G1 F675 X62.4 Y70.952 E762.14044
G1 F2700 E757.14044
G0 F300 X62.4 Y70.952 Z0.54
G0 F9000 X61.353 Y70.759
G0 X61.787 Y68.963
G0 X62.52 Y67.045
G0 X63.138 Y65.84
G0 X64.285 Y64.102
G0 X65.143 Y63.069
G0 X66.648 Y61.615
G0 X67.728 Y60.784
G0 X69.494 Y59.705
G0 X70.712 Y59.133
G0 X72.678 Y58.462
G0 X73.993 Y58.166
G0 X76.061 Y57.937
G0 X159.307 Y57.956
G0 X160.634 Y58.103
G0 X162.659 Y58.553
G0 X163.926 Y58.984
G0 X165.831 Y59.877
G0 X166.99 Y60.586
G0 X168.622 Y61.846
G0 X169.592 Y62.781
G0 X170.67 Y64.077
G0 X171.57 Y65.342
G0 X170.742 Y66.031
;TIME_ELAPSED:865.350035
;LAYER:-5
;TYPE:SUPPORT
G1 F2700 E762.14044
G1 F675 X170.665 Y65.905 E762.15517
G1 X170.176 Y65.166 E762.24359
G1 X170.063 Y65.008 E762.26298
G1 X169.51 Y64.291 E762.35332
G1 X169.41 Y64.172 E762.36883
G1 X168.816 Y63.51 E762.45758
G1 X168.703 Y63.394 E762.47374
G1 X168.047 Y62.762 E762.56463
G1 X167.93 Y62.656 E762.58038
G1 X167.241 Y62.081 E762.66993
G1 X167.093 Y61.969 E762.68845
G1 X166.379 Y61.457 E762.77612
G1 X166.228 Y61.358 E762.79413
G1 X165.67 Y61.019 E762.85928
G1 X170.818 Y66.166 E763.58565
G1 X171.194 Y66.836 E763.66231
G1 X171.259 Y66.96 E763.67628
G1 X171.65 Y67.791 E763.76791
G1 X171.712 Y67.937 E763.78374
G1 X172.036 Y68.785 E763.87432
G1 X172.043 Y68.805 E763.87644
G1 X163.037 Y59.8 E765.14721
G1 X162.54 Y59.629 E765.19965
G1 X162.362 Y59.575 E765.21821
G1 X161.501 Y59.352 E765.30696
G1 X161.337 Y59.314 E765.32376
G1 X161.093 Y59.27 E765.34849
G1 X172.565 Y70.742 E766.96732
G1 X172.587 Y70.84 E766.97734
G1 X172.617 Y71.003 E766.99388
G1 X172.744 Y71.866 E767.08092
G1 X172.768 Y72.073 E767.10171
G1 X172.791 Y72.382 E767.13263
G1 X159.444 Y59.035 E769.01603
G1 X159.376 Y59.027 E769.02286
G1 X159.253 Y59.019 E769.03516
G1 X158.253 Y58.982 E769.13501
G1 X157.977 Y58.982 E769.16255
G1 X172.85 Y73.855 E771.26129
G1 X172.85 Y75.27 E771.40248
G1 X156.563 Y58.982 E773.70082
G1 X155.149 Y58.982 E773.84191
G1 X172.85 Y76.684 E776.33979
G1 X172.85 Y78.098 E776.48087
G1 X153.734 Y58.982 E779.17835
G1 X152.32 Y58.982 E779.31944
G1 X172.85 Y79.512 E782.21644
G1 X172.85 Y80.926 E782.35753
G1 X150.906 Y58.982 E785.45407
G1 X149.492 Y58.982 E785.59516
G1 X172.85 Y82.341 E788.89129
G1 X172.85 Y83.755 E789.03238
G1 X148.078 Y58.982 E792.52805
G1 X146.663 Y58.982 E792.66924
G1 X172.85 Y85.169 E796.36451
G1 X172.85 Y86.583 E796.5056
G1 X145.249 Y58.982 E800.4004
G1 X143.835 Y58.982 E800.54149
G1 X172.85 Y87.998 E804.63589
G1 X172.85 Y89.412 E804.77698
G1 X142.421 Y58.982 E809.07091
G1 X141.006 Y58.982 E809.2121
G1 X172.85 Y90.826 E813.70563
G1 X172.85 Y92.24 E813.84672
G1 X139.592 Y58.982 E818.53978
G1 X138.178 Y58.982 E818.68087
G1 X172.85 Y93.654 E823.57347
G1 X172.85 Y95.069 E823.71465
G1 X136.764 Y58.982 E828.80685
G1 X135.35 Y58.982 E828.94794
G1 X172.85 Y96.483 E834.23966
G1 X172.85 Y97.897 E834.38075
G1 X133.935 Y58.982 E839.87208
G1 X132.521 Y58.982 E840.01317
G1 X172.85 Y99.311 E845.70403
G1 X172.85 Y100.725 E845.84512
G1 X131.107 Y58.982 E851.73551
G1 X129.693 Y58.982 E851.8766
G1 X172.85 Y102.139 E857.96651
G1 X172.85 Y103.553 E858.1076
G1 X128.279 Y58.982 E864.39705
G1 X126.864 Y58.982 E864.53824
G1 X172.85 Y104.967 E871.02729
G1 X172.85 Y106.382 E871.16848
G1 X125.45 Y58.982 E877.85713
G1 X124.036 Y58.982 E877.99822
G1 X172.85 Y107.796 E884.88641
G1 X172.85 Y109.21 E885.0275
G1 X122.622 Y58.982 E892.11521
G1 X121.208 Y58.982 E892.2563
G1 X172.85 Y110.624 E899.54354
G1 X172.85 Y112.038 E899.68463
G1 X119.793 Y58.982 E907.17148
G1 X118.379 Y58.982 E907.31257
G1 X172.85 Y113.453 E914.99901
G1 X172.85 Y114.867 E915.1401
G1 X116.965 Y58.982 E923.02608
G1 X115.551 Y58.982 E923.16717
G1 X172.85 Y116.281 E931.25268
G1 X172.85 Y117.695 E931.39377
G1 X114.136 Y58.982 E939.67888
G1 X112.722 Y58.982 E939.81997
G1 X172.85 Y119.11 E948.30468
G1 X172.85 Y120.524 E948.44577
G1 X111.308 Y58.982 E957.13001
G1 X109.894 Y58.982 E957.2711
G1 X172.85 Y121.938 E966.15487
G1 X172.849 Y122.568 E966.21773
G1 X172.822 Y123.325 E966.29331
G1 X108.48 Y58.982 E975.37273
G1 X107.065 Y58.982 E975.51392
G1 X172.708 Y124.625 E984.77686
G1 X172.682 Y125.196 E984.83389
G1 X172.711 Y125.67 E984.88128
G1 X172.717 Y125.724 E984.8867
G1 X172.743 Y126.074 E984.92172
G1 X105.651 Y58.982 E994.38912
G1 X104.237 Y58.982 E994.53021
G1 X172.8 Y127.545 E1004.20519
G1 X172.8 Y128.96 E1004.34638
G1 X102.823 Y58.982 E1014.22096
G1 X101.409 Y58.982 E1014.36205
G1 X172.8 Y130.374 E1024.43617
G1 X172.8 Y131.788 E1024.57725
G1 X99.994 Y58.982 E1034.85097
G1 X98.58 Y58.982 E1034.99206
G1 X172.8 Y133.202 E1045.4653
G1 X172.8 Y134.616 E1045.60639
