;FLAVOR:Marlin
;TIME:21053
;Filament used: 12.5403m
;Layer height: 0.2
;MINX:61.086
;MINY:57.778
;MINZ:0.24
;MAXX:173.915
;MAXY:192.24
;MAXZ:6.09
;Generated with Cura_SteamEngine 4.13.0
M140 S60
M105
M190 S60
M104 S200
M105
M109 S200
M82 ;absolute extrusion mode
; Ender 3 Custom Start G-code
G92 E0 ; Reset Extruder
G28 ; Home all axes
G1 Z2.0 F3000 ; Move Z Axis up little to prevent scratching of Heat Bed
G1 X0.1 Y20 Z0.3 F5000.0 ; Move to start position
G1 X0.1 Y200.0 Z0.3 F1500.0 E15 ; Draw the first line
G1 X0.4 Y200.0 Z0.3 F5000.0 ; Move to side a little
G1 X0.4 Y20 Z0.3 F1500.0 E30 ; Draw the second line
G92 E0 ; Reset Extruder
G1 Z2.0 F3000 ; Move Z Axis up little to prevent scratching of Heat Bed
G1 X5 Y20 Z0.3 F5000.0 ; Move over to prevent blob squish
G92 E0
G92 E0
G1 F2700 E-5
;LAYER_COUNT:25
;LAYER:-6
M107
G0 F9000 X65.927 Y63.629 Z0.24
;TYPE:SUPPORT-INTERFACE
G1 F2700 E0
G1 F675 X66.552 Y62.98 E0.07192
G1 X66.677 Y62.86 E0.08575
G1 X67.348 Y62.257 E0.15777
G1 X67.464 Y62.161 E0.16979
G1 X68.176 Y61.611 E0.2416
G1 X68.335 Y61.498 E0.25717
G1 X69.073 Y61.008 E0.32789
G1 X69.199 Y60.932 E0.33963
G1 X69.993 Y60.486 E0.41233
G1 X70.143 Y60.408 E0.42582
G1 X70.958 Y60.025 E0.49771
G1 X71.101 Y59.965 E0.51009
G1 X71.96 Y59.636 E0.58351
G1 X72.11 Y59.584 E0.59618
G1 X72.96 Y59.329 E0.66702
G1 X73.133 Y59.282 E0.68133
G1 X74.028 Y59.082 E0.75454
G1 X74.158 Y59.059 E0.76508
G1 X75.063 Y58.925 E0.8381
G1 X75.232 Y58.907 E0.85167
G1 X76.121 Y58.841 E0.92283
G1 X76.305 Y58.832 E0.93754
G1 X76.81 Y58.824 E0.97785
G1 X158.253 Y58.825 E7.47898
G1 X159.254 Y58.861 E7.55894
G1 X159.377 Y58.87 E7.56878
G1 X160.294 Y58.972 E7.64244
G1 X160.469 Y58.997 E7.65655
G1 X161.358 Y59.161 E7.72871
G1 X161.481 Y59.189 E7.73878
G1 X162.375 Y59.423 E7.81254
G1 X162.538 Y59.472 E7.82613
G1 X163.38 Y59.758 E7.89711
G1 X163.546 Y59.822 E7.91132
G1 X164.349 Y60.163 E7.98095
G1 X164.538 Y60.251 E7.9976
G1 X165.332 Y60.659 E8.06886
G1 X165.449 Y60.726 E8.07962
G1 X166.228 Y61.2 E8.15241
G1 X166.379 Y61.3 E8.16686
G1 X167.093 Y61.811 E8.23695
G1 X167.241 Y61.924 E8.25182
G1 X167.932 Y62.5 E8.32362
G1 X168.045 Y62.601 E8.33572
G1 X168.694 Y63.226 E8.40765
G1 X168.814 Y63.351 E8.42148
G1 X169.417 Y64.022 E8.49349
G1 X169.513 Y64.138 E8.50551
G1 X170.072 Y64.862 E8.57852
G1 X170.166 Y64.993 E8.59139
G1 X170.666 Y65.747 E8.66361
G1 X170.742 Y65.873 E8.67536
G1 X171.188 Y66.667 E8.74805
G1 X171.266 Y66.817 E8.76155
G1 X171.649 Y67.632 E8.83343
G1 X171.709 Y67.775 E8.84581
G1 X172.038 Y68.634 E8.91924
G1 X172.09 Y68.784 E8.93191
G1 X172.345 Y69.634 E9.00275
G1 X172.392 Y69.807 E9.01706
G1 X172.59 Y70.693 E9.08953
G1 X172.615 Y70.832 E9.1008
G1 X172.748 Y71.731 E9.17334
G1 X172.766 Y71.893 E9.18635
G1 X172.833 Y72.795 E9.25855
G1 X172.842 Y72.979 E9.27326
G1 X172.85 Y73.48 E9.31326
G1 X172.85 Y122.41 E13.21906
G1 X172.814 Y123.415 E13.29934
G1 X172.803 Y123.558 E13.31078
G1 X172.708 Y124.427 E13.38057
G1 X172.677 Y125.096 E13.43402
G1 X172.731 Y125.77 E13.488
G1 X172.769 Y126.082 E13.51309
G1 X172.833 Y126.946 E13.58225
G1 X172.842 Y127.13 E13.59695
G1 X172.85 Y127.631 E13.63695
G1 X172.85 Y176.561 E17.54275
G1 X172.814 Y177.567 E17.62311
G1 X172.804 Y177.702 E17.63391
G1 X172.702 Y178.619 E17.70756
G1 X172.677 Y178.794 E17.72167
G1 X172.515 Y179.672 E17.79294
G1 X172.485 Y179.806 E17.8039
G1 X172.254 Y180.691 E17.87692
G1 X172.202 Y180.863 E17.89126
G1 X171.926 Y181.675 E17.95972
G1 X171.846 Y181.884 E17.97758
G1 X171.511 Y182.674 E18.04608
G1 X171.43 Y182.849 E18.06147
G1 X171.015 Y183.657 E18.13398
G1 X170.948 Y183.774 E18.14474
G1 X170.474 Y184.553 E18.21753
G1 X170.374 Y184.704 E18.23199
G1 X169.863 Y185.418 E18.30208
G1 X169.75 Y185.566 E18.31694
G1 X169.174 Y186.257 E18.38875
G1 X169.073 Y186.37 E18.40085
G1 X168.448 Y187.019 E18.47277
G1 X168.323 Y187.139 E18.4866
G1 X167.653 Y187.741 E18.5585
G1 X167.536 Y187.838 E18.57063
G1 X166.824 Y188.388 E18.64245
G1 X166.665 Y188.501 E18.65802
G1 X165.927 Y188.991 E18.72873
G1 X165.801 Y189.067 E18.74048
G1 X165.007 Y189.513 E18.81317
G1 X164.856 Y189.591 E18.82674
G1 X164.042 Y189.974 E18.89855
G1 X163.899 Y190.034 E18.91093
G1 X163.04 Y190.363 E18.98436
G1 X162.89 Y190.415 E18.99703
G1 X162.04 Y190.67 E19.06787
G1 X161.867 Y190.717 E19.08218
G1 X160.972 Y190.917 E19.15538
G1 X160.842 Y190.94 E19.16592
G1 X159.937 Y191.074 E19.23895
G1 X159.769 Y191.092 E19.25244
G1 X158.879 Y191.158 E19.32368
G1 X158.695 Y191.167 E19.33838
G1 X158.19 Y191.175 E19.3787
G1 X76.747 Y191.174 E25.87983
G1 X75.746 Y191.138 E25.95979
G1 X75.623 Y191.129 E25.96963
G1 X74.706 Y191.027 E26.04328
G1 X74.531 Y191.002 E26.05739
G1 X73.642 Y190.838 E26.12955
G1 X73.519 Y190.81 E26.13962
G1 X72.625 Y190.576 E26.21339
G1 X72.462 Y190.527 E26.22698
G1 X71.62 Y190.241 E26.29796
G1 X71.454 Y190.177 E26.31216
G1 X70.651 Y189.836 E26.3818
G1 X70.462 Y189.748 E26.39844
G1 X69.668 Y189.34 E26.4697
G1 X69.551 Y189.273 E26.48046
G1 X68.772 Y188.799 E26.55325
G1 X68.621 Y188.699 E26.56771
G1 X67.907 Y188.188 E26.6378
G1 X67.759 Y188.075 E26.65266
G1 X67.068 Y187.499 E26.72447
G1 X66.955 Y187.398 E26.73657
G1 X66.306 Y186.773 E26.80849
G1 X66.186 Y186.648 E26.82232
G1 X65.583 Y185.977 E26.89433
G1 X65.486 Y185.859 E26.90653
G1 X64.928 Y185.137 E26.97937
G1 X64.824 Y184.99 E26.99374
G1 X64.331 Y184.247 E27.06492
G1 X64.258 Y184.126 E27.0762
G1 X63.806 Y183.321 E27.14989
G1 X63.734 Y183.182 E27.16239
G1 X63.337 Y182.336 E27.23699
G1 X63.291 Y182.224 E27.24665
G1 X62.962 Y181.365 E27.32008
G1 X62.905 Y181.2 E27.33401
G1 X62.655 Y180.365 E27.40359
G1 X62.608 Y180.192 E27.4179
G1 X62.407 Y179.291 E27.49159
G1 X62.385 Y179.167 E27.50164
G1 X62.25 Y178.253 E27.57539
G1 X62.233 Y178.093 E27.58824
G1 X62.167 Y177.201 E27.65964
G1 X62.158 Y177.02 E27.6741
G1 X62.15 Y176.519 E27.7141
G1 X62.15 Y127.589 E31.6199
G1 X62.186 Y126.584 E31.70018
G1 X62.197 Y126.441 E31.71163
G1 X62.292 Y125.572 E31.78141
G1 X62.323 Y124.903 E31.83487
G1 X62.269 Y124.229 E31.88884
G1 X62.231 Y123.917 E31.91393
G1 X62.167 Y123.05 E31.98333
G1 X62.158 Y122.869 E31.99779
G1 X62.15 Y122.368 E32.03779
G1 X62.15 Y73.438 E35.94359
G1 X62.186 Y72.432 E36.02395
G1 X62.196 Y72.297 E36.03475
G1 X62.298 Y71.38 E36.1084
G1 X62.323 Y71.205 E36.12252
G1 X62.485 Y70.327 E36.19378
G1 X62.515 Y70.193 E36.20475
G1 X62.746 Y69.308 E36.27776
G1 X62.798 Y69.136 E36.2921
G1 X63.084 Y68.294 E36.36308
G1 X63.148 Y68.128 E36.37729
G1 X63.489 Y67.325 E36.44692
G1 X63.57 Y67.15 E36.46232
G1 X63.985 Y66.342 E36.53483
G1 X64.052 Y66.225 E36.54559
G1 X64.526 Y65.446 E36.61838
G1 X64.626 Y65.295 E36.63284
G1 X65.137 Y64.581 E36.70292
G1 X65.25 Y64.433 E36.71779
G1 X65.826 Y63.742 E36.7896
G1 X65.927 Y63.629 E36.80169
G0 F9000 X65.6 Y64.013
G1 F675 X65.6 Y185.995 E46.53882
G0 F9000 X67.2 Y187.609
G1 F675 X67.2 Y62.39 E56.53435
G0 F9000 X68.8 Y61.189
G1 F675 X68.8 Y188.816 E66.72208
G0 F9000 X70.4 Y189.716
G1 F675 X70.4 Y60.287 E77.05367
G0 F9000 X72 Y59.622
G1 F675 X72 Y190.37 E87.49054
G0 F9000 X73.6 Y190.828
G1 F675 X73.6 Y59.177 E97.99949
G0 F9000 X75.2 Y58.91
G1 F675 X75.2 Y191.081 E108.54995
G0 F9000 X76.8 Y191.174
G1 F675 X76.8 Y58.824 E119.1147
G0 F9000 X78.4 Y58.825
G1 F675 X78.4 Y191.174 E129.67937
G0 F9000 X80 Y191.174
G1 F675 X80 Y58.825 E140.24404
G0 F9000 X81.6 Y58.825
G1 F675 X81.6 Y191.174 E150.80871
G0 F9000 X83.2 Y191.174
G1 F675 X83.2 Y58.825 E161.37338
G0 F9000 X84.8 Y58.825
G1 F675 X84.8 Y191.174 E171.93805
G0 F9000 X86.4 Y191.174
G1 F675 X86.4 Y58.825 E182.50272
G0 F9000 X88 Y58.825
G1 F675 X88 Y191.174 E193.06739
G0 F9000 X89.6 Y191.174
G1 F675 X89.6 Y58.825 E203.63206
G0 F9000 X91.2 Y58.825
G1 F675 X91.2 Y191.174 E214.19673
G0 F9000 X92.8 Y191.174
G1 F675 X92.8 Y58.825 E224.76139
G0 F9000 X94.4 Y58.825
G1 F675 X94.4 Y191.174 E235.32606
G0 F9000 X96 Y191.174
G1 F675 X96 Y58.825 E245.89073
G0 F9000 X97.6 Y58.825
G1 F675 X97.6 Y191.174 E256.4554
G0 F9000 X99.2 Y191.174
G1 F675 X99.2 Y58.825 E267.02007
G0 F9000 X100.8 Y58.825
G1 F675 X100.8 Y191.174 E277.58474
G0 F9000 X102.4 Y191.174
G1 F675 X102.4 Y58.825 E288.14941
G0 F9000 X104 Y58.825
G1 F675 X104 Y191.174 E298.71408
G0 F9000 X105.6 Y191.174
G1 F675 X105.6 Y58.825 E309.27875
G0 F9000 X107.2 Y58.825
G1 F675 X107.2 Y191.174 E319.84342
G0 F9000 X108.8 Y191.174
G1 F675 X108.8 Y58.825 E330.40809
G0 F9000 X110.4 Y58.825
G1 F675 X110.4 Y191.174 E340.97276
G0 F9000 X112 Y191.174
G1 F675 X112 Y58.825 E351.53743
G0 F9000 X113.6 Y58.825
G1 F675 X113.6 Y191.174 E362.1021
G0 F9000 X115.2 Y191.174
G1 F675 X115.2 Y58.825 E372.66677
G0 F9000 X116.8 Y58.825
G1 F675 X116.8 Y191.174 E383.23144
G0 F9000 X118.4 Y191.174
G1 F675 X118.4 Y58.825 E393.79611
G0 F9000 X120 Y58.825
G1 F675 X120 Y191.174 E404.36078
G0 F9000 X121.6 Y191.174
G1 F675 X121.6 Y58.825 E414.92545
G0 F9000 X123.2 Y58.825
G1 F675 X123.2 Y191.174 E425.49011
G0 F9000 X124.8 Y191.174
G1 F675 X124.8 Y58.825 E436.05478
G0 F9000 X126.4 Y58.825
G1 F675 X126.4 Y191.174 E446.61945
G0 F9000 X128 Y191.174
G1 F675 X128 Y58.825 E457.18412
G0 F9000 X129.6 Y58.825
G1 F675 X129.6 Y191.174 E467.74879
G0 F9000 X131.2 Y191.174
G1 F675 X131.2 Y58.825 E478.31346
G0 F9000 X132.8 Y58.825
G1 F675 X132.8 Y191.174 E488.87813
G0 F9000 X134.4 Y191.174
G1 F675 X134.4 Y58.825 E499.4428
G0 F9000 X136 Y58.825
G1 F675 X136 Y191.174 E510.00747
G0 F9000 X137.6 Y191.174
G1 F675 X137.6 Y58.825 E520.57214
G0 F9000 X139.2 Y58.825
G1 F675 X139.2 Y191.174 E531.13681
G0 F9000 X140.8 Y191.174
G1 F675 X140.8 Y58.825 E541.70148
G0 F9000 X142.4 Y58.825
G1 F675 X142.4 Y191.174 E552.26615
G0 F9000 X144 Y191.174
G1 F675 X144 Y58.825 E562.83082
G0 F9000 X145.6 Y58.825
G1 F675 X145.6 Y191.174 E573.39549
G0 F9000 X147.2 Y191.174
G1 F675 X147.2 Y58.825 E583.96016
G0 F9000 X148.8 Y58.825
G1 F675 X148.8 Y191.174 E594.52483
G0 F9000 X150.4 Y191.174
G1 F675 X150.4 Y58.825 E605.0895
G0 F9000 X152 Y58.825
G1 F675 X152 Y191.174 E615.65417
G0 F9000 X153.6 Y191.174
G1 F675 X153.6 Y58.825 E626.21883
G0 F9000 X155.2 Y58.825
G1 F675 X155.2 Y191.174 E636.7835
G0 F9000 X156.8 Y191.174
G1 F675 X156.8 Y58.825 E647.34817
G0 F9000 X158.4 Y58.831
G1 F675 X158.4 Y191.172 E657.9122
G0 F9000 X160 Y191.065
G1 F675 X160 Y58.94 E668.45899
G0 F9000 X161.6 Y59.221
G1 F675 X161.6 Y190.777 E678.96036
G0 F9000 X163.2 Y190.302
G1 F675 X163.2 Y59.697 E689.38582
G0 F9000 X164.8 Y60.386
G1 F675 X164.8 Y189.618 E699.70168
G0 F9000 X166.4 Y188.677
G1 F675 X166.4 Y61.316 E709.86818
G0 F9000 X168 Y62.561
G1 F675 X168 Y187.43 E719.83576
G0 F9000 X169.6 Y185.746
G1 F675 X169.6 Y64.251 E729.53402
G0 F9000 X171.2 Y66.691
G1 F675 X171.2 Y183.297 E738.84202
G1 F2700 E733.84202
G0 F9000 X172.382 Y183.324
G0 X172.925 Y182.043
G0 X173.518 Y180.063
G0 X173.585 Y179.691
G0 X173.858 Y177.854
G0 X172.8 Y177.738
G1 F2700 E738.84202
G1 F675 X172.8 Y126.501 E742.93197
G0 F9000 X172.8 Y123.586
G1 F675 X172.8 Y72.351 E747.02177
G1 F2700 E742.02177
G0 F9000 X173.861 Y72.271
G0 X173.635 Y70.49
G0 X173.106 Y68.466
G0 X172.625 Y67.207
G0 X171.665 Y65.342
G0 X170.923 Y64.222
G0 X169.59 Y62.622
G0 X168.633 Y61.699
G0 X166.989 Y60.428
G0 X165.83 Y59.719
G0 X163.95 Y58.837
G0 X162.66 Y58.397
G0 X160.633 Y57.945
G0 X159.307 Y57.798
G0 X76.06 Y57.778
G0 X73.992 Y58.007
G0 X72.677 Y58.303
G0 X70.711 Y58.974
G0 X69.493 Y59.546
G0 X67.727 Y60.625
G0 X66.647 Y61.456
G0 X65.142 Y62.91
G0 X64.284 Y63.943
G0 X63.137 Y65.681
G0 X64 Y66.315
G1 F2700 E747.02177
G1 F675 X64 Y183.666 E756.38924
G1 F2700 E751.38924
G0 F9000 X62.872 Y183.832
G0 X62.3 Y182.613
G0 X61.758 Y181.022
G0 X61.365 Y179.509
G0 X62.4 Y179.251
G1 F2700 E756.38924
G1 F675 X62.4 Y70.787 E765.0473
G1 F2700 E760.0473
G0 F300 X62.4 Y70.787 Z0.54
G0 F9000 X61.353 Y70.594
G0 X61.786 Y68.804
G0 X62.519 Y66.886
G0 X63.137 Y65.681
G0 X64.284 Y63.943
G0 X65.142 Y62.91
G0 X66.647 Y61.456
G0 X67.727 Y60.625
G0 X69.493 Y59.546
G0 X70.711 Y58.974
G0 X72.677 Y58.303
G0 X73.992 Y58.007
G0 X76.06 Y57.778
G0 X159.307 Y57.798
G0 X160.633 Y57.945
G0 X162.66 Y58.397
G0 X163.95 Y58.837
G0 X165.83 Y59.719
G0 X166.989 Y60.428
G0 X168.633 Y61.699
G0 X169.59 Y62.622
G0 X170.669 Y63.918
G0 X171.569 Y65.184
G0 X170.741 Y65.873
;TIME_ELAPSED:868.570082
;LAYER:-5
;TYPE:SUPPORT
G1 F2700 E765.0473
G1 F675 X170.665 Y65.747 E765.06199
G1 X170.165 Y64.993 E765.15226
G1 X170.071 Y64.862 E765.16835
G1 X169.512 Y64.138 E765.25962
G1 X169.416 Y64.022 E765.27464
G1 X168.813 Y63.351 E765.36466
G1 X168.693 Y63.225 E765.38202
G1 X168.044 Y62.6 E765.47192
G1 X167.931 Y62.5 E765.48698
G1 X167.24 Y61.924 E765.57674
G1 X167.092 Y61.811 E765.59532
G1 X166.378 Y61.299 E765.68298
G1 X166.227 Y61.199 E765.70106
G1 X165.448 Y60.725 E765.79204
G1 X165.33 Y60.659 E765.80553
G1 X165.29 Y60.638 E765.81004
G1 X171.018 Y66.366 E766.61832
G1 X171.187 Y66.666 E766.65268
G1 X171.265 Y66.817 E766.66964
G1 X171.648 Y67.631 E766.7594
G1 X171.708 Y67.774 E766.77488
G1 X172.036 Y68.633 E766.86662
G1 X172.089 Y68.783 E766.8825
G1 X172.118 Y68.881 E766.8927
G1 X162.798 Y59.561 E768.20785
G1 X162.536 Y59.471 E768.23549
G1 X162.374 Y59.422 E768.25238
G1 X161.48 Y59.189 E768.34456
G1 X161.357 Y59.16 E768.35717
G1 X160.9 Y59.076 E768.40353
G1 X172.606 Y70.782 E770.05538
G1 X172.614 Y70.832 E770.06043
G1 X172.746 Y71.731 E770.15109
G1 X172.765 Y71.893 E770.16737
G1 X172.802 Y72.393 E770.2174
G1 X159.271 Y58.862 E772.12677
G1 X159.253 Y58.86 E772.12857
G1 X158.252 Y58.824 E772.22852
G1 X157.819 Y58.824 E772.27172
G1 X172.849 Y73.854 E774.39262
G1 X172.849 Y75.268 E774.53371
G1 X156.405 Y58.824 E776.85413
G1 X154.991 Y58.824 E776.99522
G1 X172.849 Y76.682 E779.51518
G1 X172.849 Y78.097 E779.65637
G1 X153.577 Y58.824 E782.37593
G1 X152.163 Y58.824 E782.51702
G1 X172.849 Y79.511 E785.43611
G1 X172.849 Y80.925 E785.57719
G1 X150.748 Y58.824 E788.69588
G1 X149.334 Y58.824 E788.83697
G1 X172.849 Y82.339 E792.15519
G1 X172.849 Y83.753 E792.29628
G1 X147.92 Y58.824 E795.81404
G1 X146.506 Y58.824 E795.95512
G1 X172.849 Y85.168 E799.67248
G1 X172.849 Y86.582 E799.81357
G1 X145.091 Y58.824 E803.73052
G1 X143.677 Y58.824 E803.87161
G1 X172.849 Y87.996 E807.98809
G1 X172.849 Y89.41 E808.12918
G1 X142.263 Y58.824 E812.4452
G1 X140.849 Y58.824 E812.58629
G1 X172.849 Y90.825 E817.1019
G1 X172.849 Y92.239 E817.24299
G1 X139.435 Y58.824 E821.95814
G1 X138.02 Y58.824 E822.09933
G1 X172.849 Y93.653 E827.01408
G1 X172.849 Y95.067 E827.15517
G1 X136.606 Y58.824 E832.26945
G1 X135.192 Y58.824 E832.41054
G1 X172.849 Y96.481 E837.72435
G1 X172.849 Y97.896 E837.86553
G1 X133.778 Y58.824 E843.37895
G1 X132.364 Y58.824 E843.52003
G1 X172.849 Y99.31 E849.23298
G1 X172.849 Y100.724 E849.37407
G1 X130.949 Y58.824 E855.28661
G1 X129.535 Y58.824 E855.4277
G1 X172.849 Y102.138 E861.53977
G1 X172.849 Y103.552 E861.68086
G1 X128.121 Y58.824 E867.99246
G1 X126.707 Y58.824 E868.13355
G1 X172.849 Y104.967 E874.64476
G1 X172.849 Y106.381 E874.78585
G1 X125.292 Y58.824 E881.49666
G1 X123.878 Y58.824 E881.63774
G1 X172.849 Y107.795 E888.54808
G1 X172.849 Y109.209 E888.68917
G1 X122.464 Y58.824 E895.79904
G1 X121.05 Y58.824 E895.94013
G1 X172.849 Y110.624 E903.2496
G1 X172.849 Y112.038 E903.39069
G1 X119.636 Y58.824 E910.89969
G1 X118.221 Y58.824 E911.04088
G1 X172.849 Y113.452 E918.74948
G1 X172.849 Y114.866 E918.89057
G1 X116.806 Y58.824 E926.79877
G1 X115.392 Y58.824 E926.93986
G1 X172.849 Y116.28 E935.04759
G1 X172.849 Y117.695 E935.18878
G1 X113.978 Y58.824 E943.49611
G1 X112.564 Y58.824 E943.6372
G1 X172.849 Y119.109 E952.14407
G1 X172.849 Y120.523 E952.28516
G1 X111.15 Y58.824 E960.99155
G1 X109.735 Y58.824 E961.13274
G1 X172.849 Y121.937 E970.03874
G1 X172.849 Y122.41 E970.08594
G1 X172.816 Y123.319 E970.1767
G1 X108.321 Y58.824 E979.27764
G1 X106.907 Y58.824 E979.41873
G1 X172.698 Y124.615 E988.70255
G1 X172.676 Y125.096 E988.75059
G1 X172.73 Y125.77 E988.81806
G1 X172.744 Y125.874 E988.82853
G1 X172.768 Y126.082 E988.84942
G1 X172.769 Y126.1 E988.85122
G1 X105.493 Y58.824 E998.34459
G1 X104.079 Y58.824 E998.48568
G1 X172.849 Y127.594 E1008.18987
G1 X172.849 Y127.631 E1008.19356
G1 X172.849 Y129.008 E1008.33096
G1 X102.664 Y58.824 E1018.23475
G1 X101.25 Y58.824 E1018.37584
G1 X172.849 Y130.423 E1028.47923
