;FLAVOR:Marlin
;TIME:4072
;Filament used: 2.00275m
;Layer height: 0.2
;MINX:88.854
;MINY:90.335
;MINZ:0.24
;MAXX:146.164
;MAXY:144.665
;MAXZ:11.09
;Generated with Cura_SteamEngine 4.13.0
M140 S60
M105
M190 S60
M104 S200
M105
M109 S200
M82 ;absolute extrusion mode
; Ender 3 Custom Start G-code
G92 E0 ; Reset Extruder
G28 ; Home all axes
G1 Z2.0 F3000 ; Move Z Axis up little to prevent scratching of Heat Bed
G1 X0.1 Y20 Z0.3 F5000.0 ; Move to start position
G1 X0.1 Y200.0 Z0.3 F1500.0 E15 ; Draw the first line
G1 X0.4 Y200.0 Z0.3 F5000.0 ; Move to side a little
G1 X0.4 Y20 Z0.3 F1500.0 E30 ; Draw the second line
G92 E0 ; Reset Extruder
G1 Z2.0 F3000 ; Move Z Axis up little to prevent scratching of Heat Bed
G1 X5 Y20 Z0.3 F5000.0 ; Move over to prevent blob squish
G92 E0
G92 E0
G1 F2700 E-5
;LAYER_COUNT:50
;LAYER:-6
M107
G0 F9000 X94.302 Y95.556 Z0.24
;TYPE:SUPPORT-INTERFACE
G1 F2700 E0
G1 F675 X94.427 Y95.436 E0.01383
G1 X95.098 Y94.833 E0.08584
G1 X95.214 Y94.737 E0.09786
G1 X95.926 Y94.187 E0.16968
G1 X96.085 Y94.074 E0.18525
G1 X96.823 Y93.584 E0.25596
G1 X96.949 Y93.508 E0.26771
G1 X97.743 Y93.062 E0.34041
G1 X97.893 Y92.984 E0.3539
G1 X98.708 Y92.601 E0.42578
G1 X98.851 Y92.541 E0.43816
G1 X99.71 Y92.212 E0.51159
G1 X99.86 Y92.16 E0.52426
G1 X100.71 Y91.905 E0.5951
G1 X100.883 Y91.858 E0.60941
G1 X101.778 Y91.658 E0.68261
G1 X101.908 Y91.635 E0.69315
G1 X102.813 Y91.501 E0.76618
G1 X102.982 Y91.483 E0.77975
G1 X103.871 Y91.417 E0.85091
G1 X104.055 Y91.408 E0.86561
G1 X104.56 Y91.4 E0.90593
G1 X108.506 Y91.401 E1.22092
G1 X108.966 Y91.417 E1.25766
G1 X109.384 Y91.415 E1.29102
G1 X109.533 Y91.409 E1.30293
G1 X110.06 Y91.4 E1.345
G1 X114.006 Y91.401 E1.65999
G1 X114.466 Y91.417 E1.69673
G1 X114.884 Y91.415 E1.7301
G1 X115.033 Y91.409 E1.742
G1 X115.56 Y91.4 E1.78407
G1 X119.506 Y91.401 E2.09906
G1 X119.966 Y91.417 E2.1358
G1 X120.384 Y91.415 E2.16917
G1 X120.533 Y91.409 E2.18107
G1 X121.06 Y91.4 E2.22315
G1 X125.006 Y91.401 E2.53813
G1 X125.466 Y91.417 E2.57487
G1 X125.884 Y91.415 E2.60824
G1 X126.033 Y91.409 E2.62014
G1 X126.56 Y91.4 E2.66222
G1 X130.503 Y91.401 E2.97696
G1 X131.504 Y91.437 E3.05692
G1 X131.627 Y91.446 E3.06677
G1 X132.544 Y91.548 E3.14042
G1 X132.719 Y91.573 E3.15453
G1 X133.608 Y91.737 E3.22669
G1 X133.731 Y91.765 E3.23676
G1 X134.625 Y91.999 E3.31052
G1 X134.788 Y92.048 E3.32411
G1 X135.63 Y92.334 E3.39509
G1 X135.796 Y92.398 E3.4093
G1 X136.599 Y92.739 E3.47894
G1 X136.788 Y92.827 E3.49558
G1 X137.582 Y93.235 E3.56684
G1 X137.699 Y93.302 E3.5776
G1 X138.478 Y93.776 E3.65039
G1 X138.629 Y93.876 E3.66485
G1 X139.343 Y94.387 E3.73493
G1 X139.491 Y94.5 E3.7498
G1 X140.182 Y95.076 E3.82161
G1 X140.295 Y95.177 E3.8337
G1 X140.944 Y95.802 E3.90563
G1 X141.064 Y95.927 E3.91946
G1 X141.667 Y96.598 E3.99147
G1 X141.763 Y96.714 E4.00349
G1 X142.322 Y97.438 E4.0765
G1 X142.416 Y97.569 E4.08937
G1 X142.916 Y98.323 E4.16159
G1 X142.992 Y98.449 E4.17334
G1 X143.438 Y99.243 E4.24603
G1 X143.516 Y99.393 E4.25953
G1 X143.899 Y100.208 E4.33141
G1 X143.959 Y100.351 E4.34379
G1 X144.288 Y101.21 E4.41722
G1 X144.34 Y101.36 E4.42989
G1 X144.595 Y102.21 E4.50073
G1 X144.642 Y102.383 E4.51504
G1 X144.84 Y103.269 E4.58751
G1 X144.865 Y103.408 E4.59878
G1 X144.998 Y104.307 E4.67132
G1 X145.016 Y104.469 E4.68434
G1 X145.083 Y105.371 E4.75654
G1 X145.092 Y105.555 E4.77124
G1 X145.1 Y106.056 E4.81124
G1 X145.1 Y128.986 E6.64161
G1 X145.064 Y129.992 E6.72196
G1 X145.054 Y130.127 E6.73277
G1 X144.952 Y131.044 E6.80642
G1 X144.927 Y131.219 E6.82053
G1 X144.765 Y132.097 E6.8918
G1 X144.735 Y132.231 E6.90276
G1 X144.504 Y133.116 E6.97577
G1 X144.452 Y133.288 E6.99012
G1 X144.176 Y134.1 E7.05858
G1 X144.096 Y134.309 E7.07644
G1 X143.761 Y135.099 E7.14494
G1 X143.68 Y135.274 E7.16033
G1 X143.265 Y136.082 E7.23284
G1 X143.198 Y136.199 E7.2436
G1 X142.724 Y136.978 E7.31639
G1 X142.624 Y137.129 E7.33085
G1 X142.113 Y137.843 E7.40093
G1 X142 Y137.991 E7.4158
G1 X141.424 Y138.682 E7.48761
G1 X141.323 Y138.795 E7.4997
G1 X140.698 Y139.444 E7.57163
G1 X140.573 Y139.564 E7.58546
G1 X139.903 Y140.166 E7.65736
G1 X139.786 Y140.263 E7.66949
G1 X139.074 Y140.813 E7.74131
G1 X138.915 Y140.926 E7.75688
G1 X138.177 Y141.416 E7.82759
G1 X138.051 Y141.492 E7.83934
G1 X137.257 Y141.938 E7.91203
G1 X137.106 Y142.016 E7.9256
G1 X136.292 Y142.399 E7.99741
G1 X136.149 Y142.459 E8.00979
G1 X135.29 Y142.788 E8.08321
G1 X135.14 Y142.84 E8.09589
G1 X134.29 Y143.095 E8.16673
G1 X134.117 Y143.142 E8.18104
G1 X133.222 Y143.342 E8.25424
G1 X133.092 Y143.365 E8.26478
G1 X132.187 Y143.499 E8.33781
G1 X132.019 Y143.517 E8.35129
G1 X131.129 Y143.583 E8.42253
G1 X130.945 Y143.592 E8.43724
G1 X130.44 Y143.6 E8.47755
G1 X126.494 Y143.599 E8.79254
G1 X126.034 Y143.583 E8.82928
G1 X125.616 Y143.585 E8.86265
G1 X125.467 Y143.591 E8.87455
G1 X124.94 Y143.6 E8.91663
G1 X120.994 Y143.599 E9.23161
G1 X120.534 Y143.583 E9.26835
G1 X120.116 Y143.585 E9.30172
G1 X119.967 Y143.591 E9.31363
G1 X119.44 Y143.6 E9.3557
G1 X115.494 Y143.599 E9.67069
G1 X115.034 Y143.583 E9.70743
G1 X114.616 Y143.585 E9.74079
G1 X114.467 Y143.591 E9.7527
G1 X113.94 Y143.6 E9.79477
G1 X109.994 Y143.599 E10.10976
G1 X109.534 Y143.583 E10.1465
G1 X109.116 Y143.585 E10.17987
G1 X108.967 Y143.591 E10.19177
G1 X108.44 Y143.6 E10.23384
G1 X104.497 Y143.599 E10.54859
G1 X103.496 Y143.563 E10.62855
G1 X103.373 Y143.554 E10.63839
G1 X102.456 Y143.452 E10.71204
G1 X102.281 Y143.427 E10.72615
G1 X101.392 Y143.263 E10.79831
G1 X101.269 Y143.235 E10.80838
G1 X100.375 Y143.001 E10.88215
G1 X100.212 Y142.952 E10.89574
G1 X99.37 Y142.666 E10.96672
G1 X99.204 Y142.602 E10.98092
G1 X98.401 Y142.261 E11.05056
G1 X98.212 Y142.173 E11.0672
G1 X97.418 Y141.765 E11.13846
G1 X97.301 Y141.698 E11.14922
G1 X96.522 Y141.224 E11.22201
G1 X96.371 Y141.124 E11.23647
G1 X95.657 Y140.613 E11.30656
G1 X95.509 Y140.5 E11.32142
G1 X94.818 Y139.924 E11.39323
G1 X94.705 Y139.823 E11.40533
G1 X94.056 Y139.198 E11.47725
G1 X93.936 Y139.073 E11.49108
G1 X93.333 Y138.402 E11.5631
G1 X93.236 Y138.284 E11.57529
G1 X92.678 Y137.562 E11.64813
G1 X92.574 Y137.415 E11.6625
G1 X92.081 Y136.672 E11.73368
G1 X92.008 Y136.551 E11.74496
G1 X91.556 Y135.746 E11.81866
G1 X91.484 Y135.607 E11.83115
G1 X91.087 Y134.761 E11.90575
G1 X91.041 Y134.649 E11.91541
G1 X90.712 Y133.79 E11.98884
G1 X90.655 Y133.625 E12.00278
G1 X90.405 Y132.79 E12.07235
G1 X90.358 Y132.617 E12.08666
G1 X90.157 Y131.716 E12.16035
G1 X90.135 Y131.592 E12.1704
G1 X90 Y130.678 E12.24416
G1 X89.983 Y130.518 E12.257
G1 X89.917 Y129.626 E12.3284
G1 X89.908 Y129.445 E12.34286
G1 X89.9 Y128.944 E12.38286
G1 X89.9 Y106.014 E14.21323
G1 X89.936 Y105.008 E14.29359
G1 X89.946 Y104.873 E14.30439
G1 X90.048 Y103.956 E14.37804
G1 X90.073 Y103.781 E14.39215
G1 X90.235 Y102.903 E14.46342
G1 X90.265 Y102.769 E14.47438
G1 X90.496 Y101.884 E14.5474
G1 X90.548 Y101.712 E14.56174
G1 X90.834 Y100.87 E14.63272
G1 X90.898 Y100.704 E14.64692
G1 X91.239 Y99.901 E14.71656
G1 X91.32 Y99.726 E14.73196
G1 X91.735 Y98.918 E14.80446
G1 X91.802 Y98.801 E14.81523
G1 X92.276 Y98.022 E14.88802
G1 X92.376 Y97.871 E14.90247
G1 X92.887 Y97.157 E14.97256
G1 X93 Y97.009 E14.98742
G1 X93.576 Y96.318 E15.05923
G1 X93.677 Y96.205 E15.07133
G1 X94.302 Y95.556 E15.14325
G1 X94.4 Y95.461
G1 X94.4 Y139.529 E18.66095
G0 F9000 X96 Y140.858
G1 F675 X96 Y94.134 E22.39066
G0 F9000 X97.6 Y93.142
G1 F675 X97.6 Y141.858 E26.27939
G0 F9000 X99.2 Y142.6
G1 F675 X99.2 Y92.407 E30.28601
G0 F9000 X100.8 Y91.88
G1 F675 X100.8 Y143.112 E34.37557
G0 F9000 X102.4 Y143.444
G1 F675 X102.4 Y91.562 E38.51701
G0 F9000 X104 Y91.41
G1 F675 X104 Y143.581 E42.68153
G0 F9000 X105.6 Y143.599
G1 F675 X105.6 Y91.401 E46.8482
G0 F9000 X107.2 Y91.401
G1 F675 X107.2 Y143.599 E51.01487
G0 F9000 X108.8 Y143.594
G1 F675 X108.8 Y91.412 E55.18026
G0 F9000 X110.4 Y91.401
G1 F675 X110.4 Y143.599 E59.34693
G0 F9000 X112 Y143.599
G1 F675 X112 Y91.401 E63.5136
G0 F9000 X113.6 Y91.401
G1 F675 X113.6 Y143.599 E67.68027
G0 F9000 X115.2 Y143.588
G1 F675 X115.2 Y91.406 E71.84566
G0 F9000 X116.8 Y91.401
G1 F675 X116.8 Y143.599 E76.01233
G0 F9000 X118.4 Y143.599
G1 F675 X118.4 Y91.401 E80.179
G0 F9000 X120 Y91.416
G1 F675 X120 Y143.59 E84.34376
G0 F9000 X121.6 Y143.599
G1 F675 X121.6 Y91.401 E88.51043
G0 F9000 X123.2 Y91.401
G1 F675 X123.2 Y143.599 E92.6771
G0 F9000 X124.8 Y143.599
G1 F675 X124.8 Y91.401 E96.84377
G0 F9000 X126.4 Y91.402
G1 F675 X126.4 Y143.595 E101.01004
G0 F9000 X128 Y143.599
G1 F675 X128 Y91.401 E105.17671
G0 F9000 X129.6 Y91.401
G1 F675 X129.6 Y143.599 E109.34338
G0 F9000 X131.2 Y143.578
G1 F675 X131.2 Y91.427 E113.5063
G0 F9000 X132.8 Y91.588
G1 F675 X132.8 Y143.409 E117.64287
G0 F9000 X134.4 Y143.062
G1 F675 X134.4 Y91.941 E121.72357
G0 F9000 X136 Y92.485
G1 F675 X136 Y142.517 E125.71734
G0 F9000 X137.6 Y141.746
G1 F675 X137.6 Y93.246 E129.58882
G0 F9000 X139.2 Y94.285
G1 F675 X139.2 Y140.716 E133.29515
G0 F9000 X140.8 Y139.339
G1 F675 X140.8 Y95.664 E136.78148
G0 F9000 X142.4 Y97.547
G1 F675 X142.4 Y137.442 E139.96607
G0 F9000 X144 Y134.536
G1 F675 X144 Y100.459 E142.68624
G1 F2700 E137.68624
G0 F9000 X144.875 Y99.783
G0 X143.915 Y97.918
G0 X143.173 Y96.798
G0 X141.84 Y95.198
G0 X140.883 Y94.275
G0 X139.239 Y93.004
G0 X138.08 Y92.295
G0 X136.2 Y91.413
G0 X134.91 Y90.973
G0 X132.883 Y90.521
G0 X131.557 Y90.374
G0 X103.81 Y90.354
G0 X101.742 Y90.583
G0 X100.427 Y90.879
G0 X98.461 Y91.55
G0 X97.243 Y92.122
G0 X95.477 Y93.201
G0 X94.397 Y94.032
G0 X93.179 Y95.209
G0 X92.162 Y96.352
G0 X92.8 Y97.278
G1 F2700 E142.68624
G1 F675 X92.8 Y137.719 E145.91442
G0 F9000 X91.2 Y135.001
G1 F675 X91.2 Y99.992 E148.70899
G1 F2700 E143.70899
G0 F300 X91.2 Y99.992 Z0.54
G0 F9000 X89.913 Y100.3
G0 X89.473 Y101.59
G0 X89.021 Y103.617
G0 X88.874 Y104.943
G0 X88.854 Y129.687
G0 X89.083 Y131.758
G0 X89.379 Y133.073
G0 X90.05 Y135.038
G0 X91.234 Y135.075
;TIME_ELAPSED:175.733016
;LAYER:-5
;TYPE:SUPPORT
G1 F2700 E148.70899
G1 F675 X98.432 Y142.273 E149.7247
G1 X98.4 Y142.259 E149.72819
G1 X98.211 Y142.172 E149.74895
G1 X97.417 Y141.764 E149.83802
G1 X97.3 Y141.697 E149.85147
G1 X96.521 Y141.223 E149.94246
G1 X96.37 Y141.123 E149.96053
G1 X95.657 Y140.612 E150.04806
G1 X95.508 Y140.499 E150.06672
G1 X94.818 Y139.922 E150.15647
G1 X94.704 Y139.822 E150.1716
G1 X94.055 Y139.197 E150.2615
G1 X93.936 Y139.072 E150.27872
G1 X93.333 Y138.401 E150.36874
G1 X93.236 Y138.283 E150.38398
G1 X92.678 Y137.561 E150.47503
G1 X92.573 Y137.414 E150.49305
G1 X92.08 Y136.671 E150.58203
G1 X92.008 Y136.55 E150.59608
G1 X91.555 Y135.745 E150.68824
G1 X91.484 Y135.606 E150.70382
G1 F2700 E145.70382
G0 F9000 X90.622 Y136.257
G0 X91.701 Y138.023
G0 X92.532 Y139.103
G0 X93.986 Y140.608
G0 X95.019 Y141.466
G0 X96.426 Y142.394
G0 X97.751 Y143.132
G0 X98.432 Y142.273
G1 F2700 E150.70382
G1 F675 X99.203 Y142.601 E150.78742
G1 X99.37 Y142.665 E150.80527
G1 X100.211 Y142.95 E150.89387
G1 X100.374 Y143 E150.91088
G1 X100.643 Y143.07 E150.93862
G1 X90.422 Y132.849 E152.38091
G1 X90.405 Y132.788 E152.38723
G1 X90.358 Y132.616 E152.40502
G1 X90.156 Y131.714 E152.49725
G1 X90.134 Y131.591 E152.50972
G1 X90.057 Y131.07 E152.56227
G1 X102.435 Y143.447 E154.30887
G1 X102.456 Y143.451 E154.311
G1 X103.372 Y143.553 E154.40296
G1 X103.496 Y143.562 E154.41537
G1 X103.981 Y143.579 E154.46379
G1 X89.91 Y129.508 E156.44936
G1 X89.907 Y129.443 E156.45586
G1 X89.9 Y128.943 E156.50575
G1 X89.9 Y128.083 E156.59156
G1 X105.414 Y143.598 E158.78082
G1 X106.828 Y143.598 E158.92191
G1 X89.9 Y126.669 E161.31071
G1 X89.9 Y125.255 E161.4518
G1 X108.243 Y143.598 E164.04019
G1 X108.44 Y143.599 E164.05985
G1 X108.967 Y143.59 E164.11244
G1 X109.115 Y143.584 E164.12722
G1 X109.533 Y143.582 E164.16893
G1 X109.644 Y143.585 E164.18001
G1 X89.9 Y123.841 E166.9661
G1 X89.9 Y122.427 E167.10719
G1 X111.071 Y143.598 E170.09465
G1 X112.485 Y143.598 E170.23574
G1 X89.9 Y121.012 E173.4228
G1 X89.9 Y119.598 E173.56389
G1 X113.9 Y143.598 E176.95054
G1 X113.94 Y143.599 E176.95454
G1 X114.467 Y143.59 E177.00713
G1 X114.615 Y143.584 E177.02191
G1 X115.033 Y143.582 E177.06362
G1 X115.307 Y143.591 E177.09097
G1 X89.9 Y118.184 E180.67617
G1 X89.9 Y116.77 E180.81726
G1 X116.728 Y143.598 E184.60298
G1 X118.142 Y143.598 E184.74407
G1 X89.9 Y115.355 E188.7294
G1 X89.9 Y113.941 E188.87048
G1 X119.555 Y143.597 E193.0552
G1 X119.967 Y143.59 E193.09631
G1 X120.115 Y143.584 E193.11109
G1 X120.533 Y143.582 E193.1528
G1 X120.969 Y143.597 E193.19633
G1 X89.9 Y112.527 E197.58057
G1 X89.9 Y111.113 E197.72166
G1 X122.385 Y143.598 E202.30565
G1 X123.799 Y143.598 E202.44674
G1 X89.9 Y109.699 E207.23025
G1 X89.9 Y108.284 E207.37144
G1 X125.209 Y143.594 E212.35399
G1 X125.466 Y143.59 E212.37964
G1 X125.615 Y143.584 E212.39452
G1 X126.034 Y143.582 E212.43633
G1 X126.493 Y143.598 E212.48215
G1 X126.627 Y143.598 E212.49552
G1 X89.9 Y106.87 E217.67817
G1 X89.9 Y106.013 E217.76368
G1 X89.919 Y105.475 E217.8174
G1 X128.042 Y143.598 E223.19697
G1 X129.456 Y143.598 E223.33805
G1 X90.023 Y104.166 E228.90241
G1 X90.047 Y103.955 E228.9236
G1 X90.072 Y103.78 E228.94123
G1 X90.225 Y102.953 E229.02515
G1 X130.863 Y143.591 E234.75961
G1 X130.944 Y143.59 E234.7677
G1 X131.128 Y143.582 E234.78607
G1 X132.018 Y143.516 E234.87512
G1 X132.184 Y143.498 E234.89178
G1 X90.513 Y101.826 E240.77208
G1 X90.547 Y101.711 E240.78405
G1 X90.834 Y100.869 E240.87281
G1 X90.871 Y100.771 E240.88326
G1 X133.401 Y143.3 E246.88463
G1 X134.116 Y143.141 E246.95772
G1 X134.289 Y143.094 E246.97561
G1 X134.534 Y143.02 E247.00114
G1 X91.294 Y99.779 E253.10285
G1 X91.32 Y99.724 E253.10892
G1 X91.735 Y98.917 E253.19946
G1 X91.775 Y98.846 E253.20759
G1 X135.597 Y142.668 E259.39135
G1 X136.149 Y142.457 E259.45032
G1 X136.292 Y142.398 E259.46575
G1 X136.597 Y142.254 E259.49941
G1 X92.31 Y97.967 E265.74878
G1 X92.375 Y97.869 E265.76051
G1 X92.886 Y97.156 E265.84804
G1 X92.898 Y97.14 E265.85004
G1 X137.536 Y141.779 E272.14901
G1 X138.05 Y141.491 E272.2078
G1 X138.177 Y141.415 E272.22257
G1 X138.423 Y141.251 E272.25207
G1 X93.536 Y96.364 E278.58611
G1 X93.576 Y96.317 E278.59227
G1 X93.676 Y96.203 E278.6074
G1 X94.222 Y95.636 E278.68594
G1 X139.256 Y140.67 E285.04073
G1 X139.785 Y140.262 E285.10738
G1 X139.903 Y140.164 E285.12269
G1 X140.04 Y140.04 E285.14113
G1 X94.958 Y94.958 E291.50268
G1 X95.097 Y94.832 E291.5214
G1 X95.213 Y94.736 E291.53643
G1 X95.742 Y94.328 E291.60309
G1 X140.776 Y139.362 E297.95787
G1 X141.322 Y138.795 E298.03641
G1 X141.422 Y138.682 E298.05147
G1 X141.463 Y138.634 E298.05777
G1 X96.576 Y93.748 E304.39174
G1 X96.822 Y93.584 E304.42124
G1 X96.948 Y93.507 E304.43597
G1 X97.462 Y93.22 E304.49471
G1 X142.1 Y137.858 E310.79362
G1 X142.112 Y137.842 E310.79561
G1 X142.623 Y137.129 E310.88314
G1 X142.688 Y137.031 E310.89488
G1 X98.401 Y92.744 E317.14425
G1 X98.707 Y92.6 E317.17799
G1 X98.849 Y92.541 E317.19334
G1 X99.401 Y92.33 E317.2523
G1 X143.224 Y136.153 E323.4362
G1 X143.264 Y136.081 E323.44442
G1 X143.679 Y135.274 E323.53497
G1 X143.704 Y135.219 E323.54099
G1 X100.464 Y91.979 E329.64263
G1 X100.709 Y91.904 E329.66819
G1 X100.882 Y91.858 E329.68605
G1 X101.597 Y91.698 E329.75916
G1 X144.126 Y134.227 E335.76046
G1 X144.174 Y134.099 E335.7741
G1 X144.451 Y133.287 E335.85971
G1 X144.485 Y133.172 E335.87167
G1 X102.814 Y91.501 E341.7519
G1 X102.981 Y91.482 E341.76867
G1 X103.87 Y91.416 E341.85762
G1 X104.054 Y91.408 E341.876
G1 X104.135 Y91.407 E341.88408
G1 X144.773 Y132.045 E347.61854
G1 X144.926 Y131.218 E347.70246
G1 X144.951 Y131.043 E347.7201
G1 X144.975 Y130.833 E347.74119
G1 X105.542 Y91.4 E353.30561
G1 X106.956 Y91.4 E353.4467
G1 X145.08 Y129.524 E358.82641
G1 X145.099 Y128.986 E358.88013
G1 X145.099 Y128.129 E358.96564
G1 X108.371 Y91.4 E364.14843
G1 X108.505 Y91.4 E364.1618
G1 X108.965 Y91.416 E364.20772
G1 X109.383 Y91.414 E364.24943
G1 X109.532 Y91.409 E364.26431
G1 X109.789 Y91.404 E364.28996
G1 X145.099 Y126.714 E369.27258
G1 X145.099 Y125.3 E369.41367
G1 X111.199 Y91.4 E374.19732
G1 X112.613 Y91.4 E374.33841
G1 X145.099 Y123.886 E378.92254
G1 X145.099 Y122.472 E379.06363
G1 X114.029 Y91.402 E383.44794
G1 X114.465 Y91.416 E383.49147
G1 X114.883 Y91.414 E383.53318
